code/data/lut/02白兔糖.cube
#Generated by Picture Instruments - Look Converter
LUT_3D_SIZE 5
0.0000 0.0000 0.0039
0.3333 0.0039 0.0078
0.6627 0.0078 0.0118
0.9137 0.0118 0.0157
0.9569 0.0549 0.0275
0.0078 0.3373 0.0118
0.3098 0.3412 0.0039
0.6549 0.3373 0.0000
0.9216 0.3255 0.0039
0.9882 0.3059 0.0392
0.0157 0.6627 0.0745
0.0784 0.6706 0.0941
0.5882 0.6706 0.0000
0.8863 0.6353 0.0000
0.9922 0.5804 0.0549
0.0235 0.8824 0.2824
0.0471 0.8902 0.2902
0.4667 0.8824 0.2902
0.7843 0.8745 0.1882
0.9882 0.8392 0.1490
0.0235 0.9765 0.3843
0.1294 0.9922 0.4000
0.4392 0.9922 0.4353
0.6667 0.9882 0.4000
0.9137 0.9882 0.3176
0.0275 0.0078 0.3765
0.3490 0.0039 0.3608
0.6706 0.0118 0.3686
0.9255 0.0863 0.3725
0.9647 0.1882 0.3765
0.0314 0.3255 0.3412
0.2902 0.3176 0.3451
0.6510 0.3294 0.3529
0.9098 0.3373 0.3490
0.9882 0.3647 0.3765
0.0353 0.6510 0.3843
0.2157 0.6627 0.3922
0.5922 0.6667 0.3647
0.8745 0.6275 0.3451
0.9922 0.6039 0.3765
0.0431 0.8784 0.4745
0.2431 0.8784 0.4902
0.5216 0.8784 0.5059
0.7804 0.8745 0.4431
0.9922 0.8353 0.3922
0.1882 0.9804 0.5294
0.3020 0.9882 0.5373
0.5020 0.9922 0.5608
0.6980 0.9882 0.5412
0.9216 0.9882 0.4784
0.0000 0.0000 0.7451
0.2667 0.0000 0.7412
0.6392 0.0000 0.7294
0.9020 0.0706 0.7255
0.9686 0.2196 0.6745
0.0000 0.2941 0.6941
0.1490 0.2784 0.7020
0.6000 0.3020 0.7059
0.8824 0.3490 0.6941
0.9647 0.4157 0.6706
0.0000 0.6392 0.7098
0.1059 0.6431 0.7137
0.5765 0.6471 0.7137
0.8431 0.6588 0.7059
0.9647 0.6706 0.7098
0.2196 0.8706 0.7137
0.3843 0.8706 0.7216
0.6275 0.8706 0.7373
0.8078 0.8667 0.7294
0.9647 0.8510 0.6980
0.4275 0.9804 0.7373
0.5059 0.9765 0.7373
0.6275 0.9765 0.7451
0.7725 0.9765 0.7451
0.9333 0.9765 0.7176
0.0235 0.0157 0.8941
0.1137 0.0196 0.9059
0.5176 0.0627 0.9059
0.8000 0.1569 0.9098
0.9686 0.2314 0.9059
0.0275 0.2667 0.9020
0.0941 0.2706 0.9020
0.5176 0.3098 0.9098
0.8078 0.3569 0.9098
0.9922 0.4000 0.8980
0.0314 0.5922 0.9059
0.2118 0.6000 0.9020
0.5490 0.6235 0.9059
0.8039 0.6431 0.8941
0.9882 0.6510 0.8902
0.2235 0.8510 0.8980
0.3686 0.8471 0.9020
0.5922 0.8549 0.8941
0.8157 0.8588 0.8902
0.9843 0.8588 0.8863
0.4353 0.9843 0.8745
0.5176 0.9922 0.8745
0.6706 0.9882 0.8745
0.8431 0.9882 0.8902
0.9725 0.9843 0.8863
0.0000 0.0902 0.9922
0.0549 0.0980 0.9922
0.4510 0.1373 0.9882
0.7176 0.2078 0.9882
0.9333 0.2902 0.9765
0.0000 0.2863 0.9882
0.1176 0.2902 0.9922
0.4706 0.3255 0.9882
0.7294 0.3725 0.9882
0.9373 0.4353 0.9843
0.2667 0.6000 0.9882
0.3608 0.5922 0.9882
0.5529 0.6118 0.9882
0.7569 0.6353 0.9882
0.9451 0.6588 0.9843
0.3686 0.8157 0.9882
0.4667 0.8196 0.9922
0.6392 0.8314 0.9882
0.8118 0.8471 0.9882
0.9647 0.8510 0.9843
0.4745 0.9804 0.9882
0.5569 0.9843 0.9882
0.6980 0.9882 0.9882
0.8627 0.9882 0.9882
0.9804 0.9843 0.9843
