code/data/lut/05等风来.cube
#Generated by Picture Instruments - Look Converter
LUT_3D_SIZE 5
0.0431 0.0000 0.0000
0.3059 0.0118 0.0118
0.6510 0.0196 0.0118
0.8471 0.0431 0.0275
0.9490 0.0863 0.0471
0.2784 0.4510 0.0667
0.4784 0.3843 0.1490
0.7373 0.4235 0.1882
0.8980 0.4549 0.1961
0.9804 0.4706 0.2471
0.5137 0.8078 0.1882
0.6196 0.7843 0.2431
0.7569 0.7569 0.3569
0.8941 0.7608 0.3725
0.9843 0.7608 0.3922
0.6118 0.9373 0.3059
0.6902 0.9412 0.3294
0.7961 0.9412 0.3922
0.8941 0.9412 0.4667
0.9765 0.9373 0.4824
0.6667 0.9843 0.3569
0.7294 0.9882 0.3725
0.8118 0.9882 0.4157
0.8941 0.9843 0.4784
0.9725 0.9843 0.5490
0.0431 0.0353 0.3373
0.2627 0.0039 0.2392
0.6392 0.0118 0.2588
0.8431 0.0157 0.2549
0.9490 0.0275 0.2863
0.0706 0.4627 0.2000
0.2902 0.2706 0.2431
0.6627 0.2784 0.2588
0.8667 0.2980 0.2588
0.9686 0.3490 0.3137
0.2980 0.8235 0.1686
0.5059 0.7569 0.2784
0.6980 0.6980 0.4431
0.8745 0.7059 0.4588
0.9765 0.7137 0.4784
0.5137 0.9373 0.2706
0.6314 0.9412 0.3373
0.7608 0.9294 0.4431
0.8745 0.9216 0.5451
0.9765 0.9176 0.5608
0.5961 0.9804 0.3176
0.6902 0.9843 0.3725
0.7843 0.9882 0.4510
0.8784 0.9843 0.5333
0.9765 0.9843 0.6314
0.0157 0.2000 0.7647
0.1843 0.0588 0.7255
0.5882 0.0078 0.6235
0.8157 0.0078 0.6314
0.9412 0.0235 0.6196
0.0392 0.4784 0.6863
0.1725 0.3608 0.6902
0.6000 0.2275 0.6392
0.8510 0.2353 0.6235
0.9490 0.2980 0.6039
0.0627 0.8157 0.5961
0.2667 0.7333 0.6078
0.5922 0.6314 0.6275
0.8314 0.6275 0.6157
0.9529 0.6431 0.6353
0.2510 0.9373 0.5529
0.4314 0.9373 0.5529
0.6706 0.9216 0.5922
0.8353 0.8980 0.7020
0.9608 0.8980 0.7216
0.4039 0.9765 0.5176
0.5608 0.9765 0.5216
0.7333 0.9765 0.5882
0.8627 0.9765 0.6902
0.9569 0.9725 0.7765
0.0588 0.3216 0.9216
0.1882 0.2275 0.9216
0.5686 0.0667 0.9255
0.7843 0.0353 0.9059
0.9412 0.0275 0.8824
0.0863 0.5412 0.9490
0.1961 0.4588 0.9451
0.5686 0.3451 0.9412
0.8235 0.2471 0.9412
0.9686 0.2667 0.9020
0.1255 0.7922 0.9451
0.2588 0.7412 0.9451
0.5569 0.6667 0.9373
0.8039 0.6118 0.9216
0.9686 0.6275 0.9059
0.1529 0.9412 0.9137
0.3412 0.9333 0.9216
0.6000 0.9059 0.9255
0.8000 0.8745 0.9137
0.9725 0.8706 0.9137
0.2627 0.9804 0.8941
0.4549 0.9882 0.8941
0.6627 0.9843 0.8863
0.8314 0.9843 0.8902
0.9804 0.9843 0.9333
0.0980 0.3882 0.9882
0.2824 0.2980 0.9882
0.5922 0.1490 0.9882
0.7961 0.0431 0.9882
0.9373 0.0235 0.9608
0.1451 0.5961 0.9922
0.2941 0.5059 0.9882
0.5961 0.4235 0.9882
0.7961 0.3412 0.9882
0.9529 0.2784 0.9765
0.1804 0.7922 0.9882
0.3647 0.7412 0.9882
0.6118 0.6980 0.9922
0.8039 0.6706 0.9882
0.9529 0.6431 0.9804
0.2118 0.9216 0.9922
0.4157 0.9098 0.9922
0.6510 0.8902 0.9882
0.8235 0.8784 0.9882
0.9686 0.8784 0.9843
0.2039 0.9647 0.9804
0.4157 0.9686 0.9843
0.6706 0.9725 0.9882
0.8510 0.9765 0.9882
0.9843 0.9882 0.9882
