code/data/lut/06粉红佳人.cube
#Generated by Picture Instruments - Look Converter
LUT_3D_SIZE 5
0.0000 0.0000 0.0000
0.3451 0.0000 0.0000
0.6275 0.0000 0.0000
0.8392 0.0000 0.0000
0.9922 0.0000 0.0000
0.0039 0.3373 0.0039
0.3451 0.3176 0.0000
0.6235 0.3176 0.0000
0.8471 0.3176 0.0000
0.9961 0.3176 0.0039
0.0000 0.5882 0.0039
0.3569 0.5882 0.0000
0.6471 0.5882 0.0000
0.8471 0.6039 0.0000
0.9961 0.6078 0.0000
0.0000 0.8157 0.0000
0.3686 0.8118 0.0039
0.6510 0.8157 0.0000
0.8392 0.8157 0.0000
0.9922 0.8157 0.0000
0.0000 0.9961 0.0000
0.3451 0.9961 0.0000
0.6275 0.9961 0.0000
0.8431 0.9961 0.0000
0.9961 0.9961 0.0000
0.0039 0.0000 0.2980
0.3451 0.0039 0.3216
0.6549 0.0039 0.3020
0.8667 0.0000 0.3216
0.9922 0.0000 0.3176
0.0000 0.3137 0.3020
0.3490 0.3176 0.3059
0.6275 0.3176 0.3020
0.8431 0.3176 0.3137
0.9922 0.3216 0.3020
0.0000 0.5882 0.3059
0.3490 0.6157 0.3216
0.6275 0.5882 0.3059
0.8392 0.5882 0.3059
0.9961 0.5882 0.3176
0.0000 0.8157 0.3176
0.3608 0.8157 0.3255
0.6471 0.8157 0.3020
0.8549 0.8157 0.3020
0.9961 0.8157 0.3176
0.0000 0.9922 0.3176
0.3451 0.9961 0.3020
0.6275 0.9961 0.3020
0.8431 0.9961 0.3137
0.9922 0.9961 0.3137
0.0078 0.0000 0.5725
0.3686 0.0000 0.5725
0.6549 0.0000 0.5882
0.8627 0.0000 0.5961
0.9961 0.0000 0.5725
0.0000 0.3176 0.5725
0.3451 0.3216 0.5725
0.6275 0.3255 0.5922
0.8667 0.3137 0.5725
0.9922 0.3176 0.5686
0.0000 0.5882 0.5922
0.3451 0.5882 0.5686
0.6275 0.5922 0.5725
0.8431 0.5882 0.5725
0.9922 0.5882 0.5882
0.0000 0.8118 0.5922
0.3608 0.8157 0.5765
0.6275 0.8392 0.5961
0.8471 0.8157 0.5725
0.9922 0.8157 0.5725
0.0000 0.9922 0.5922
0.3412 0.9922 0.5725
0.6431 0.9922 0.5843
0.8627 0.9961 0.5686
0.9922 0.9961 0.5882
0.0000 0.0000 0.8000
0.3608 0.0000 0.8039
0.6510 0.0000 0.8196
0.8588 0.0000 0.8078
0.9961 0.0000 0.8039
0.0039 0.3176 0.8196
0.3647 0.3176 0.8039
0.6549 0.3176 0.8000
0.8667 0.3137 0.8157
0.9961 0.3137 0.8196
0.0000 0.5882 0.8196
0.3490 0.5882 0.8039
0.6275 0.5843 0.8039
0.8431 0.6118 0.8235
0.9922 0.5843 0.8039
0.0000 0.8392 0.8078
0.3451 0.8157 0.8196
0.6235 0.8157 0.8039
0.8471 0.8157 0.8039
0.9922 0.8157 0.8039
0.0039 0.9961 0.8196
0.3647 0.9961 0.8235
0.6510 0.9961 0.8000
0.8627 0.9961 0.8000
0.9922 0.9922 0.8157
0.0000 0.0000 0.9922
0.3569 0.0000 0.9922
0.6471 0.0000 0.9961
0.8471 0.0000 0.9922
0.9961 0.0000 0.9922
0.0000 0.3176 0.9922
0.3569 0.3216 0.9961
0.6510 0.3176 0.9961
0.8627 0.3176 0.9961
0.9961 0.3176 0.9961
0.0000 0.5882 0.9961
0.3451 0.5882 0.9882
0.6431 0.5922 0.9922
0.8627 0.5882 0.9961
0.9922 0.6000 0.9882
0.0000 0.8157 0.9961
0.3412 0.8157 0.9961
0.6275 0.8157 0.9922
0.8431 0.8118 0.9922
0.9922 0.8157 0.9922
0.0000 0.9961 0.9961
0.3529 0.9961 0.9922
0.6431 0.9922 0.9922
0.8549 0.9922 0.9961
0.9922 0.9961 0.9922
