code/data/lut/07粉色系1.cube
#Generated by Picture Instruments - Look Converter
LUT_3D_SIZE 5
0.2157 0.1686 0.1686
0.3647 0.1725 0.1686
0.6549 0.2000 0.1882
0.8471 0.2196 0.2000
0.9686 0.2431 0.2078
0.2118 0.2863 0.1686
0.3176 0.2902 0.1686
0.6196 0.3137 0.1647
0.8353 0.3333 0.1686
0.9882 0.3569 0.1725
0.2196 0.3647 0.1686
0.2588 0.4431 0.1647
0.5529 0.5686 0.1686
0.8549 0.5922 0.1686
0.9843 0.5765 0.1647
0.2157 0.6431 0.1725
0.2667 0.6980 0.1647
0.3882 0.7686 0.1686
0.8000 0.8196 0.1686
0.9843 0.8000 0.1647
0.2196 0.9725 0.1686
0.2627 0.9843 0.1647
0.3137 0.9843 0.1647
0.6196 0.9843 0.1686
0.9843 0.9843 0.1686
0.2353 0.2118 0.3725
0.3608 0.1765 0.3216
0.6392 0.1843 0.3216
0.8392 0.2078 0.3294
0.9686 0.2275 0.3373
0.2275 0.3882 0.3373
0.3608 0.3373 0.3529
0.6471 0.3451 0.3765
0.8510 0.3647 0.3725
0.9843 0.3922 0.3961
0.2196 0.5608 0.2863
0.3020 0.5176 0.2941
0.5922 0.5725 0.3216
0.8431 0.5961 0.3373
0.9843 0.6078 0.3686
0.2196 0.8078 0.2314
0.2627 0.7961 0.2392
0.3843 0.8157 0.2353
0.8235 0.8353 0.2863
0.9882 0.8118 0.3216
0.2196 0.9804 0.2275
0.2588 0.9843 0.2353
0.3176 0.9882 0.2353
0.6431 0.9843 0.2353
0.9843 0.9882 0.2863
0.2471 0.2784 0.6824
0.3765 0.2275 0.6471
0.6549 0.1725 0.6118
0.8784 0.1725 0.5843
0.9647 0.2157 0.5686
0.2392 0.4549 0.6471
0.3804 0.3961 0.6510
0.6431 0.3255 0.6235
0.8667 0.3255 0.5922
0.9647 0.3686 0.5882
0.2196 0.7451 0.6235
0.3647 0.7020 0.6314
0.6392 0.6157 0.6471
0.8510 0.6157 0.6549
0.9647 0.6353 0.6588
0.2118 0.9137 0.5608
0.2941 0.8863 0.5725
0.5020 0.8353 0.5804
0.8314 0.8235 0.6275
0.9647 0.8314 0.6667
0.2157 0.9804 0.4824
0.2863 0.9765 0.4902
0.4196 0.9725 0.5059
0.6784 0.9725 0.4941
0.9647 0.9765 0.6275
0.2471 0.3451 0.8863
0.3529 0.2863 0.8627
0.6235 0.2118 0.8588
0.8706 0.1765 0.8431
0.9686 0.2000 0.7843
0.2471 0.5216 0.8824
0.3725 0.4431 0.8745
0.6275 0.3765 0.8667
0.8745 0.3176 0.8431
0.9882 0.3490 0.8039
0.2314 0.7725 0.8745
0.3647 0.7294 0.8706
0.6275 0.6431 0.8667
0.8588 0.5961 0.8588
0.9882 0.6196 0.8314
0.2196 0.9412 0.8588
0.3569 0.9216 0.8627
0.6196 0.8706 0.8588
0.8431 0.8314 0.8863
0.9882 0.8392 0.8745
0.2275 0.9804 0.7843
0.3255 0.9843 0.7961
0.5098 0.9882 0.8118
0.7647 0.9882 0.8549
0.9843 0.9843 0.8745
0.2902 0.4431 0.9882
0.4000 0.3922 0.9843
0.6275 0.3020 0.9843
0.8353 0.2510 0.9882
0.9725 0.1961 0.9686
0.2824 0.5843 0.9843
0.4157 0.5294 0.9843
0.6431 0.4588 0.9882
0.8392 0.4000 0.9882
0.9765 0.3569 0.9725
0.2706 0.7725 0.9843
0.4039 0.7412 0.9882
0.6588 0.6902 0.9843
0.8471 0.6588 0.9843
0.9804 0.6275 0.9804
0.2549 0.9137 0.9882
0.4039 0.8941 0.9843
0.6510 0.8784 0.9882
0.8510 0.8549 0.9843
0.9843 0.8392 0.9843
0.2510 0.9765 0.9804
0.3961 0.9804 0.9843
0.6431 0.9843 0.9882
0.8510 0.9843 0.9882
0.9843 0.9843 0.9843
