code/data/lut/08粉色系2.cube
#Generated by Picture Instruments - Look Converter
LUT_3D_SIZE 5
0.0000 0.0000 0.0000
0.2157 0.0118 0.0235
0.5176 0.0431 0.0549
0.7490 0.0784 0.0902
0.8863 0.0941 0.1059
0.0078 0.1922 0.0275
0.2392 0.1922 0.0431
0.5294 0.2510 0.0745
0.7529 0.2902 0.1020
0.8941 0.3059 0.1216
0.0196 0.4784 0.0745
0.2667 0.4784 0.0863
0.5373 0.4902 0.1059
0.7529 0.5216 0.1333
0.8902 0.5333 0.1490
0.0314 0.7216 0.1216
0.3059 0.7216 0.1333
0.5725 0.7137 0.1490
0.7686 0.7216 0.1647
0.8863 0.7255 0.1765
0.0392 0.8941 0.1529
0.3059 0.8980 0.1647
0.5765 0.8902 0.1804
0.7686 0.8824 0.1961
0.8863 0.8824 0.2000
0.0471 0.1137 0.2196
0.2275 0.0157 0.2392
0.5255 0.0275 0.2824
0.7529 0.0588 0.3216
0.8824 0.0745 0.3373
0.0314 0.2118 0.2431
0.2392 0.2078 0.2667
0.5333 0.2314 0.3137
0.7647 0.2745 0.3373
0.9020 0.2941 0.3647
0.0314 0.4627 0.2863
0.2588 0.4824 0.3137
0.5451 0.4902 0.3294
0.7647 0.5216 0.3608
0.9098 0.5412 0.3804
0.0353 0.7176 0.3333
0.2824 0.7294 0.3608
0.5686 0.7255 0.3686
0.7725 0.7294 0.3804
0.9020 0.7333 0.3922
0.0431 0.8980 0.3608
0.3020 0.9098 0.3765
0.5804 0.9020 0.3922
0.7765 0.8941 0.3961
0.9059 0.8941 0.4118
0.0902 0.2627 0.5020
0.2863 0.1373 0.5216
0.5333 0.0118 0.5373
0.7608 0.0275 0.5686
0.8902 0.0392 0.5686
0.0549 0.3333 0.4941
0.2863 0.3255 0.5216
0.5412 0.2118 0.5451
0.7725 0.2431 0.5686
0.9020 0.2627 0.5725
0.0275 0.4824 0.5333
0.2824 0.5059 0.5490
0.5647 0.5020 0.5686
0.7804 0.5294 0.5922
0.9137 0.5373 0.6039
0.0157 0.7137 0.5686
0.2863 0.7255 0.5882
0.5843 0.7412 0.6039
0.7882 0.7373 0.6039
0.9176 0.7490 0.6196
0.0353 0.8941 0.5843
0.3059 0.9059 0.6000
0.5922 0.9137 0.6157
0.8000 0.9020 0.6196
0.9176 0.9020 0.6275
0.1451 0.3961 0.7333
0.3216 0.2824 0.7412
0.5490 0.1333 0.7490
0.7569 0.0235 0.7608
0.8980 0.0235 0.7647
0.1176 0.4510 0.7451
0.3451 0.4314 0.7412
0.5725 0.3294 0.7686
0.7765 0.2196 0.7725
0.9137 0.2235 0.7765
0.0824 0.5647 0.7529
0.3333 0.5725 0.7569
0.5922 0.5686 0.7804
0.7843 0.5059 0.7804
0.9255 0.5176 0.7882
0.0510 0.7176 0.7608
0.3059 0.7294 0.7804
0.5882 0.7451 0.7804
0.7961 0.7490 0.7961
0.9412 0.7529 0.8000
0.0471 0.8902 0.7725
0.3059 0.9059 0.7843
0.5882 0.9176 0.7922
0.8039 0.9216 0.8078
0.9373 0.9216 0.8118
0.1725 0.4588 0.8941
0.3529 0.3529 0.8941
0.5725 0.2000 0.8980
0.7725 0.0627 0.9020
0.8980 0.0078 0.9020
0.1490 0.5137 0.8980
0.3725 0.4902 0.9098
0.5882 0.3922 0.9137
0.7882 0.2784 0.9176
0.9098 0.2196 0.9098
0.1059 0.6039 0.9020
0.3608 0.6157 0.9137
0.6078 0.6078 0.9255
0.7922 0.5490 0.9294
0.9216 0.5176 0.9255
0.0706 0.7412 0.9059
0.3333 0.7569 0.9216
0.6039 0.7647 0.9333
0.8078 0.7647 0.9373
0.9412 0.7490 0.9373
0.0471 0.8863 0.9059
0.3098 0.8980 0.9176
0.5882 0.9137 0.9294
0.8118 0.9255 0.9451
0.9529 0.9333 0.9529
