code/data/lut/09海街日记.cube
#Generated by Picture Instruments - Look Converter
LUT_3D_SIZE 5
0.0118 0.0039 0.0000
0.3216 0.0431 0.0039
0.6941 0.1412 0.0118
0.9294 0.2235 0.0196
0.9686 0.2784 0.0196
0.2000 0.3137 0.0118
0.3725 0.3255 0.0000
0.6902 0.3765 0.0275
0.9294 0.4039 0.0157
0.9922 0.4157 0.0431
0.4000 0.6353 0.0235
0.5569 0.6431 0.0000
0.7137 0.6627 0.0000
0.9020 0.6627 0.1686
0.9922 0.6549 0.2902
0.5216 0.8549 0.0824
0.6314 0.8549 0.0784
0.7804 0.8549 0.1098
0.8941 0.8627 0.1608
0.9922 0.8549 0.2824
0.5882 0.9804 0.2000
0.6667 0.9922 0.2039
0.8078 0.9882 0.2235
0.9020 0.9843 0.2588
0.9882 0.9843 0.2941
0.0549 0.0039 0.3333
0.3529 0.0039 0.3373
0.7059 0.0078 0.3294
0.9294 0.0902 0.2824
0.9686 0.2902 0.3098
0.0275 0.3137 0.3294
0.3412 0.3176 0.3373
0.6824 0.3451 0.3333
0.9176 0.3882 0.3216
0.9882 0.4275 0.3294
0.1961 0.6510 0.3020
0.4784 0.6510 0.3294
0.7059 0.6627 0.3412
0.8863 0.6706 0.4314
0.9922 0.6745 0.4706
0.4863 0.8588 0.3569
0.5922 0.8588 0.3686
0.7725 0.8549 0.3765
0.8824 0.8627 0.4000
0.9922 0.8549 0.4667
0.5725 0.9843 0.3922
0.6588 0.9882 0.3922
0.7961 0.9843 0.4000
0.8941 0.9843 0.4275
0.9843 0.9882 0.4549
0.1137 0.0000 0.6902
0.3765 0.0000 0.6941
0.7059 0.0000 0.6980
0.9373 0.0000 0.6706
0.9686 0.1725 0.5843
0.0039 0.2902 0.6627
0.3373 0.2902 0.6706
0.6784 0.2902 0.6784
0.9176 0.3333 0.6471
0.9647 0.3686 0.5725
0.0510 0.6353 0.6706
0.3529 0.6392 0.6667
0.6549 0.6471 0.6706
0.8627 0.6549 0.6627
0.9686 0.6745 0.6549
0.3373 0.8706 0.6314
0.4667 0.8627 0.6392
0.7098 0.8588 0.6706
0.8588 0.8627 0.6863
0.9608 0.8706 0.7255
0.5529 0.9765 0.6588
0.6314 0.9765 0.6627
0.7608 0.9725 0.6667
0.8902 0.9725 0.6745
0.9569 0.9725 0.6902
0.1686 0.0157 0.8745
0.3412 0.0157 0.8824
0.6157 0.0157 0.8863
0.8667 0.0667 0.8902
0.9725 0.2118 0.8627
0.1882 0.2784 0.8824
0.3529 0.2824 0.8824
0.6196 0.3098 0.8902
0.8745 0.3451 0.8902
0.9882 0.3961 0.8588
0.2980 0.5961 0.8784
0.4275 0.6039 0.8745
0.6431 0.6353 0.8745
0.8471 0.6353 0.8745
0.9882 0.6549 0.8549
0.3804 0.8431 0.8667
0.4863 0.8431 0.8745
0.6588 0.8431 0.8667
0.8275 0.8510 0.8667
0.9608 0.8588 0.8588
0.4745 0.9843 0.8353
0.5529 0.9882 0.8353
0.6902 0.9882 0.8353
0.8549 0.9843 0.8588
0.9451 0.9882 0.8784
0.2118 0.0118 0.9882
0.3412 0.0353 0.9882
0.5686 0.0941 0.9922
0.7922 0.1686 0.9882
0.9686 0.2510 0.9725
0.2549 0.2863 0.9882
0.3686 0.2941 0.9882
0.5843 0.3255 0.9882
0.7961 0.3647 0.9882
0.9686 0.4157 0.9804
0.4157 0.6078 0.9922
0.4941 0.6078 0.9882
0.6431 0.6275 0.9882
0.8078 0.6392 0.9882
0.9608 0.6549 0.9804
0.4706 0.8118 0.9882
0.5529 0.8157 0.9882
0.6824 0.8275 0.9882
0.8235 0.8471 0.9843
0.9451 0.8549 0.9882
0.5176 0.9804 0.9882
0.5882 0.9843 0.9843
0.7020 0.9843 0.9843
0.8431 0.9882 0.9882
0.9373 0.9882 0.9882
