code/data/lut/10后花园.cube
#Generated by Picture Instruments - Look Converter
LUT_3D_SIZE 5
0.0392 0.0392 0.0627
0.3255 0.0392 0.0471
0.6667 0.0431 0.0392
0.8706 0.0392 0.0392
0.9569 0.0431 0.0392
0.0353 0.2902 0.2667
0.2863 0.3569 0.1137
0.6471 0.3843 0.1059
0.8627 0.3882 0.1059
0.9843 0.3843 0.1020
0.0314 0.6000 0.5098
0.2078 0.6196 0.3098
0.5922 0.7098 0.1686
0.8275 0.7216 0.1647
0.9725 0.7137 0.1647
0.0353 0.7961 0.6431
0.1255 0.8392 0.5059
0.5294 0.8392 0.2863
0.8000 0.8941 0.2157
0.9647 0.8980 0.2118
0.0353 0.9255 0.7255
0.0784 0.9686 0.6510
0.4235 0.9451 0.4118
0.7451 0.9529 0.3412
0.9490 0.9647 0.2706
0.0510 0.0392 0.3020
0.4039 0.0392 0.2667
0.7255 0.0392 0.2510
0.8980 0.0392 0.2510
0.9608 0.0392 0.2471
0.0471 0.2667 0.3098
0.2863 0.3020 0.3412
0.6510 0.3176 0.3373
0.8627 0.3255 0.3333
0.9804 0.3333 0.3412
0.0392 0.5725 0.4784
0.1725 0.6392 0.5216
0.6000 0.6588 0.4157
0.8314 0.6667 0.4118
0.9686 0.6667 0.4196
0.0392 0.7725 0.5843
0.0980 0.8471 0.6431
0.5176 0.8157 0.5059
0.8000 0.8588 0.4784
0.9647 0.8588 0.4667
0.0431 0.9098 0.6627
0.0745 0.9647 0.7020
0.4196 0.9569 0.5882
0.7451 0.9529 0.5216
0.9569 0.9569 0.5059
0.0235 0.0392 0.5922
0.3922 0.0353 0.5608
0.7882 0.0392 0.4980
0.9137 0.0392 0.4941
0.9647 0.0392 0.4824
0.0235 0.2549 0.5804
0.2627 0.2941 0.6078
0.6941 0.2784 0.5686
0.8784 0.2824 0.5608
0.9608 0.2863 0.5608
0.0196 0.5373 0.5843
0.1608 0.6078 0.6431
0.5922 0.6157 0.6314
0.8314 0.6196 0.6275
0.9529 0.6196 0.6314
0.0235 0.7451 0.6510
0.0941 0.8196 0.7020
0.4863 0.8235 0.7098
0.8039 0.8235 0.6784
0.9529 0.8275 0.6824
0.0353 0.8941 0.7020
0.0824 0.9529 0.7490
0.3961 0.9569 0.7451
0.7608 0.9412 0.7059
0.9373 0.9451 0.7176
0.0471 0.0431 0.7608
0.3216 0.0431 0.7647
0.7647 0.0471 0.7020
0.9098 0.0431 0.6588
0.9647 0.0431 0.6392
0.0431 0.2549 0.7843
0.2471 0.2941 0.8039
0.6941 0.2863 0.7647
0.8824 0.2706 0.7294
0.9843 0.2588 0.7255
0.0392 0.5333 0.7725
0.1412 0.5843 0.8235
0.5843 0.6118 0.8118
0.8353 0.5961 0.7843
0.9686 0.5961 0.7765
0.0392 0.7294 0.7647
0.0784 0.8039 0.8353
0.4588 0.8039 0.8275
0.7922 0.8039 0.8196
0.9686 0.8078 0.8157
0.0392 0.8745 0.7804
0.0745 0.9490 0.8431
0.3647 0.9608 0.8392
0.7333 0.9490 0.8353
0.9608 0.9412 0.8392
0.0196 0.0353 0.8941
0.2627 0.0392 0.9176
0.7647 0.0353 0.8510
0.9137 0.0353 0.8078
0.9686 0.0392 0.7686
0.0235 0.2588 0.9255
0.2078 0.3059 0.9451
0.6784 0.2941 0.9059
0.8745 0.2627 0.8667
0.9647 0.2706 0.8431
0.0235 0.5373 0.9137
0.1333 0.5765 0.9529
0.5882 0.6157 0.9451
0.8314 0.6078 0.9216
0.9608 0.5961 0.8941
0.0235 0.7294 0.9059
0.0824 0.7882 0.9608
0.4627 0.7961 0.9608
0.7882 0.8039 0.9490
0.9569 0.7961 0.9294
0.0353 0.8549 0.8902
0.0824 0.9333 0.9647
0.3961 0.9373 0.9608
0.7333 0.9373 0.9529
0.9608 0.9373 0.9451
