code/data/lut/12胶片.cube
#Generated by Picture Instruments - Look Converter
LUT_3D_SIZE 5
0.0314 0.0588 0.0392
0.1804 0.0588 0.0431
0.5255 0.0588 0.0471
0.8314 0.0588 0.0392
0.9451 0.0588 0.0431
0.0353 0.2314 0.0392
0.1765 0.2314 0.0431
0.5255 0.2353 0.0431
0.8314 0.2353 0.0431
0.9608 0.2314 0.0392
0.0353 0.5647 0.0471
0.1804 0.5725 0.0392
0.5098 0.5804 0.0392
0.8235 0.5843 0.0392
0.9647 0.5686 0.0431
0.0392 0.8275 0.0471
0.1922 0.8314 0.0471
0.5294 0.8314 0.0392
0.8275 0.8314 0.0431
0.9647 0.8314 0.0431
0.0392 0.9333 0.0471
0.1804 0.9333 0.0392
0.5059 0.9373 0.0392
0.8235 0.9333 0.0431
0.9647 0.9333 0.0392
0.0471 0.0549 0.2902
0.1804 0.0549 0.2902
0.5255 0.0588 0.2980
0.8353 0.0588 0.3059
0.9490 0.0627 0.3098
0.0471 0.2235 0.2824
0.1804 0.2275 0.2902
0.5255 0.2353 0.3020
0.8275 0.2353 0.2941
0.9608 0.2392 0.3020
0.0510 0.5647 0.2863
0.1804 0.5765 0.2941
0.5176 0.5765 0.2980
0.8275 0.5765 0.2980
0.9608 0.5765 0.3020
0.0510 0.8275 0.2902
0.1804 0.8314 0.3020
0.5216 0.8314 0.2980
0.8235 0.8314 0.3020
0.9647 0.8275 0.2980
0.0471 0.9333 0.2863
0.1804 0.9333 0.2863
0.5059 0.9333 0.2902
0.8235 0.9373 0.2824
0.9647 0.9333 0.2863
0.0314 0.0588 0.5961
0.1882 0.0549 0.6000
0.5294 0.0549 0.6078
0.8392 0.0549 0.6157
0.9490 0.0588 0.6078
0.0314 0.2235 0.5765
0.1765 0.2275 0.5804
0.5216 0.2275 0.5922
0.8353 0.2314 0.5961
0.9529 0.2314 0.5882
0.0314 0.5647 0.5922
0.1804 0.5686 0.5922
0.5137 0.5804 0.6000
0.8275 0.5804 0.5961
0.9490 0.5765 0.5961
0.0314 0.8314 0.6039
0.1843 0.8314 0.6078
0.5294 0.8353 0.6118
0.8275 0.8314 0.6078
0.9529 0.8314 0.6078
0.0392 0.9333 0.6000
0.1843 0.9294 0.5961
0.5216 0.9333 0.6039
0.8314 0.9294 0.6000
0.9451 0.9294 0.6000
0.0549 0.0588 0.7882
0.1686 0.0627 0.7882
0.5176 0.0627 0.7961
0.8275 0.0627 0.8000
0.9529 0.0588 0.7922
0.0510 0.2235 0.7922
0.1765 0.2196 0.7961
0.5216 0.2353 0.8039
0.8431 0.2314 0.8000
0.9647 0.2275 0.7961
0.0471 0.5647 0.7961
0.1765 0.5647 0.7961
0.5098 0.5765 0.8000
0.8275 0.5725 0.7922
0.9608 0.5725 0.7961
0.0510 0.8314 0.7961
0.1843 0.8314 0.8000
0.5216 0.8275 0.8000
0.8275 0.8275 0.7961
0.9647 0.8275 0.8000
0.0471 0.9333 0.7961
0.1804 0.9373 0.8000
0.5176 0.9333 0.7961
0.8235 0.9333 0.7961
0.9608 0.9333 0.7961
0.0353 0.0549 0.8863
0.1765 0.0549 0.8863
0.5216 0.0549 0.8824
0.8392 0.0549 0.8824
0.9529 0.0549 0.8824
0.0353 0.2235 0.8863
0.1725 0.2157 0.8824
0.5137 0.2275 0.8863
0.8275 0.2314 0.8863
0.9529 0.2314 0.8824
0.0314 0.5647 0.8863
0.1765 0.5647 0.8824
0.5176 0.5765 0.8824
0.8235 0.5804 0.8863
0.9608 0.5804 0.8824
0.0314 0.8275 0.8863
0.1804 0.8275 0.8824
0.5216 0.8275 0.8863
0.8235 0.8275 0.8824
0.9608 0.8314 0.8863
0.0431 0.9255 0.8745
0.1804 0.9294 0.8824
0.5176 0.9333 0.8824
0.8235 0.9333 0.8824
0.9608 0.9333 0.8824
