code/data/lut/13老照片.cube
#Generated by Picture Instruments - Look Converter
LUT_3D_SIZE 5
0.0235 0.0863 0.2549
0.2588 0.0980 0.2627
0.6588 0.0980 0.2667
0.8667 0.0902 0.2588
0.9569 0.1333 0.2941
0.0275 0.2745 0.2588
0.2471 0.2745 0.2588
0.6549 0.2902 0.2627
0.8706 0.2863 0.2627
0.9686 0.2941 0.2706
0.0314 0.5882 0.2588
0.2549 0.6000 0.2627
0.6431 0.6000 0.2627
0.8667 0.6078 0.2706
0.9686 0.5961 0.2627
0.0431 0.8039 0.2667
0.2627 0.8078 0.2588
0.6549 0.8039 0.2588
0.8706 0.8039 0.2588
0.9686 0.8039 0.2588
0.0353 0.9020 0.2588
0.2471 0.9059 0.2588
0.6431 0.9059 0.2706
0.8627 0.9059 0.2588
0.9686 0.9059 0.2588
0.0667 0.1137 0.4549
0.2588 0.0941 0.4471
0.6627 0.1059 0.4627
0.8706 0.0980 0.4588
0.9569 0.1137 0.4706
0.0745 0.2980 0.4588
0.2627 0.2863 0.4549
0.6588 0.2941 0.4588
0.8745 0.2941 0.4549
0.9647 0.2902 0.4588
0.0667 0.6039 0.4627
0.2667 0.6039 0.4627
0.6510 0.6000 0.4510
0.8667 0.6000 0.4549
0.9686 0.6118 0.4706
0.0784 0.8118 0.4706
0.2667 0.8118 0.4588
0.6510 0.8078 0.4588
0.8667 0.8078 0.4549
0.9686 0.8039 0.4510
0.0863 0.9059 0.4745
0.2588 0.9059 0.4510
0.6431 0.9059 0.4471
0.8667 0.9059 0.4471
0.9686 0.9059 0.4471
0.0431 0.1059 0.5961
0.2902 0.1255 0.6078
0.6745 0.1255 0.6118
0.8784 0.1333 0.6157
0.9529 0.1098 0.6039
0.0510 0.2902 0.5922
0.2980 0.3255 0.6118
0.6667 0.3294 0.6157
0.8784 0.3098 0.6078
0.9529 0.3059 0.6000
0.0471 0.6039 0.6000
0.2627 0.6000 0.5961
0.6667 0.6235 0.6157
0.8745 0.6196 0.6118
0.9529 0.6353 0.6275
0.0588 0.8157 0.6078
0.2706 0.8078 0.6039
0.6627 0.8118 0.6039
0.8745 0.8118 0.6078
0.9569 0.8118 0.6078
0.0471 0.9020 0.6039
0.2706 0.9020 0.6000
0.6588 0.9020 0.5961
0.8745 0.9020 0.6000
0.9529 0.9020 0.6000
0.1255 0.1686 0.7020
0.2471 0.1059 0.6784
0.6510 0.1059 0.6824
0.8706 0.1059 0.6824
0.9608 0.0980 0.6745
0.0471 0.2745 0.6784
0.2588 0.2784 0.6863
0.6627 0.3098 0.6902
0.8745 0.2941 0.6863
0.9725 0.2824 0.6824
0.0549 0.5961 0.6824
0.2549 0.5922 0.6824
0.6431 0.6000 0.6824
0.8706 0.6039 0.6902
0.9686 0.5961 0.6784
0.0471 0.8078 0.6784
0.2549 0.8039 0.6745
0.6510 0.8039 0.6824
0.8706 0.8039 0.6784
0.9725 0.8039 0.6784
0.0392 0.9020 0.6706
0.2627 0.9059 0.6824
0.6510 0.9020 0.6824
0.8667 0.9020 0.6824
0.9647 0.9020 0.6784
0.0510 0.1098 0.7412
0.2549 0.1020 0.7373
0.6588 0.1098 0.7451
0.8745 0.0980 0.7373
0.9608 0.0980 0.7333
0.0510 0.2863 0.7412
0.2745 0.2941 0.7451
0.6471 0.2863 0.7333
0.8745 0.2824 0.7333
0.9608 0.2902 0.7333
0.0627 0.6078 0.7451
0.2745 0.6039 0.7451
0.6549 0.6039 0.7373
0.8706 0.6039 0.7373
0.9647 0.6078 0.7373
0.0588 0.8078 0.7451
0.2706 0.8078 0.7412
0.6588 0.8118 0.7451
0.8745 0.8078 0.7451
0.9686 0.8078 0.7373
0.0706 0.9020 0.7451
0.2824 0.9059 0.7451
0.6549 0.9059 0.7412
0.8745 0.9059 0.7451
0.9686 0.9059 0.7412
