code/data/lut/14冷调.cube
#Generated by Picture Instruments - Look Converter
LUT_3D_SIZE 5
0.0000 0.0000 0.0000
0.2471 0.0039 0.0039
0.5843 0.0039 0.0078
0.8392 0.0118 0.0157
0.9569 0.0118 0.0118
0.0078 0.2431 0.0078
0.2471 0.2471 0.0000
0.5882 0.2627 0.0000
0.8392 0.2627 0.0000
0.9882 0.2549 0.0000
0.0157 0.5647 0.0157
0.2471 0.5725 0.0000
0.5765 0.5804 0.0000
0.8392 0.5843 0.0000
0.9922 0.5686 0.0000
0.0235 0.8353 0.0235
0.2667 0.8431 0.0000
0.5922 0.8392 0.0000
0.8353 0.8392 0.0000
0.9882 0.8392 0.0000
0.0235 0.9725 0.0275
0.2510 0.9922 0.0000
0.5725 0.9882 0.0000
0.8353 0.9922 0.0000
0.9882 0.9882 0.0000
0.0314 0.0118 0.3255
0.2588 0.0039 0.3255
0.5922 0.0078 0.3412
0.8431 0.0118 0.3451
0.9608 0.0118 0.3490
0.0314 0.2353 0.3216
0.2471 0.2471 0.3294
0.5882 0.2627 0.3412
0.8431 0.2588 0.3333
0.9882 0.2627 0.3412
0.0314 0.5647 0.3255
0.2549 0.5765 0.3373
0.5804 0.5804 0.3333
0.8353 0.5804 0.3373
0.9922 0.5804 0.3412
0.0314 0.8353 0.3294
0.2549 0.8392 0.3412
0.5843 0.8392 0.3373
0.8353 0.8392 0.3373
0.9882 0.8353 0.3373
0.0314 0.9765 0.3294
0.2510 0.9922 0.3255
0.5725 0.9882 0.3294
0.8353 0.9922 0.3255
0.9922 0.9922 0.3255
0.0000 0.0000 0.6118
0.2627 0.0000 0.6157
0.5961 0.0000 0.6235
0.8471 0.0000 0.6314
0.9608 0.0078 0.6235
0.0000 0.2353 0.5922
0.2431 0.2392 0.6000
0.5765 0.2510 0.6078
0.8431 0.2549 0.6157
0.9608 0.2510 0.6078
0.0000 0.5686 0.6118
0.2549 0.5686 0.6118
0.5765 0.5804 0.6118
0.8353 0.5804 0.6157
0.9608 0.5765 0.6118
0.0000 0.8392 0.6157
0.2588 0.8392 0.6196
0.5882 0.8431 0.6275
0.8392 0.8392 0.6196
0.9608 0.8392 0.6196
0.0196 0.9725 0.6196
0.2588 0.9725 0.6157
0.5882 0.9765 0.6196
0.8392 0.9765 0.6196
0.9608 0.9725 0.6196
0.0353 0.0196 0.8157
0.2314 0.0196 0.8196
0.5804 0.0196 0.8275
0.8353 0.0196 0.8314
0.9647 0.0196 0.8235
0.0314 0.2353 0.8196
0.2431 0.2353 0.8196
0.5843 0.2588 0.8314
0.8471 0.2588 0.8275
0.9882 0.2431 0.8275
0.0314 0.5647 0.8235
0.2471 0.5647 0.8235
0.5765 0.5765 0.8275
0.8353 0.5725 0.8275
0.9882 0.5725 0.8275
0.0314 0.8353 0.8275
0.2627 0.8353 0.8314
0.5843 0.8353 0.8275
0.8353 0.8353 0.8275
0.9882 0.8353 0.8275
0.0314 0.9765 0.8275
0.2588 0.9882 0.8314
0.5765 0.9882 0.8235
0.8353 0.9922 0.8235
0.9882 0.9882 0.8275
0.0000 0.0000 0.9922
0.2392 0.0000 0.9922
0.5804 0.0000 0.9922
0.8431 0.0000 0.9922
0.9647 0.0118 0.9686
0.0039 0.2353 0.9922
0.2314 0.2275 0.9882
0.5725 0.2549 0.9882
0.8392 0.2510 0.9882
0.9725 0.2588 0.9725
0.0000 0.5647 0.9882
0.2471 0.5608 0.9882
0.5804 0.5765 0.9882
0.8353 0.5804 0.9922
0.9804 0.5804 0.9804
0.0039 0.8353 0.9922
0.2588 0.8353 0.9922
0.5804 0.8353 0.9882
0.8353 0.8392 0.9882
0.9882 0.8392 0.9882
0.0275 0.9765 0.9804
0.2510 0.9804 0.9804
0.5765 0.9843 0.9882
0.8353 0.9882 0.9882
0.9882 0.9882 0.9882
