code/data/lut/14冷调.cube
#Generated by Picture Instruments - Look Converter
LUT_3D_SIZE 17
0.0000 0.0000 0.0000
0.0078 0.0000 0.0039
0.0510 0.0000 0.0000
0.1529 0.0000 0.0000
0.2471 0.0039 0.0039
0.3412 0.0039 0.0039
0.4235 0.0039 0.0078
0.5137 0.0039 0.0078
0.5843 0.0039 0.0078
0.6510 0.0078 0.0078
0.7176 0.0078 0.0118
0.7843 0.0078 0.0118
0.8392 0.0118 0.0157
0.8941 0.0118 0.0118
0.9373 0.0118 0.0157
0.9529 0.0118 0.0157
0.9569 0.0118 0.0118
0.0000 0.0078 0.0000
0.0078 0.0078 0.0000
0.0549 0.0039 0.0000
0.1529 0.0078 0.0039
0.2431 0.0118 0.0000
0.3333 0.0078 0.0000
0.4196 0.0039 0.0000
0.5059 0.0078 0.0000
0.5882 0.0118 0.0039
0.6510 0.0118 0.0000
0.7176 0.0078 0.0000
0.7882 0.0039 0.0000
0.8431 0.0078 0.0000
0.9020 0.0039 0.0000
0.9529 0.0078 0.0000
0.9843 0.0039 0.0000
0.9882 0.0039 0.0000
0.0000 0.0510 0.0000
0.0078 0.0510 0.0000
0.0549 0.0471 0.0000
0.1529 0.0549 0.0039
0.2510 0.0588 0.0000
0.3412 0.0627 0.0000
0.4235 0.0627 0.0000
0.5020 0.0549 0.0000
0.5882 0.0667 0.0039
0.6510 0.0627 0.0000
0.7255 0.0667 0.0000
0.7843 0.0588 0.0000
0.8431 0.0667 0.0039
0.9059 0.0667 0.0000
0.9569 0.0706 0.0039
0.9843 0.0667 0.0039
0.9922 0.0588 0.0000
0.0039 0.1451 0.0039
0.0078 0.1451 0.0000
0.0510 0.1451 0.0000
0.1529 0.1451 0.0000
0.2431 0.1529 0.0000
0.3333 0.1608 0.0000
0.4196 0.1647 0.0000
0.5020 0.1686 0.0000
0.5882 0.1725 0.0000
0.6510 0.1686 0.0000
0.7216 0.1725 0.0000
0.7843 0.1686 0.0039
0.8431 0.1686 0.0000
0.9020 0.1686 0.0000
0.9569 0.1686 0.0000
0.9843 0.1647 0.0039
0.9882 0.1608 0.0000
0.0078 0.2431 0.0078
0.0039 0.2353 0.0000
0.0510 0.2353 0.0000
0.1490 0.2392 0.0000
0.2471 0.2471 0.0000
0.3373 0.2627 0.0000
0.4157 0.2588 0.0039
0.5020 0.2627 0.0000
0.5882 0.2627 0.0000
0.6549 0.2627 0.0000
0.7176 0.2627 0.0039
0.7843 0.2627 0.0039
0.8392 0.2627 0.0000
0.9059 0.2627 0.0000
0.9529 0.2667 0.0000
0.9804 0.2627 0.0000
0.9882 0.2549 0.0000
0.0078 0.3294 0.0078
0.0078 0.3255 0.0000
0.0627 0.3294 0.0000
0.1529 0.3255 0.0000
0.2549 0.3333 0.0039
0.3490 0.3412 0.0000
0.4275 0.3451 0.0000
0.5137 0.3451 0.0000
0.5882 0.3412 0.0000
0.6549 0.3451 0.0000
0.7216 0.3490 0.0000
0.7882 0.3490 0.0000
0.8392 0.3412 0.0000
0.9059 0.3490 0.0000
0.9569 0.3490 0.0000
0.9804 0.3451 0.0000
0.9882 0.3373 0.0000
0.0118 0.4118 0.0118
0.0078 0.4078 0.0000
0.0588 0.4078 0.0000
0.1647 0.4118 0.0000
0.2588 0.4235 0.0000
0.3412 0.4196 0.0000
0.4275 0.4275 0.0000
0.5098 0.4275 0.0000
0.5882 0.4275 0.0000
0.6510 0.4235 0.0000
0.7176 0.4275 0.0000
0.7843 0.4275 0.0000
0.8431 0.4275 0.0000
0.9059 0.4275 0.0000
0.9529 0.4275 0.0039
0.9843 0.4275 0.0000
0.9882 0.4275 0.0000
0.0118 0.4941 0.0157
0.0039 0.4941 0.0000
0.0588 0.4902 0.0000
0.1569 0.4941 0.0000
0.2549 0.5020 0.0000
0.3412 0.5098 0.0000
0.4235 0.5098 0.0000
0.5059 0.5098 0.0000
0.5843 0.5098 0.0000
0.6471 0.5098 0.0000
0.7137 0.5098 0.0000
0.7765 0.5098 0.0000
0.8392 0.5098 0.0000
0.8980 0.5098 0.0000
0.9529 0.5098 0.0000
0.9843 0.5098 0.0000
0.9882 0.5020 0.0000
0.0157 0.5647 0.0157
0.0078 0.5608 0.0000
0.0588 0.5686 0.0000
0.1608 0.5725 0.0039
0.2471 0.5725 0.0000
0.3373 0.5765 0.0000
0.4235 0.5804 0.0000
0.5059 0.5804 0.0000
0.5765 0.5804 0.0000
0.6431 0.5804 0.0000
0.7098 0.5804 0.0000
0.7765 0.5804 0.0000
0.8392 0.5843 0.0000
0.8902 0.5804 0.0000
0.9529 0.5804 0.0000
0.9843 0.5765 0.0000
0.9922 0.5686 0.0000
0.0196 0.6353 0.0196
0.0078 0.6353 0.0000
0.0588 0.6392 0.0000
0.1647 0.6431 0.0000
0.2588 0.6431 0.0000
0.3412 0.6431 0.0000
0.4196 0.6431 0.0000
0.5020 0.6431 0.0000
0.5804 0.6431 0.0000
0.6471 0.6431 0.0000
0.7098 0.6431 0.0000
0.7725 0.6431 0.0000
0.8353 0.6431 0.0000
0.8941 0.6431 0.0000
0.9529 0.6431 0.0000
0.9804 0.6392 0.0000
0.9882 0.6392 0.0000
0.0196 0.7059 0.0196
0.0078 0.7098 0.0039
0.0667 0.7098 0.0000
0.1647 0.7098 0.0000
0.2588 0.7059 0.0000
0.3412 0.7059 0.0000
0.4235 0.7137 0.0039
0.5059 0.7098 0.0000
0.5765 0.7137 0.0000
0.6471 0.7098 0.0000
0.7098 0.7098 0.0000
0.7725 0.7137 0.0000
0.8353 0.7098 0.0000
0.8941 0.7137 0.0000
0.9529 0.7098 0.0000
0.9843 0.7059 0.0000
0.9922 0.7020 0.0000
0.0196 0.7725 0.0196
0.0078 0.7765 0.0000
0.0667 0.7765 0.0000
0.1686 0.7765 0.0000
0.2588 0.7882 0.0000
0.3373 0.7765 0.0000
0.4235 0.7765 0.0000
0.5059 0.7765 0.0000
0.5804 0.7804 0.0000
0.6431 0.7765 0.0000
0.7059 0.7725 0.0000
0.7725 0.7765 0.0000
0.8392 0.7804 0.0000
0.8941 0.7804 0.0000
0.9529 0.7765 0.0000
0.9843 0.7725 0.0000
0.9882 0.7725 0.0000
0.0235 0.8353 0.0235
0.0118 0.8392 0.0000
0.0706 0.8353 0.0000
0.1725 0.8392 0.0000
0.2667 0.8431 0.0000
0.3529 0.8392 0.0000
0.4275 0.8392 0.0000
0.5098 0.8353 0.0000
0.5922 0.8392 0.0000
0.6549 0.8392 0.0000
0.7216 0.8392 0.0039
0.7804 0.8353 0.0000
0.8353 0.8392 0.0000
0.9020 0.8392 0.0000
0.9529 0.8392 0.0000
0.9843 0.8392 0.0000
0.9882 0.8392 0.0000
0.0235 0.8980 0.0235
0.0078 0.9020 0.0000
0.0706 0.9020 0.0000
0.1765 0.9020 0.0000
0.2667 0.9020 0.0000
0.3529 0.9020 0.0000
0.4314 0.9020 0.0000
0.5216 0.8980 0.0000
0.5961 0.8941 0.0000
0.6549 0.8980 0.0000
0.7216 0.9020 0.0000
0.7843 0.9020 0.0000
0.8431 0.9020 0.0000
0.9020 0.9020 0.0000
0.9529 0.9020 0.0000
0.9843 0.9020 0.0000
0.9882 0.9020 0.0000
0.0235 0.9529 0.0275
0.0078 0.9569 0.0000
0.0706 0.9569 0.0000
0.1725 0.9529 0.0039
0.2627 0.9569 0.0000
0.3451 0.9569 0.0000
0.4314 0.9529 0.0000
0.5176 0.9569 0.0000
0.5961 0.9569 0.0039
0.6510 0.9529 0.0000
0.7176 0.9529 0.0000
0.7843 0.9529 0.0000
0.8431 0.9569 0.0039
0.9020 0.9529 0.0000
0.9529 0.9569 0.0000
0.9804 0.9569 0.0000
0.9922 0.9529 0.0000
0.0235 0.9725 0.0275
0.0078 0.9843 0.0000
0.0745 0.9843 0.0000
0.1686 0.9804 0.0000
0.2667 0.9843 0.0000
0.3529 0.9804 0.0000
0.4314 0.9843 0.0000
0.5098 0.9804 0.0000
0.5922 0.9843 0.0000
0.6549 0.9843 0.0000
0.7216 0.9843 0.0000
0.7843 0.9804 0.0000
0.8392 0.9843 0.0000
0.9020 0.9804 0.0000
0.9569 0.9843 0.0000
0.9804 0.9804 0.0000
0.9922 0.9804 0.0000
0.0235 0.9725 0.0275
0.0078 0.9882 0.0000
0.0588 0.9882 0.0000
0.1647 0.9882 0.0000
0.2510 0.9922 0.0000
0.3373 0.9882 0.0000
0.4157 0.9882 0.0000
0.4941 0.9882 0.0000
0.5725 0.9882 0.0000
0.6392 0.9882 0.0000
0.7059 0.9922 0.0000
0.7686 0.9882 0.0000
0.8353 0.9922 0.0000
0.8902 0.9882 0.0000
0.9529 0.9922 0.0000
0.9804 0.9882 0.0000
0.9882 0.9882 0.0000
0.0000 0.0000 0.0196
0.0078 0.0000 0.0196
0.0549 0.0000 0.0196
0.1529 0.0000 0.0196
0.2549 0.0000 0.0235
0.3451 0.0039 0.0353
0.4314 0.0039 0.0353
0.5098 0.0039 0.0275
0.5922 0.0078 0.0196
0.6549 0.0078 0.0431
0.7255 0.0078 0.0275
0.7843 0.0078 0.0275
0.8353 0.0118 0.0275
0.8980 0.0118 0.0353
0.9412 0.0118 0.0353
0.9569 0.0118 0.0431
0.9490 0.0157 0.0392
0.0039 0.0039 0.0275
0.0078 0.0078 0.0235
0.0549 0.0039 0.0235
0.1529 0.0078 0.0392
0.2510 0.0039 0.0275
0.3412 0.0078 0.0275
0.4275 0.0078 0.0353
0.5059 0.0078 0.0353
0.5922 0.0118 0.0235
0.6510 0.0078 0.0196
0.7216 0.0078 0.0275
0.7843 0.0078 0.0235
0.8431 0.0078 0.0275
0.9020 0.0039 0.0275
0.9569 0.0039 0.0275
0.9804 0.0078 0.0235
0.9608 0.0157 0.0353
0.0000 0.0627 0.0235
0.0078 0.0549 0.0275
0.0510 0.0549 0.0235
0.1529 0.0549 0.0275
0.2471 0.0588 0.0353
0.3373 0.0667 0.0392
0.4157 0.0627 0.0235
0.5020 0.0667 0.0353
0.5882 0.0627 0.0235
0.6510 0.0745 0.0275
0.7176 0.0745 0.0235
0.7765 0.0667 0.0275
0.8431 0.0706 0.0235
0.8980 0.0745 0.0235
0.9569 0.0667 0.0392
0.9804 0.0667 0.0235
0.9608 0.0667 0.0235
0.0039 0.1490 0.0196
0.0078 0.1451 0.0235
0.0588 0.1451 0.0353
0.1490 0.1451 0.0196
0.2431 0.1569 0.0196
0.3412 0.1608 0.0353
0.4235 0.1647 0.0235
0.5059 0.1686 0.0235
0.5882 0.1608 0.0392
0.6549 0.1686 0.0275
0.7255 0.1686 0.0275
0.7882 0.1686 0.0235
0.8392 0.1647 0.0235
0.9020 0.1686 0.0235
0.9569 0.1686 0.0196
0.9804 0.1686 0.0353
0.9608 0.1608 0.0314
0.0000 0.2314 0.0235
0.0078 0.2353 0.0235
0.0549 0.2353 0.0235
0.1529 0.2392 0.0353
0.2588 0.2471 0.0235
0.3412 0.2588 0.0235
0.4275 0.2588 0.0353
0.5059 0.2627 0.0275
0.5882 0.2667 0.0275
0.6549 0.2627 0.0353
0.7216 0.2627 0.0275
0.7843 0.2667 0.0235
0.8431 0.2627 0.0196
0.9059 0.2627 0.0353
0.9569 0.2667 0.0275
0.9843 0.2627 0.0196
0.9608 0.2627 0.0392
0.0000 0.3294 0.0353
0.0078 0.3294 0.0392
0.0510 0.3255 0.0196
0.1569 0.3333 0.0196
0.2510 0.3373 0.0392
0.3412 0.3412 0.0275
0.4235 0.3529 0.0235
0.5020 0.3490 0.0314
0.5882 0.3490 0.0314
0.6510 0.3490 0.0314
0.7176 0.3490 0.0392
0.7765 0.3490 0.0275
0.8431 0.3490 0.0235
0.8980 0.3490 0.0235
0.9529 0.3451 0.0353
0.9804 0.3529 0.0235
0.9608 0.3412 0.0392
0.0000 0.4157 0.0235
0.0118 0.4118 0.0392
0.0667 0.4118 0.0353
0.1647 0.4157 0.0275
0.2549 0.4157 0.0235
0.3490 0.4196 0.0275
0.4353 0.4275 0.0275
0.5137 0.4275 0.0275
0.5922 0.4275 0.0392
0.6510 0.4235 0.0314
0.7216 0.4275 0.0275
0.7882 0.4275 0.0431
0.8471 0.4275 0.0392
0.9020 0.4235 0.0235
0.9569 0.4275 0.0235
0.9843 0.4275 0.0392
0.9608 0.4275 0.0314
0.0000 0.4980 0.0392
0.0039 0.4902 0.0235
0.0588 0.4902 0.0392
0.1569 0.4941 0.0235
0.2627 0.5020 0.0275
0.3490 0.5059 0.0275
0.4275 0.5020 0.0275
0.5059 0.5098 0.0235
0.5843 0.5098 0.0235
0.6510 0.5098 0.0353
0.7176 0.5059 0.0275
0.7804 0.5098 0.0235
0.8392 0.5098 0.0353
0.9059 0.5098 0.0353
0.9569 0.5098 0.0235
0.9843 0.5059 0.0235
0.9608 0.5059 0.0275
0.0000 0.5686 0.0392
0.0078 0.5647 0.0235
0.0588 0.5647 0.0235
0.1569 0.5686 0.0392
0.2588 0.5725 0.0275
0.3412 0.5765 0.0235
0.4235 0.5804 0.0275
0.5020 0.5843 0.0353
0.5804 0.5804 0.0275
0.6431 0.5804 0.0235
0.7137 0.5804 0.0353
0.7765 0.5804 0.0392
0.8353 0.5804 0.0275
0.8941 0.5804 0.0392
0.9529 0.5804 0.0275
0.9843 0.5765 0.0275
0.9608 0.5725 0.0431
0.0000 0.6392 0.0235
0.0078 0.6353 0.0353
0.0627 0.6392 0.0235
0.1569 0.6431 0.0235
0.2549 0.6431 0.0353
0.3333 0.6431 0.0235
0.4196 0.6431 0.0275
0.5020 0.6471 0.0196
0.5765 0.6471 0.0353
0.6392 0.6431 0.0235
0.7059 0.6431 0.0235
0.7686 0.6431 0.0392
0.8353 0.6431 0.0235
0.8941 0.6471 0.0275
0.9529 0.6431 0.0392
0.9843 0.6431 0.0235
0.9608 0.6431 0.0314
0.0000 0.7059 0.0314
0.0078 0.7098 0.0275
0.0627 0.7020 0.0235
0.1647 0.7098 0.0275
0.2627 0.7059 0.0235
0.3451 0.7098 0.0353
0.4275 0.7098 0.0392
0.5020 0.7137 0.0235
0.5804 0.7098 0.0196
0.6471 0.7137 0.0392
0.7176 0.7098 0.0275
0.7725 0.7098 0.0235
0.8353 0.7098 0.0353
0.8941 0.7098 0.0235
0.9569 0.7098 0.0235
0.9843 0.7059 0.0392
0.9608 0.7059 0.0353
0.0000 0.7765 0.0275
0.0078 0.7765 0.0392
0.0667 0.7765 0.0353
0.1647 0.7765 0.0392
0.2588 0.7725 0.0314
0.3412 0.7765 0.0353
0.4235 0.7765 0.0392
0.5059 0.7765 0.0392
0.5843 0.7725 0.0235
0.6431 0.7765 0.0275
0.7137 0.7765 0.0392
0.7765 0.7765 0.0235
0.8392 0.7804 0.0235
0.8941 0.7765 0.0392
0.9529 0.7765 0.0314
0.9804 0.7725 0.0353
0.9608 0.7725 0.0353
0.0000 0.8431 0.0314
0.0078 0.8392 0.0353
0.0627 0.8392 0.0392
0.1686 0.8431 0.0275
0.2627 0.8392 0.0392
0.3490 0.8431 0.0392
0.4275 0.8392 0.0275
0.5098 0.8392 0.0431
0.5922 0.8392 0.0392
0.6510 0.8431 0.0275
0.7137 0.8392 0.0275
0.7765 0.8392 0.0275
0.8392 0.8392 0.0353
0.9020 0.8431 0.0392
0.9529 0.8431 0.0392
0.9843 0.8392 0.0353
0.9608 0.8392 0.0353
0.0000 0.9020 0.0392
0.0078 0.9020 0.0353
0.0784 0.9020 0.0510
0.1686 0.8941 0.0353
0.2627 0.9020 0.0275
0.3529 0.9020 0.0510
0.4353 0.9020 0.0549
0.5137 0.8941 0.0275
0.5922 0.8941 0.0510
0.6549 0.8980 0.0353
0.7255 0.9020 0.0353
0.7882 0.9020 0.0353
0.8392 0.8941 0.0353
0.9020 0.9020 0.0392
0.9569 0.9020 0.0353
0.9882 0.9020 0.0510
0.9608 0.9020 0.0431
0.0000 0.9529 0.0353
0.0078 0.9529 0.0392
0.0745 0.9529 0.0235
0.1725 0.9529 0.0549
0.2667 0.9529 0.0549
0.3490 0.9569 0.0235
0.4353 0.9569 0.0510
0.5176 0.9569 0.0392
0.6000 0.9529 0.0353
0.6549 0.9529 0.0510
0.7255 0.9529 0.0353
0.7882 0.9529 0.0353
0.8471 0.9529 0.0392
0.9020 0.9569 0.0549
0.9529 0.9529 0.0353
0.9843 0.9529 0.0235
0.9608 0.9529 0.0471
0.0000 0.9804 0.0471
0.0078 0.9843 0.0431
0.0667 0.9843 0.0314
0.1686 0.9843 0.0275
0.2667 0.9804 0.0392
0.3451 0.9843 0.0235
0.4235 0.9843 0.0235
0.5098 0.9804 0.0392
0.5922 0.9843 0.0353
0.6510 0.9804 0.0392
0.7176 0.9804 0.0392
0.7765 0.9843 0.0353
0.8392 0.9804 0.0235
0.8980 0.9804 0.0275
0.9529 0.9804 0.0392
0.9843 0.9843 0.0392
0.9608 0.9804 0.0431
0.0000 0.9922 0.0314
0.0039 0.9882 0.0235
0.0667 0.9882 0.0196
0.1569 0.9922 0.0118
0.2549 0.9882 0.0275
0.3373 0.9882 0.0196
0.4196 0.9922 0.0157
0.4980 0.9882 0.0275
0.5725 0.9882 0.0196
0.6431 0.9882 0.0235
0.7098 0.9882 0.0235
0.7725 0.9882 0.0235
0.8353 0.9882 0.0235
0.8902 0.9922 0.0235
0.9529 0.9922 0.0314
0.9843 0.9882 0.0235
0.9608 0.9804 0.0314
0.0314 0.0078 0.1373
0.0039 0.0000 0.1373
0.0471 0.0000 0.1412
0.1451 0.0000 0.1451
0.2510 0.0039 0.1451
0.3412 0.0039 0.1490
0.4196 0.0039 0.1529
0.5059 0.0039 0.1529
0.5882 0.0078 0.1490
0.6510 0.0078 0.1608
0.7216 0.0078 0.1608
0.7804 0.0118 0.1529
0.8353 0.0118 0.1686
0.8980 0.0118 0.1608
0.9412 0.0118 0.1529
0.9569 0.0118 0.1529
0.9608 0.0118 0.1451
0.0314 0.0157 0.1451
0.0078 0.0039 0.1412
0.0627 0.0078 0.1451
0.1529 0.0039 0.1451
0.2510 0.0039 0.1451
0.3373 0.0078 0.1490
0.4314 0.0078 0.1569
0.5137 0.0039 0.1608
0.5882 0.0078 0.1529
0.6510 0.0078 0.1529
0.7216 0.0078 0.1608
0.7922 0.0078 0.1529
0.8431 0.0078 0.1490
0.9020 0.0078 0.1569
0.9569 0.0078 0.1569
0.9843 0.0078 0.1490
0.9882 0.0078 0.1451
0.0314 0.0510 0.1412
0.0078 0.0549 0.1451
0.0549 0.0549 0.1412
0.1529 0.0549 0.1412
0.2431 0.0588 0.1529
0.3412 0.0588 0.1490
0.4196 0.0667 0.1490
0.5059 0.0667 0.1608
0.5843 0.0667 0.1569
0.6549 0.0745 0.1529
0.7176 0.0667 0.1490
0.7882 0.0667 0.1529
0.8392 0.0667 0.1490
0.9020 0.0667 0.1529
0.9569 0.0549 0.1490
0.9843 0.0667 0.1490
0.9922 0.0588 0.1490
0.0314 0.1529 0.1412
0.0039 0.1569 0.1451
0.0510 0.1451 0.1451
0.1451 0.1529 0.1451
0.2471 0.1569 0.1490
0.3373 0.1608 0.1490
0.4196 0.1725 0.1569
0.4941 0.1686 0.1451
0.5725 0.1725 0.1608
0.6471 0.1725 0.1490
0.7176 0.1765 0.1569
0.7843 0.1765 0.1529
0.8353 0.1686 0.1490
0.8980 0.1725 0.1490
0.9529 0.1765 0.1490
0.9843 0.1647 0.1529
0.9882 0.1608 0.1451
0.0314 0.2314 0.1451
0.0078 0.2353 0.1451
0.0627 0.2353 0.1451
0.1608 0.2392 0.1529
0.2471 0.2392 0.1490
0.3373 0.2549 0.1490
0.4275 0.2627 0.1608
0.5098 0.2627 0.1490
0.5882 0.2667 0.1529
0.6510 0.2588 0.1569
0.7255 0.2627 0.1569
0.7882 0.2627 0.1529
0.8431 0.2627 0.1569
0.9059 0.2588 0.1490
0.9529 0.2627 0.1529
0.9804 0.2627 0.1451
0.9882 0.2588 0.1490
0.0314 0.3294 0.1451
0.0078 0.3255 0.1451
0.0549 0.3294 0.1451
0.1529 0.3294 0.1451
0.2471 0.3373 0.1529
0.3490 0.3373 0.1490
0.4235 0.3451 0.1451
0.5059 0.3451 0.1569
0.5882 0.3490 0.1529
0.6510 0.3490 0.1529
0.7216 0.3490 0.1569
0.7843 0.3490 0.1529
0.8392 0.3490 0.1529
0.9020 0.3490 0.1490
0.9569 0.3490 0.1608
0.9843 0.3451 0.1529
0.9882 0.3373 0.1529
0.0353 0.4118 0.1451
0.0078 0.4118 0.1490
0.0549 0.4118 0.1529
0.1490 0.4118 0.1412
0.2549 0.4196 0.1451
0.3451 0.4235 0.1569
0.4275 0.4235 0.1529
0.5098 0.4314 0.1490
0.5804 0.4275 0.1529
0.6510 0.4275 0.1569
0.7216 0.4275 0.1569
0.7843 0.4275 0.1569
0.8392 0.4275 0.1569
0.9020 0.4275 0.1529
0.9529 0.4275 0.1451
0.9843 0.4235 0.1569
0.9882 0.4235 0.1451
0.0314 0.4902 0.1412
0.0118 0.4902 0.1412
0.0667 0.4941 0.1529
0.1686 0.4941 0.1529
0.2627 0.5020 0.1490
0.3412 0.5020 0.1490
0.4275 0.5020 0.1529
0.5137 0.5098 0.1490
0.5882 0.5098 0.1490
0.6510 0.5098 0.1608
0.7176 0.5059 0.1569
0.7843 0.5098 0.1529
0.8431 0.5098 0.1569
0.9020 0.5098 0.1569
0.9529 0.5059 0.1490
0.9843 0.5059 0.1490
0.9882 0.5020 0.1529
0.0314 0.5647 0.1490
0.0078 0.5647 0.1490
0.0588 0.5647 0.1451
0.1608 0.5686 0.1529
0.2549 0.5725 0.1490
0.3490 0.5765 0.1490
0.4275 0.5804 0.1490
0.5059 0.5725 0.1529
0.5804 0.5765 0.1529
0.6471 0.5765 0.1490
0.7176 0.5765 0.1569
0.7765 0.5725 0.1529
0.8392 0.5765 0.1490
0.8980 0.5765 0.1569
0.9569 0.5804 0.1529
0.9843 0.5765 0.1490
0.9882 0.5725 0.1490
0.0314 0.6353 0.1412
0.0078 0.6392 0.1529
0.0588 0.6392 0.1451
0.1608 0.6431 0.1490
0.2549 0.6392 0.1529
0.3373 0.6392 0.1451
0.4235 0.6431 0.1490
0.5020 0.6471 0.1490
0.5725 0.6471 0.1529
0.6431 0.6431 0.1490
0.7098 0.6431 0.1451
0.7765 0.6431 0.1529
0.8353 0.6431 0.1529
0.8863 0.6431 0.1451
0.9529 0.6431 0.1529
0.9804 0.6431 0.1490
0.9922 0.6392 0.1451
0.0314 0.7137 0.1451
0.0039 0.7059 0.1490
0.0549 0.7098 0.1569
0.1608 0.7098 0.1490
0.2549 0.7137 0.1529
0.3412 0.7137 0.1529
0.4196 0.7098 0.1490
0.4980 0.7098 0.1490
0.5765 0.7176 0.1451
0.6431 0.7137 0.1529
0.7059 0.7098 0.1490
0.7725 0.7098 0.1451
0.8353 0.7098 0.1529
0.8941 0.7098 0.1490
0.9529 0.7176 0.1529
0.9843 0.7098 0.1529
0.9922 0.7098 0.1490
0.0314 0.7725 0.1569
0.0078 0.7765 0.1529
0.0745 0.7765 0.1490
0.1647 0.7725 0.1490
0.2588 0.7765 0.1569
0.3451 0.7765 0.1529
0.4275 0.7765 0.1569
0.5098 0.7765 0.1569
0.5843 0.7765 0.1529
0.6471 0.7765 0.1490
0.7176 0.7765 0.1608
0.7804 0.7765 0.1490
0.8392 0.7765 0.1490
0.8941 0.7765 0.1569
0.9529 0.7765 0.1490
0.9804 0.7765 0.1529
0.9882 0.7765 0.1529
0.0314 0.8392 0.1451
0.0078 0.8392 0.1529
0.0706 0.8392 0.1569
0.1725 0.8392 0.1569
0.2627 0.8392 0.1608
0.3490 0.8392 0.1608
0.4314 0.8392 0.1529
0.5098 0.8392 0.1608
0.5882 0.8392 0.1569
0.6510 0.8392 0.1529
0.7176 0.8392 0.1529
0.7804 0.8392 0.1608
0.8392 0.8392 0.1490
0.8980 0.8431 0.1529
0.9569 0.8392 0.1569
0.9843 0.8353 0.1569
0.9922 0.8353 0.1529
0.0314 0.9020 0.1569
0.0078 0.9059 0.1569
0.0627 0.9020 0.1569
0.1647 0.9020 0.1569
0.2627 0.9020 0.1569
0.3490 0.9020 0.1725
0.4314 0.9059 0.1725
0.5098 0.9020 0.1490
0.5922 0.9020 0.1686
0.6549 0.9020 0.1686
0.7216 0.9059 0.1569
0.7804 0.9020 0.1529
0.8353 0.9020 0.1569
0.9020 0.9020 0.1569
0.9529 0.9059 0.1569
0.9804 0.9059 0.1686
0.9882 0.9020 0.1569
0.0353 0.9490 0.1569
0.0118 0.9569 0.1608
0.0784 0.9569 0.1569
0.1804 0.9529 0.1725
0.2667 0.9529 0.1569
0.3529 0.9569 0.1490
0.4353 0.9569 0.1686
0.5216 0.9529 0.1686
0.5961 0.9529 0.1529
0.6549 0.9529 0.1686
0.7255 0.9569 0.1569
0.7922 0.9529 0.1569
0.8471 0.9529 0.1529
0.9020 0.9529 0.1608
0.9569 0.9529 0.1569
0.9843 0.9529 0.1569
0.9922 0.9529 0.1569
0.0314 0.9765 0.1569
0.0118 0.9804 0.1569
0.0706 0.9843 0.1529
0.1725 0.9804 0.1490
0.2627 0.9804 0.1608
0.3529 0.9804 0.1569
0.4275 0.9843 0.1529
0.5137 0.9804 0.1569
0.5882 0.9843 0.1529
0.6549 0.9843 0.1529
0.7176 0.9804 0.1569
0.7804 0.9843 0.1608
0.8392 0.9804 0.1569
0.9020 0.9804 0.1608
0.9569 0.9804 0.1608
0.9843 0.9804 0.1569
0.9922 0.9804 0.1569
0.0314 0.9804 0.1451
0.0078 0.9882 0.1451
0.0706 0.9922 0.1451
0.1725 0.9922 0.1451
0.2588 0.9882 0.1490
0.3373 0.9882 0.1412
0.4196 0.9882 0.1373
0.5059 0.9882 0.1529
0.5804 0.9922 0.1529
0.6392 0.9882 0.1412
0.7059 0.9922 0.1490
0.7765 0.9882 0.1451
0.8392 0.9882 0.1451
0.8980 0.9882 0.1451
0.9529 0.9922 0.1451
0.9804 0.9882 0.1451
0.9882 0.9882 0.1451
0.0000 0.0000 0.2471
0.0039 0.0000 0.2353
0.0510 0.0000 0.2431
0.1529 0.0000 0.2392
0.2549 0.0039 0.2471
0.3333 0.0039 0.2471
0.4275 0.0039 0.2510
0.5098 0.0078 0.2510
0.5922 0.0078 0.2549
0.6549 0.0078 0.2588
0.7216 0.0078 0.2588
0.7843 0.0118 0.2510
0.8392 0.0118 0.2588
0.8980 0.0118 0.2627
0.9412 0.0118 0.2549
0.9608 0.0157 0.2627
0.9490 0.0157 0.2549
0.0000 0.0039 0.2471
0.0039 0.0078 0.2353
0.0510 0.0039 0.2353
0.1490 0.0078 0.2431
0.2431 0.0039 0.2431
0.3412 0.0118 0.2510
0.4275 0.0118 0.2588
0.5020 0.0078 0.2510
0.5804 0.0078 0.2549
0.6510 0.0118 0.2510
0.7255 0.0078 0.2588
0.7843 0.0078 0.2549
0.8392 0.0078 0.2471
0.8980 0.0039 0.2588
0.9569 0.0078 0.2549
0.9804 0.0078 0.2510
