code/data/lut/15练习曲.cube
#Generated by Picture Instruments - Look Converter
LUT_3D_SIZE 5
0.0000 0.0000 0.0000
0.3490 0.0039 0.0039
0.6902 0.0157 0.0118
0.9333 0.0588 0.0157
0.9608 0.0902 0.0157
0.0510 0.3373 0.0118
0.3373 0.3333 0.0000
0.6784 0.3725 0.0000
0.9294 0.3569 0.0000
0.9922 0.3255 0.0000
0.1176 0.6510 0.0235
0.3608 0.6627 0.0000
0.6471 0.6549 0.0000
0.9020 0.6471 0.0745
0.9922 0.6235 0.2275
0.2039 0.8745 0.0275
0.3804 0.8784 0.0000
0.6275 0.8706 0.0000
0.8588 0.8627 0.0196
0.9882 0.8314 0.2235
0.2706 0.9765 0.1020
0.3961 0.9922 0.1176
0.5961 0.9882 0.1647
0.7961 0.9882 0.2078
0.9882 0.9882 0.2510
0.0353 0.1294 0.3451
0.3333 0.0039 0.3255
0.6667 0.0118 0.3137
0.9216 0.0118 0.2824
0.9608 0.0588 0.2824
0.0314 0.3176 0.2745
0.3020 0.3059 0.2824
0.6431 0.3137 0.2941
0.9137 0.3255 0.2863
0.9882 0.3373 0.3020
0.0314 0.6314 0.2471
0.3137 0.6471 0.2627
0.6353 0.6471 0.2745
0.8863 0.6431 0.3804
0.9882 0.6353 0.4314
0.1961 0.8706 0.2941
0.3608 0.8745 0.3137
0.6196 0.8706 0.3216
0.8549 0.8627 0.3451
0.9882 0.8353 0.4392
0.2941 0.9804 0.3490
0.4039 0.9922 0.3529
0.6039 0.9922 0.3765
0.8000 0.9922 0.4000
0.9882 0.9882 0.4353
0.0000 0.2627 0.7020
0.0471 0.0902 0.6902
0.6314 0.0000 0.6784
0.8902 0.0000 0.6510
0.9529 0.0431 0.5922
0.0000 0.4235 0.6078
0.0471 0.3490 0.6235
0.5882 0.2667 0.6314
0.8745 0.2784 0.6157
0.9569 0.3176 0.5882
0.0000 0.6275 0.6196
0.1373 0.6275 0.6235
0.5725 0.6078 0.6353
0.8431 0.6235 0.6549
0.9608 0.6275 0.6588
0.0549 0.8627 0.6314
0.3137 0.8588 0.6392
0.6118 0.8667 0.6627
0.8392 0.8588 0.6706
0.9647 0.8588 0.7255
0.3451 0.9843 0.6510
0.4431 0.9843 0.6510
0.6314 0.9804 0.6706
0.8235 0.9765 0.6784
0.9647 0.9686 0.6941
0.0392 0.3373 0.8824
0.0431 0.2627 0.8824
0.3569 0.0941 0.8784
0.8275 0.0196 0.8824
0.9686 0.0510 0.8510
0.0353 0.4706 0.8588
0.0431 0.4196 0.8627
0.3412 0.3020 0.8745
0.8314 0.2706 0.8706
0.9882 0.2980 0.8510
0.0353 0.7176 0.8549
0.0431 0.7059 0.8549
0.4275 0.6314 0.8627
0.8157 0.5804 0.8588
0.9882 0.5922 0.8510
0.0353 0.8627 0.8392
0.1804 0.8627 0.8510
0.5412 0.8510 0.8510
0.8000 0.8314 0.8627
0.9922 0.8431 0.8667
0.3373 0.9843 0.8353
0.4510 0.9922 0.8431
0.6431 0.9882 0.8471
0.8392 0.9882 0.8667
0.9882 0.9882 0.8745
0.0000 0.3961 0.9922
0.0431 0.3529 0.9922
0.0980 0.1765 0.9882
0.6784 0.1373 0.9922
0.9647 0.1176 0.9725
0.0000 0.5098 0.9882
0.0431 0.4784 0.9922
0.0980 0.3490 0.9922
0.6745 0.3176 0.9882
0.9725 0.3176 0.9804
0.0000 0.7373 0.9882
0.0431 0.7216 0.9843
0.2353 0.6549 0.9882
0.6745 0.5922 0.9882
0.9765 0.5882 0.9843
0.0000 0.9176 0.9882
0.0863 0.9098 0.9882
0.4941 0.9020 0.9843
0.7569 0.8471 0.9882
0.9804 0.8275 0.9882
0.3608 0.9804 0.9804
0.4588 0.9843 0.9804
0.6392 0.9882 0.9843
0.8353 0.9882 0.9843
0.9843 0.9882 0.9882
