code/data/lut/16流年.cube
#Generated by Picture Instruments - Look Converter
LUT_3D_SIZE 5
0.0863 0.0039 0.0784
0.3373 0.0000 0.0745
0.6471 0.0000 0.0745
0.8000 0.0000 0.0784
0.9843 0.0000 0.0784
0.0784 0.3176 0.0784
0.3412 0.3176 0.0745
0.6549 0.3294 0.0745
0.8039 0.3373 0.0784
0.9882 0.3412 0.0745
0.0784 0.6549 0.0784
0.3451 0.6706 0.0784
0.6549 0.6784 0.0784
0.8078 0.6863 0.0784
0.9882 0.6902 0.0745
0.0824 0.8235 0.0784
0.3569 0.8275 0.0824
0.6667 0.8314 0.0745
0.8078 0.8314 0.0784
0.9882 0.8392 0.0784
0.0824 0.9922 0.0824
0.3529 0.9922 0.0784
0.6627 0.9882 0.0745
0.8078 0.9882 0.0784
0.9843 0.9922 0.0784
0.0824 0.0000 0.4196
0.3490 0.0000 0.4078
0.6510 0.0000 0.4118
0.8039 0.0000 0.4118
0.9843 0.0000 0.4078
0.0784 0.3412 0.4275
0.3569 0.3412 0.4235
0.6549 0.3373 0.4157
0.8039 0.3294 0.4078
0.9843 0.3216 0.4078
0.0824 0.6902 0.4314
0.3647 0.6863 0.4353
0.6667 0.6863 0.4235
0.8039 0.6784 0.4235
0.9882 0.6706 0.4157
0.0824 0.8353 0.4353
0.3608 0.8314 0.4431
0.6627 0.8314 0.4275
0.8039 0.8314 0.4235
0.9882 0.8314 0.4118
0.0784 0.9882 0.4392
0.3686 0.9922 0.4314
0.6706 0.9882 0.4275
0.8078 0.9922 0.4235
0.9843 0.9882 0.4235
0.0863 0.0000 0.6667
0.3922 0.0000 0.6627
0.6824 0.0000 0.6588
0.8157 0.0000 0.6627
0.9843 0.0000 0.6549
0.0824 0.3686 0.6667
0.3843 0.3686 0.6667
0.6824 0.3569 0.6588
0.8157 0.3569 0.6627
0.9882 0.3529 0.6588
0.0784 0.7098 0.6706
0.3882 0.7059 0.6667
0.6863 0.7020 0.6627
0.8157 0.7020 0.6588
0.9843 0.6941 0.6588
0.0784 0.8471 0.6627
0.3804 0.8431 0.6667
0.6902 0.8431 0.6627
0.8157 0.8431 0.6627
0.9843 0.8392 0.6588
0.0784 0.9922 0.6667
0.3882 0.9882 0.6667
0.6902 0.9922 0.6667
0.8196 0.9882 0.6627
0.9843 0.9922 0.6588
0.0824 0.0000 0.7922
0.3922 0.0000 0.7922
0.6980 0.0000 0.7922
0.8196 0.0000 0.7882
0.9843 0.0000 0.7882
0.0824 0.3843 0.7961
0.4118 0.3882 0.7922
0.7020 0.3804 0.7882
0.8275 0.3765 0.7922
0.9882 0.3765 0.7922
0.0824 0.7216 0.7961
0.4000 0.7216 0.7961
0.6980 0.7176 0.7922
0.8235 0.7176 0.7922
0.9882 0.7137 0.7922
0.0824 0.8510 0.7922
0.4000 0.8510 0.7961
0.7020 0.8510 0.7922
0.8235 0.8431 0.7882
0.9882 0.8471 0.7882
0.0824 0.9922 0.7961
0.4039 0.9922 0.7922
0.6980 0.9882 0.7922
0.8235 0.9882 0.7922
0.9882 0.9882 0.7882
0.0784 0.0000 0.9765
0.3804 0.0000 0.9765
0.6863 0.0000 0.9804
0.8235 0.0000 0.9804
0.9882 0.0000 0.9804
0.0824 0.3529 0.9765
0.3882 0.3686 0.9765
0.6863 0.3686 0.9765
0.8196 0.3765 0.9804
0.9843 0.3725 0.9804
0.0784 0.6902 0.9765
0.3804 0.6980 0.9804
0.6863 0.6980 0.9804
0.8157 0.7098 0.9804
0.9882 0.7098 0.9804
0.0784 0.8314 0.9804
0.3686 0.8314 0.9765
0.6784 0.8353 0.9765
0.8157 0.8392 0.9804
0.9843 0.8392 0.9765
0.0824 0.9922 0.9765
0.3686 0.9882 0.9765
0.6784 0.9882 0.9765
0.8118 0.9882 0.9765
0.9843 0.9882 0.9765
