code/data/lut/16流年.cube
#Generated by Picture Instruments - Look Converter
LUT_3D_SIZE 9
0.0863 0.0039 0.0784
0.1961 0.0000 0.0824
0.3373 0.0000 0.0745
0.5176 0.0000 0.0824
0.6471 0.0000 0.0745
0.7294 0.0000 0.0745
0.8000 0.0000 0.0784
0.8863 0.0000 0.0784
0.9843 0.0000 0.0784
0.0863 0.1412 0.0745
0.2000 0.1373 0.0745
0.3451 0.1451 0.0824
0.5216 0.1451 0.0745
0.6510 0.1490 0.0784
0.7333 0.1490 0.0745
0.8039 0.1490 0.0745
0.8941 0.1529 0.0784
0.9882 0.1490 0.0745
0.0784 0.3176 0.0784
0.2000 0.3137 0.0784
0.3412 0.3176 0.0745
0.5137 0.3216 0.0745
0.6549 0.3294 0.0745
0.7294 0.3333 0.0745
0.8039 0.3373 0.0784
0.8902 0.3451 0.0745
0.9882 0.3412 0.0745
0.0824 0.5176 0.0745
0.2000 0.5255 0.0784
0.3490 0.5412 0.0784
0.5255 0.5373 0.0745
0.6588 0.5451 0.0824
0.7333 0.5490 0.0784
0.8078 0.5529 0.0784
0.8902 0.5529 0.0745
0.9882 0.5608 0.0745
0.0784 0.6549 0.0784
0.2039 0.6588 0.0784
0.3451 0.6706 0.0784
0.5255 0.6745 0.0745
0.6549 0.6784 0.0784
0.7333 0.6824 0.0784
0.8078 0.6863 0.0784
0.8863 0.6863 0.0745
0.9882 0.6902 0.0745
0.0784 0.7412 0.0784
0.2000 0.7451 0.0784
0.3490 0.7490 0.0784
0.5294 0.7529 0.0824
0.6588 0.7529 0.0745
0.7333 0.7569 0.0745
0.8078 0.7608 0.0784
0.8902 0.7608 0.0745
0.9843 0.7608 0.0745
0.0824 0.8235 0.0784
0.2000 0.8235 0.0784
0.3569 0.8275 0.0824
0.5373 0.8275 0.0784
0.6667 0.8314 0.0745
0.7412 0.8314 0.0745
0.8078 0.8314 0.0784
0.8941 0.8353 0.0824
0.9882 0.8392 0.0784
0.0784 0.9098 0.0784
0.2039 0.9098 0.0745
0.3529 0.9137 0.0745
0.5373 0.9098 0.0824
0.6667 0.9137 0.0745
0.7333 0.9137 0.0745
0.8118 0.9137 0.0784
0.8941 0.9176 0.0784
0.9843 0.9176 0.0784
0.0824 0.9922 0.0824
0.2000 0.9922 0.0745
0.3529 0.9922 0.0784
0.5333 0.9882 0.0745
0.6627 0.9882 0.0745
0.7373 0.9922 0.0784
0.8078 0.9882 0.0784
0.8941 0.9922 0.0824
0.9843 0.9922 0.0784
0.0824 0.0000 0.2471
0.2039 0.0000 0.2471
0.3686 0.0039 0.2471
0.5490 0.0000 0.2471
0.6745 0.0000 0.2431
0.7412 0.0000 0.2471
0.8078 0.0000 0.2510
0.8902 0.0039 0.2471
0.9882 0.0000 0.2471
0.0824 0.1569 0.2431
0.2118 0.1569 0.2471
0.3686 0.1529 0.2510
0.5569 0.1569 0.2471
0.6784 0.1569 0.2510
0.7412 0.1569 0.2431
0.8157 0.1569 0.2510
0.8941 0.1490 0.2471
0.9843 0.1569 0.2431
0.0824 0.3569 0.2471
0.2196 0.3608 0.2471
0.3765 0.3529 0.2471
0.5686 0.3608 0.2510
0.6784 0.3569 0.2431
0.7490 0.3608 0.2471
0.8157 0.3569 0.2471
0.8941 0.3569 0.2471
0.9843 0.3608 0.2471
0.0784 0.5804 0.2510
0.2118 0.5843 0.2549
0.3804 0.5804 0.2431
0.5647 0.5804 0.2471
0.6824 0.5765 0.2471
0.7451 0.5725 0.2471
0.8118 0.5725 0.2510
0.8980 0.5765 0.2471
0.9843 0.5686 0.2431
0.0784 0.7059 0.2549
0.2118 0.7020 0.2431
0.3804 0.7020 0.2510
0.5647 0.7020 0.2471
0.6863 0.7020 0.2510
0.7490 0.7020 0.2549
0.8157 0.7020 0.2431
0.8980 0.6980 0.2549
0.9843 0.6980 0.2510
0.0824 0.7725 0.2510
0.2078 0.7725 0.2549
0.3843 0.7725 0.2471
0.5647 0.7765 0.2510
0.6902 0.7765 0.2471
0.7490 0.7725 0.2510
0.8118 0.7725 0.2549
0.8980 0.7686 0.2471
0.9882 0.7686 0.2471
0.0784 0.8431 0.2471
0.2157 0.8431 0.2510
0.3804 0.8431 0.2549
0.5725 0.8431 0.2549
0.6902 0.8431 0.2588
0.7490 0.8431 0.2431
0.8196 0.8431 0.2549
0.8980 0.8431 0.2510
0.9843 0.8431 0.2471
0.0824 0.9216 0.2510
0.2196 0.9176 0.2510
0.3882 0.9216 0.2510
0.5725 0.9216 0.2627
0.6863 0.9216 0.2431
0.7529 0.9216 0.2510
0.8157 0.9176 0.2471
0.8980 0.9176 0.2510
0.9843 0.9176 0.2471
0.0824 0.9882 0.2549
0.2196 0.9922 0.2510
0.3882 0.9922 0.2549
0.5725 0.9922 0.2471
0.6902 0.9922 0.2549
0.7529 0.9922 0.2549
0.8157 0.9882 0.2510
0.8980 0.9882 0.2549
0.9882 0.9882 0.2510
0.0824 0.0000 0.4196
0.2039 0.0000 0.4196
0.3490 0.0000 0.4078
0.5255 0.0000 0.4157
0.6510 0.0000 0.4118
0.7255 0.0000 0.4078
0.8039 0.0000 0.4118
0.8824 0.0000 0.4039
0.9843 0.0000 0.4078
0.0784 0.1490 0.4157
0.2000 0.1529 0.4157
0.3529 0.1490 0.4196
0.5294 0.1529 0.4157
0.6510 0.1490 0.4118
0.7255 0.1529 0.4000
0.8000 0.1529 0.4157
0.8784 0.1451 0.4157
0.9882 0.1412 0.4000
0.0784 0.3412 0.4275
0.2039 0.3412 0.4235
0.3569 0.3412 0.4235
0.5333 0.3373 0.4275
0.6549 0.3373 0.4157
0.7294 0.3333 0.4157
0.8039 0.3294 0.4078
0.8863 0.3294 0.4039
0.9843 0.3216 0.4078
0.0824 0.5529 0.4314
0.2078 0.5529 0.4235
0.3686 0.5569 0.4235
0.5412 0.5490 0.4235
0.6588 0.5490 0.4275
0.7333 0.5451 0.4118
0.8039 0.5412 0.4118
0.8902 0.5373 0.4118
0.9882 0.5294 0.4118
0.0824 0.6902 0.4314
0.2039 0.6863 0.4275
0.3647 0.6863 0.4353
0.5333 0.6784 0.4157
0.6667 0.6863 0.4235
0.7294 0.6784 0.4196
0.8039 0.6784 0.4235
0.8863 0.6784 0.4157
0.9882 0.6706 0.4157
0.0784 0.7608 0.4353
0.2078 0.7608 0.4431
0.3647 0.7569 0.4275
0.5451 0.7569 0.4314
0.6627 0.7569 0.4275
0.7373 0.7529 0.4235
0.8078 0.7529 0.4275
0.8902 0.7490 0.4078
0.9843 0.7529 0.4196
0.0824 0.8353 0.4353
0.2078 0.8353 0.4314
0.3608 0.8314 0.4431
0.5490 0.8353 0.4353
0.6627 0.8314 0.4275
0.7333 0.8353 0.4235
0.8039 0.8314 0.4235
0.8863 0.8314 0.4275
0.9882 0.8314 0.4118
0.0824 0.9176 0.4471
0.2078 0.9137 0.4353
0.3725 0.9137 0.4353
0.5490 0.9137 0.4392
0.6745 0.9137 0.4275
0.7373 0.9137 0.4392
0.8078 0.9137 0.4235
0.8902 0.9098 0.4235
0.9843 0.9098 0.4235
0.0784 0.9882 0.4392
0.2039 0.9922 0.4353
0.3686 0.9922 0.4314
0.5451 0.9882 0.4314
0.6706 0.9882 0.4275
0.7373 0.9922 0.4353
0.8078 0.9922 0.4235
0.8863 0.9922 0.4314
0.9843 0.9882 0.4235
0.0784 0.0000 0.5725
0.2118 0.0000 0.5804
0.3843 0.0000 0.5765
0.5647 0.0000 0.5804
0.6902 0.0000 0.5765
0.7529 0.0000 0.5804
0.8157 0.0000 0.5804
0.9020 0.0000 0.5804
0.9882 0.0000 0.5804
0.0863 0.1608 0.5804
0.2118 0.1608 0.5765
0.3843 0.1647 0.5804
0.5647 0.1569 0.5765
0.6863 0.1647 0.5804
0.7529 0.1647 0.5804
0.8196 0.1686 0.5804
0.9020 0.1686 0.5804
0.9882 0.1647 0.5804
0.0824 0.3686 0.5765
0.2078 0.3647 0.5725
0.3882 0.3804 0.5804
0.5647 0.3725 0.5804
0.6863 0.3843 0.5804
0.7529 0.3765 0.5804
0.8196 0.3843 0.5804
0.9020 0.3843 0.5843
0.9882 0.3804 0.5804
0.0824 0.5804 0.5725
0.2118 0.5804 0.5765
0.3882 0.5843 0.5765
0.5725 0.5882 0.5804
0.6902 0.5882 0.5843
0.7529 0.5882 0.5843
0.8235 0.5961 0.5843
0.9020 0.5922 0.5765
0.9882 0.5922 0.5804
0.0824 0.7059 0.5804
0.2235 0.7059 0.5765
0.3922 0.7020 0.5765
0.5804 0.7137 0.5843
0.6941 0.7137 0.5843
0.7569 0.7176 0.5882
0.8235 0.7137 0.5804
0.9059 0.7137 0.5804
0.9882 0.7137 0.5843
0.0784 0.7725 0.5804
0.2118 0.7765 0.5765
0.3882 0.7765 0.5804
0.5725 0.7804 0.5843
0.6902 0.7804 0.5765
0.7529 0.7804 0.5804
0.8196 0.7804 0.5804
0.9059 0.7804 0.5882
0.9843 0.7804 0.5843
0.0824 0.8392 0.5765
0.2157 0.8431 0.5804
0.3882 0.8431 0.5843
0.5804 0.8471 0.5804
0.6941 0.8471 0.5843
0.7608 0.8510 0.5843
0.8235 0.8471 0.5843
0.9098 0.8510 0.5882
0.9882 0.8471 0.5765
0.0784 0.9176 0.5804
0.2118 0.9216 0.5765
0.3922 0.9216 0.5804
0.5686 0.9216 0.5804
0.6941 0.9255 0.5804
0.7569 0.9216 0.5843
0.8275 0.9255 0.5804
0.9020 0.9255 0.5843
0.9843 0.9216 0.5843
0.0824 0.9882 0.5804
0.2118 0.9922 0.5765
0.3922 0.9922 0.5843
0.5725 0.9882 0.5804
0.6941 0.9882 0.5804
0.7569 0.9882 0.5843
0.8235 0.9882 0.5843
0.9059 0.9922 0.5882
0.9882 0.9882 0.5843
0.0863 0.0000 0.6667
0.2118 0.0000 0.6667
0.3922 0.0000 0.6627
0.5647 0.0000 0.6667
0.6824 0.0000 0.6588
0.7451 0.0000 0.6627
0.8157 0.0000 0.6627
0.9020 0.0000 0.6588
0.9843 0.0000 0.6549
0.0824 0.1608 0.6627
0.2118 0.1608 0.6588
0.3843 0.1569 0.6627
0.5647 0.1608 0.6627
0.6863 0.1569 0.6627
0.7529 0.1569 0.6627
0.8157 0.1569 0.6627
0.8941 0.1569 0.6588
0.9882 0.1529 0.6588
0.0824 0.3686 0.6667
0.2196 0.3647 0.6667
0.3843 0.3686 0.6667
0.5647 0.3647 0.6588
0.6824 0.3569 0.6588
0.7490 0.3608 0.6627
0.8157 0.3569 0.6627
0.8980 0.3529 0.6588
0.9882 0.3529 0.6588
0.0784 0.5843 0.6667
0.2118 0.5882 0.6667
0.3804 0.5804 0.6627
0.5647 0.5882 0.6627
0.6824 0.5765 0.6627
0.7490 0.5843 0.6627
0.8118 0.5765 0.6627
0.8941 0.5725 0.6588
0.9882 0.5725 0.6627
0.0784 0.7098 0.6706
0.2157 0.7059 0.6627
0.3882 0.7059 0.6667
0.5686 0.7059 0.6667
0.6863 0.7020 0.6627
0.7490 0.7020 0.6667
0.8157 0.7020 0.6588
0.8941 0.7020 0.6588
0.9843 0.6941 0.6588
0.0824 0.7765 0.6667
0.2157 0.7686 0.6627
0.3961 0.7725 0.6667
0.5725 0.7647 0.6627
0.6941 0.7725 0.6667
0.7490 0.7647 0.6627
0.8196 0.7686 0.6627
0.8980 0.7647 0.6588
0.9843 0.7647 0.6588
0.0784 0.8471 0.6627
0.2157 0.8431 0.6667
0.3804 0.8431 0.6667
0.5725 0.8431 0.6667
0.6902 0.8431 0.6627
0.7529 0.8431 0.6588
0.8157 0.8431 0.6627
0.8941 0.8392 0.6627
0.9843 0.8392 0.6588
0.0784 0.9216 0.6706
0.2196 0.9176 0.6667
0.3922 0.9176 0.6667
0.5725 0.9176 0.6667
0.6863 0.9216 0.6627
0.7529 0.9176 0.6627
0.8196 0.9216 0.6627
0.8980 0.9176 0.6627
0.9882 0.9176 0.6588
0.0784 0.9922 0.6667
0.2157 0.9882 0.6667
0.3882 0.9882 0.6667
0.5765 0.9922 0.6667
0.6902 0.9922 0.6667
0.7490 0.9922 0.6588
0.8196 0.9882 0.6627
0.8980 0.9922 0.6627
0.9843 0.9922 0.6588
0.0824 0.0000 0.7020
0.2000 0.0000 0.7059
0.3686 0.0000 0.7059
0.5490 0.0000 0.7137
0.6784 0.0000 0.7176
0.7451 0.0000 0.7176
0.8157 0.0000 0.7216
0.8980 0.0000 0.7176
0.9882 0.0000 0.7216
0.0863 0.1451 0.6980
0.2039 0.1490 0.7059
0.3608 0.1490 0.7098
0.5529 0.1529 0.7137
0.6706 0.1490 0.7137
0.7451 0.1569 0.7137
0.8157 0.1529 0.7216
0.8980 0.1608 0.7216
0.9882 0.1608 0.7176
0.0824 0.3333 0.7098
0.2000 0.3373 0.7059
0.3608 0.3412 0.7098
0.5412 0.3412 0.7098
0.6745 0.3490 0.7137
0.7451 0.3529 0.7176
0.8118 0.3569 0.7137
0.8980 0.3608 0.7216
0.9882 0.3725 0.7255
0.0824 0.5373 0.7020
0.2039 0.5490 0.7059
0.3725 0.5529 0.7098
0.5451 0.5569 0.7098
0.6784 0.5647 0.7176
0.7412 0.5608 0.7137
0.8157 0.5765 0.7176
0.9020 0.5804 0.7216
0.9843 0.5765 0.7176
0.0784 0.6706 0.7020
0.2000 0.6784 0.7059
0.3569 0.6824 0.7059
0.5373 0.6863 0.7098
0.6745 0.6902 0.7098
0.7451 0.6941 0.7176
0.8157 0.6980 0.7176
0.8980 0.7059 0.7216
0.9843 0.7020 0.7216
0.0784 0.7490 0.7059
0.2000 0.7490 0.7059
0.3608 0.7529 0.7059
0.5451 0.7569 0.7059
0.6745 0.7608 0.7137
0.7412 0.7647 0.7176
0.8118 0.7686 0.7216
0.8980 0.7686 0.7176
0.9882 0.7686 0.7216
0.0863 0.8196 0.6980
0.2039 0.8235 0.7020
0.3569 0.8275 0.7098
0.5490 0.8314 0.7098
0.6745 0.8314 0.7098
0.7412 0.8353 0.7137
0.8157 0.8392 0.7176
0.8980 0.8392 0.7216
0.9843 0.8392 0.7216
0.0784 0.9098 0.7020
0.2000 0.9098 0.7020
0.3569 0.9098 0.7059
0.5333 0.9137 0.7059
0.6745 0.9137 0.7098
0.7412 0.9176 0.7176
0.8118 0.9176 0.7176
0.8980 0.9176 0.7176
0.9882 0.9176 0.7176
0.0863 0.9922 0.7020
0.2039 0.9882 0.7020
0.3529 0.9882 0.7020
0.5412 0.9922 0.7059
0.6667 0.9922 0.7059
0.7412 0.9922 0.7137
0.8118 0.9922 0.7098
0.8941 0.9922 0.7176
0.9882 0.9922 0.7176
0.0824 0.0000 0.7922
0.2157 0.0000 0.7961
0.3922 0.0000 0.7922
0.5804 0.0000 0.7961
0.6980 0.0000 0.7922
0.7569 0.0000 0.7882
0.8196 0.0000 0.7882
0.9059 0.0000 0.7882
0.9843 0.0000 0.7882
0.0784 0.1686 0.7922
0.2196 0.1686 0.7882
0.4039 0.1686 0.7961
0.5804 0.1686 0.7922
0.6980 0.1686 0.7882
0.7608 0.1725 0.7961
0.8275 0.1686 0.7922
0.9059 0.1647 0.7922
0.9882 0.1647 0.7922
0.0824 0.3843 0.7961
0.2235 0.3843 0.7922
0.4118 0.3882 0.7922
0.5882 0.3804 0.7961
0.7020 0.3804 0.7882
0.7608 0.3765 0.7961
0.8275 0.3765 0.7922
0.9059 0.3725 0.7922
0.9882 0.3765 0.7922
0.0824 0.6000 0.7922
0.2196 0.5961 0.7961
0.3922 0.5961 0.7882
0.5843 0.6000 0.7922
0.7020 0.5961 0.7961
0.7608 0.5961 0.7922
0.8235 0.5922 0.7922
0.9059 0.5922 0.7882
0.9843 0.5922 0.7922
0.0824 0.7216 0.7961
0.2235 0.7176 0.7922
0.4000 0.7216 0.7961
0.5843 0.7176 0.7922
0.6980 0.7176 0.7922
0.7647 0.7176 0.7961
0.8235 0.7176 0.7922
0.9059 0.7176 0.7922
0.9882 0.7137 0.7922
0.0824 0.7843 0.7961
0.2157 0.7843 0.7922
0.3961 0.7882 0.7961
0.5843 0.7843 0.7961
0.6980 0.7804 0.7922
0.7647 0.7843 0.7961
0.8235 0.7843 0.7922
0.9059 0.7843 0.7922
0.9843 0.7765 0.7922
0.0824 0.8510 0.7922
0.2196 0.8510 0.7922
0.4000 0.8510 0.7961
0.5804 0.8471 0.7922
0.7020 0.8510 0.7922
0.7608 0.8510 0.7922
0.8235 0.8431 0.7882
0.9059 0.8471 0.7882
0.9882 0.8471 0.7882
0.0824 0.9176 0.7922
0.2235 0.9255 0.7961
0.4078 0.9216 0.7922
0.5804 0.9176 0.7922
0.7020 0.9216 0.7922
0.7608 0.9176 0.7922
0.8275 0.9216 0.7961
0.9059 0.9176 0.7922
0.9843 0.9216 0.7882
0.0824 0.9922 0.7961
0.2157 0.9922 0.7922
0.4039 0.9922 0.7922
0.5804 0.9882 0.7882
0.6980 0.9882 0.7922
0.7608 0.9922 0.7922
0.8235 0.9882 0.7922
0.9059 0.9922 0.7922
0.9882 0.9882 0.7882
0.0824 0.0000 0.8627
0.2118 0.0000 0.8667
0.3804 0.0000 0.8588
0.5608 0.0000 0.8627
0.6745 0.0000 0.8627
0.7412 0.0000 0.8588
0.8157 0.0000 0.8667
0.8980 0.0000 0.8588
0.9882 0.0000 0.8588
0.0784 0.1569 0.8627
0.2078 0.1529 0.8627
0.3765 0.1608 0.8667
0.5529 0.1569 0.8627
0.6745 0.1608 0.8627
0.7373 0.1529 0.8588
0.8078 0.1569 0.8588
0.8902 0.1569 0.8588
0.9843 0.1529 0.8549
0.0824 0.3608 0.8627
0.2078 0.3529 0.8627
0.3725 0.3529 0.8588
0.5608 0.3529 0.8667
0.6745 0.3529 0.8588
0.7412 0.3451 0.8588
0.8118 0.3451 0.8627
0.8902 0.3412 0.8588
0.9843 0.3333 0.8549
0.0863 0.5765 0.8667
0.2157 0.5725 0.8706
0.3843 0.5686 0.8627
0.5569 0.5686 0.8627
0.6706 0.5569 0.8667
0.7412 0.5647 0.8588
0.8118 0.5529 0.8627
0.8941 0.5569 0.8588
0.9882 0.5529 0.8549
0.0824 0.6980 0.8706
0.2039 0.6980 0.8588
0.3765 0.6941 0.8667
0.5529 0.6941 0.8627
0.6745 0.6902 0.8627
0.7412 0.6902 0.8627
0.8078 0.6863 0.8588
0.8941 0.6863 0.8667
0.9882 0.6784 0.8627
0.0824 0.7686 0.8706
0.2078 0.7647 0.8667
0.3843 0.7647 0.8627
0.5569 0.7647 0.8627
0.6745 0.7608 0.8588
0.7412 0.7569 0.8627
0.8078 0.7569 0.8627
0.8902 0.7529 0.8549
0.9843 0.7529 0.8549
0.0824 0.8392 0.8627
0.2078 0.8431 0.8627
0.3725 0.8392 0.8667
0.5529 0.8392 0.8627
0.6784 0.8392 0.8667
0.7412 0.8353 0.8588
0.8078 0.8353 0.8588
0.8902 0.8314 0.8549
0.9882 0.8314 0.8549
0.0784 0.9176 0.8627
0.2118 0.9176 0.8667
0.3765 0.9137 0.8627
0.5569 0.9137 0.8667
0.6706 0.9137 0.8588
0.7412 0.9137 0.8588
0.8078 0.9137 0.8549
0.8941 0.9098 0.8549
0.9843 0.9098 0.8549
0.0784 0.9882 0.8667
0.2078 0.9882 0.8588
0.3725 0.9922 0.8627
0.5490 0.9882 0.8588
0.6706 0.9882 0.8588
0.7373 0.9882 0.8588
0.8078 0.9882 0.8549
0.8902 0.9922 0.8549
0.9843 0.9882 0.8549
0.0784 0.0000 0.9765
0.2118 0.0000 0.9765
0.3804 0.0000 0.9765
0.5686 0.0000 0.9804
0.6863 0.0000 0.9804
0.7529 0.0000 0.9804
0.8235 0.0000 0.9804
0.9059 0.0000 0.9804
0.9882 0.0000 0.9804
0.0784 0.1529 0.9765
0.2078 0.1490 0.9804
0.3804 0.1569 0.9804
0.5686 0.1569 0.9765
0.6902 0.1608 0.9804
0.7529 0.1647 0.9804
0.8196 0.1608 0.9765
0.9020 0.1647 0.9843
0.9882 0.1647 0.9804
0.0824 0.3529 0.9765
0.2118 0.3569 0.9765
0.3882 0.3686 0.9765
0.5725 0.3647 0.9843
0.6863 0.3686 0.9765
0.7529 0.3725 0.9843
0.8196 0.3765 0.9804
0.9020 0.3804 0.9804
0.9843 0.3725 0.9804
0.0784 0.5686 0.9765
0.2118 0.5725 0.9804
0.3765 0.5725 0.9765
0.5686 0.5765 0.9765
0.6902 0.5882 0.9843
0.7490 0.5882 0.9804
0.8157 0.5843 0.9804
0.9020 0.5843 0.9804
0.9843 0.5882 0.9804
0.0784 0.6902 0.9765
0.2157 0.6941 0.9804
0.3804 0.6980 0.9804
0.5686 0.6980 0.9765
0.6863 0.6980 0.9804
0.7490 0.7059 0.9804
0.8157 0.7098 0.9804
0.8980 0.7098 0.9804
0.9882 0.7098 0.9804
0.0784 0.7569 0.9804
0.2039 0.7647 0.9804
0.3725 0.7647 0.9765
0.5608 0.7686 0.9765
0.6824 0.7647 0.9804
0.7490 0.7686 0.9804
0.8118 0.7725 0.9843
0.9020 0.7725 0.9765
0.9843 0.7686 0.9804
0.0784 0.8314 0.9804
0.2078 0.8314 0.9804
0.3686 0.8314 0.9765
0.5608 0.8353 0.9804
0.6784 0.8353 0.9765
0.7490 0.8392 0.9804
0.8157 0.8392 0.9804
0.8980 0.8392 0.9843
0.9843 0.8392 0.9765
0.0824 0.9098 0.9804
0.2039 0.9098 0.9804
0.3765 0.9137 0.9804
0.5569 0.9098 0.9804
0.6824 0.9137 0.9804
0.7451 0.9098 0.9804
0.8118 0.9137 0.9804
0.8980 0.9137 0.9804
0.9843 0.9137 0.9804
0.0824 0.9922 0.9765
0.2000 0.9882 0.9765
0.3686 0.9882 0.9765
0.5569 0.9882 0.9765
0.6784 0.9882 0.9765
0.7490 0.9882 0.9804
0.8118 0.9882 0.9765
0.8941 0.9882 0.9765
0.9843 0.9882 0.9765
