code/data/lut/17棉花糖.cube
#Generated by Picture Instruments - Look Converter
LUT_3D_SIZE 5
0.1373 0.1451 0.1804
0.4431 0.0118 0.1490
0.6980 0.0078 0.1059
0.8784 0.0118 0.1804
0.9569 0.0118 0.2196
0.0196 0.4118 0.0863
0.4549 0.4471 0.2078
0.7059 0.4196 0.1882
0.8824 0.4196 0.2392
0.9882 0.4078 0.2706
0.0196 0.6784 0.0157
0.4275 0.7020 0.1333
0.7059 0.7216 0.2510
0.8824 0.7216 0.3059
0.9843 0.7137 0.3294
0.0235 0.8706 0.0235
0.4431 0.8784 0.1412
0.7176 0.8784 0.2745
0.8863 0.8863 0.3569
0.9882 0.8824 0.3882
0.0235 0.9725 0.0235
0.4275 0.9882 0.1255
0.7059 0.9843 0.2627
0.8863 0.9882 0.3647
0.9843 0.9843 0.4196
0.1686 0.1765 0.4588
0.4275 0.0157 0.4078
0.6980 0.0118 0.4078
0.8824 0.0118 0.4471
0.9608 0.0157 0.4667
0.0431 0.3961 0.3922
0.4314 0.4157 0.4157
0.6941 0.3843 0.4118
0.8824 0.3804 0.4392
0.9843 0.3843 0.4706
0.0314 0.6745 0.3373
0.3961 0.6902 0.3804
0.6980 0.7098 0.4510
0.8784 0.7059 0.4824
0.9882 0.7098 0.5059
0.0314 0.8706 0.3373
0.3922 0.8745 0.3843
0.6980 0.8745 0.4627
0.8784 0.8784 0.5137
0.9882 0.8745 0.5294
0.0314 0.9765 0.3333
0.3922 0.9882 0.3647
0.6941 0.9882 0.4471
0.8745 0.9843 0.5059
0.9843 0.9843 0.5490
0.1843 0.2353 0.7294
0.4431 0.0863 0.7098
0.6902 0.0000 0.6980
0.8784 0.0000 0.7176
0.9608 0.0078 0.7137
0.0706 0.4235 0.6902
0.4275 0.4235 0.6941
0.6745 0.3608 0.6863
0.8784 0.3647 0.6980
0.9608 0.3569 0.6980
0.0000 0.6706 0.6706
0.3765 0.6824 0.6824
0.6784 0.6902 0.6941
0.8706 0.6902 0.7020
0.9608 0.6863 0.7098
0.0000 0.8667 0.6784
0.3725 0.8745 0.6941
0.6863 0.8745 0.7020
0.8824 0.8745 0.7216
0.9608 0.8745 0.7255
0.0196 0.9725 0.6784
0.3765 0.9725 0.6824
0.6863 0.9725 0.6980
0.8784 0.9686 0.7176
0.9569 0.9686 0.7294
0.2784 0.3529 0.8784
0.4706 0.2549 0.8706
0.6941 0.0902 0.8667
0.8667 0.0196 0.8667
0.9647 0.0196 0.8588
0.2157 0.4980 0.8745
0.4745 0.4941 0.8706
0.6941 0.4353 0.8706
0.8784 0.3725 0.8706
0.9843 0.3529 0.8667
0.0706 0.6980 0.8667
0.4275 0.7020 0.8667
0.6902 0.7059 0.8745
0.8706 0.6824 0.8667
0.9843 0.6824 0.8667
0.0314 0.8667 0.8549
0.3725 0.8667 0.8627
0.6784 0.8667 0.8667
0.8706 0.8706 0.8667
0.9843 0.8706 0.8667
0.0314 0.9765 0.8627
0.3608 0.9882 0.8627
0.6745 0.9843 0.8627
0.8706 0.9804 0.8627
0.9843 0.9843 0.8706
0.3412 0.4314 0.9725
0.5176 0.3490 0.9686
0.7137 0.2196 0.9725
0.8784 0.0431 0.9725
0.9647 0.0118 0.9569
0.2824 0.5529 0.9725
0.5098 0.5451 0.9686
0.7098 0.4902 0.9725
0.8745 0.4157 0.9686
0.9725 0.3686 0.9608
0.1804 0.7176 0.9686
0.4667 0.7216 0.9725
0.7098 0.7255 0.9725
0.8745 0.7059 0.9725
0.9804 0.6824 0.9686
0.0275 0.8706 0.9725
0.4039 0.8745 0.9686
0.6902 0.8745 0.9647
0.8706 0.8745 0.9686
0.9843 0.8706 0.9686
0.0275 0.9686 0.9686
0.3490 0.9804 0.9686
0.6667 0.9843 0.9686
0.8706 0.9843 0.9686
0.9843 0.9843 0.9725
