code/data/lut/20任意门.cube
#Generated by Picture Instruments - Look Converter
LUT_3D_SIZE 5
0.1216 0.1176 0.1373
0.5059 0.1529 0.1373
0.7451 0.1647 0.1373
0.8431 0.1686 0.1333
0.9098 0.1843 0.1294
0.1216 0.3882 0.1373
0.4000 0.3373 0.1294
0.7255 0.4235 0.1490
0.8627 0.4196 0.1333
0.9255 0.4078 0.1451
0.1569 0.6902 0.1373
0.4157 0.6706 0.1333
0.6588 0.6471 0.1333
0.8235 0.6510 0.1333
0.9137 0.6588 0.1451
0.1608 0.8392 0.1294
0.4275 0.8353 0.1294
0.6549 0.8196 0.1255
0.7804 0.8078 0.1333
0.9059 0.8039 0.1294
0.2549 0.9412 0.1451
0.4784 0.9412 0.1412
0.6745 0.9412 0.1451
0.8000 0.9373 0.1490
0.9176 0.9373 0.1569
0.3333 0.1922 0.4706
0.6078 0.2431 0.4941
0.7647 0.2157 0.4667
0.8706 0.2039 0.4667
0.9176 0.2353 0.4824
0.3255 0.5020 0.4706
0.5961 0.5294 0.4980
0.7490 0.5451 0.5020
0.8588 0.5647 0.5098
0.9098 0.5882 0.5451
0.3490 0.7098 0.4667
0.5608 0.7137 0.4824
0.7137 0.7059 0.4667
0.8314 0.7216 0.4980
0.8980 0.7373 0.5490
0.3412 0.8471 0.4353
0.5569 0.8392 0.4588
0.7020 0.8353 0.4510
0.8078 0.8314 0.4353
0.8941 0.8314 0.4510
0.4235 0.9373 0.4941
0.5961 0.9373 0.4980
0.7216 0.9373 0.4941
0.8235 0.9294 0.4706
0.9176 0.9294 0.4627
0.2667 0.1569 0.6902
0.5451 0.1647 0.7020
0.7255 0.1686 0.7098
0.8588 0.1804 0.7137
0.9176 0.1765 0.7176
0.2510 0.4510 0.6745
0.5098 0.4667 0.6902
0.7098 0.4706 0.7020
0.8431 0.4549 0.6902
0.9137 0.4471 0.6824
0.2196 0.6863 0.6824
0.4941 0.6863 0.6902
0.6941 0.6824 0.6941
0.8275 0.6863 0.6863
0.8980 0.6941 0.6941
0.2157 0.8392 0.6706
0.4863 0.8314 0.6824
0.6745 0.8275 0.6863
0.8000 0.8157 0.6784
0.8863 0.8275 0.6980
0.3137 0.9373 0.7059
0.5569 0.9294 0.7176
0.7059 0.9294 0.7137
0.8235 0.9294 0.7059
0.9137 0.9294 0.7059
0.2000 0.1255 0.8078
0.4824 0.1216 0.8118
0.6980 0.1294 0.8235
0.8392 0.1333 0.8275
0.9176 0.1529 0.8431
0.1882 0.4078 0.8078
0.4706 0.4118 0.8118
0.6902 0.4196 0.8275
0.8275 0.4235 0.8275
0.9176 0.4510 0.8431
0.1569 0.6667 0.8078
0.4392 0.6667 0.8157
0.6667 0.6627 0.8157
0.8078 0.6549 0.8196
0.9020 0.6667 0.8275
0.1412 0.8314 0.8039
0.4235 0.8275 0.8157
0.6471 0.8118 0.8118
0.7843 0.8078 0.8118
0.8902 0.8078 0.8118
0.2157 0.9412 0.8314
0.4902 0.9373 0.8392
0.6784 0.9294 0.8314
0.8000 0.9255 0.8235
0.9216 0.9294 0.8353
0.1529 0.1137 0.9216
0.4431 0.1176 0.9216
0.6902 0.1176 0.9255
0.8353 0.1137 0.9255
0.9294 0.1216 0.9412
0.1373 0.3882 0.9294
0.4314 0.3725 0.9255
0.6745 0.3843 0.9255
0.8196 0.3765 0.9176
0.9137 0.4275 0.9294
0.1137 0.6627 0.9176
0.3961 0.6510 0.9216
0.6588 0.6549 0.9137
0.8000 0.6549 0.9176
0.9020 0.6667 0.9255
0.1098 0.8196 0.9137
0.3725 0.8157 0.9098
0.6275 0.8157 0.9020
0.7765 0.7961 0.9059
0.8941 0.8039 0.9137
0.1451 0.9373 0.9373
0.4353 0.9373 0.9373
0.6627 0.9333 0.9333
0.7961 0.9294 0.9294
0.9216 0.9294 0.9373
