code/data/lut/21柔光.cube
#Generated by Picture Instruments - Look Converter
LUT_3D_SIZE 5
0.0392 0.0392 0.0353
0.2941 0.0118 0.0118
0.5725 0.0118 0.0118
0.8118 0.0118 0.0118
0.9843 0.0118 0.0118
0.0118 0.3020 0.0118
0.2784 0.2784 0.0000
0.5725 0.2784 0.0000
0.8235 0.2784 0.0000
0.9922 0.2784 0.0000
0.0118 0.5725 0.0118
0.2745 0.5725 0.0000
0.5686 0.5725 0.0000
0.8196 0.5765 0.0000
0.9922 0.5686 0.0000
0.0157 0.8118 0.0118
0.2824 0.8235 0.0000
0.5765 0.8235 0.0000
0.8235 0.8196 0.0000
0.9922 0.8196 0.0000
0.0118 0.9922 0.0235
0.2784 0.9882 0.0000
0.5725 0.9882 0.0000
0.8235 0.9922 0.0000
0.9882 0.9922 0.0000
0.0745 0.0118 0.2902
0.2980 0.0118 0.2941
0.5765 0.0118 0.2980
0.8118 0.0118 0.3020
0.9882 0.0392 0.3098
0.0549 0.2784 0.2745
0.2784 0.2784 0.2784
0.5725 0.2784 0.2824
0.8235 0.2784 0.2745
0.9882 0.2902 0.2941
0.0549 0.5725 0.2745
0.2784 0.5765 0.2824
0.5725 0.5725 0.2784
0.8235 0.5725 0.2824
0.9922 0.5725 0.2941
0.0549 0.8235 0.2706
0.2745 0.8235 0.2824
0.5686 0.8235 0.2784
0.8196 0.8235 0.2824
0.9922 0.8118 0.2902
0.0549 0.9882 0.2941
0.2745 0.9922 0.2980
0.5725 0.9882 0.2980
0.8235 0.9922 0.2941
0.9882 0.9882 0.3098
0.0588 0.0549 0.5490
0.2824 0.0549 0.5529
0.5765 0.0549 0.5490
0.8235 0.0549 0.5569
0.9882 0.0549 0.5529
0.0549 0.2784 0.5686
0.2784 0.2784 0.5725
0.5725 0.2745 0.5686
0.8235 0.2784 0.5725
0.9843 0.2784 0.5725
0.0549 0.5725 0.5725
0.2784 0.5725 0.5686
0.5725 0.5725 0.5725
0.8235 0.5725 0.5725
0.9882 0.5725 0.5765
0.0549 0.8235 0.5647
0.2745 0.8235 0.5725
0.5725 0.8275 0.5765
0.8235 0.8196 0.5686
0.9922 0.8196 0.5725
0.0549 0.9882 0.5882
0.2784 0.9882 0.5922
0.5725 0.9882 0.5961
0.8235 0.9882 0.5922
0.9882 0.9882 0.5922
0.0549 0.0549 0.8078
0.2745 0.0549 0.8078
0.5686 0.0549 0.8078
0.8196 0.0549 0.8078
0.9922 0.0549 0.8118
0.0588 0.2784 0.8235
0.2824 0.2784 0.8196
0.5765 0.2784 0.8235
0.8235 0.2784 0.8235
0.9922 0.2784 0.8235
0.0549 0.5725 0.8235
0.2784 0.5725 0.8235
0.5725 0.5725 0.8235
0.8235 0.5686 0.8196
0.9882 0.5725 0.8235
0.0549 0.8235 0.8196
0.2784 0.8235 0.8275
0.5725 0.8235 0.8196
0.8196 0.8235 0.8196
0.9882 0.8235 0.8235
0.0902 0.9882 0.8157
0.2980 0.9922 0.8157
0.5725 0.9882 0.8118
0.8118 0.9922 0.8118
0.9882 0.9843 0.8118
0.0510 0.0549 0.9843
0.2745 0.0549 0.9882
0.5686 0.0549 0.9922
0.8235 0.0549 0.9882
0.9882 0.0824 0.9882
0.0549 0.2784 0.9882
0.2784 0.2784 0.9882
0.5725 0.2784 0.9922
0.8235 0.2784 0.9882
0.9922 0.2902 0.9922
0.0510 0.5725 0.9882
0.2784 0.5725 0.9843
0.5725 0.5725 0.9882
0.8235 0.5725 0.9882
0.9882 0.5725 0.9882
0.0510 0.8196 0.9922
0.2784 0.8235 0.9922
0.5725 0.8235 0.9882
0.8235 0.8235 0.9882
0.9882 0.8118 0.9882
0.0706 0.9922 0.9882
0.2941 0.9922 0.9882
0.5686 0.9843 0.9843
0.8118 0.9882 0.9882
0.9882 0.9922 0.9882
