code/data/lut/21柔光.cube
#Generated by Picture Instruments - Look Converter
LUT_3D_SIZE 17
0.0392 0.0392 0.0353
0.0824 0.0157 0.0118
0.1490 0.0118 0.0118
0.2235 0.0118 0.0078
0.2941 0.0118 0.0118
0.3686 0.0118 0.0118
0.4353 0.0118 0.0118
0.5098 0.0157 0.0078
0.5725 0.0118 0.0118
0.6392 0.0118 0.0078
0.6980 0.0118 0.0118
0.7569 0.0118 0.0078
0.8118 0.0118 0.0118
0.8627 0.0118 0.0078
0.9137 0.0118 0.0118
0.9529 0.0118 0.0118
0.9843 0.0118 0.0118
0.0118 0.0824 0.0118
0.0549 0.0627 0.0000
0.1294 0.0627 0.0000
0.2039 0.0588 0.0000
0.2784 0.0627 0.0000
0.3529 0.0588 0.0000
0.4275 0.0588 0.0000
0.5020 0.0588 0.0000
0.5725 0.0627 0.0000
0.6392 0.0627 0.0000
0.7020 0.0588 0.0000
0.7647 0.0588 0.0000
0.8196 0.0627 0.0000
0.8706 0.0588 0.0000
0.9176 0.0588 0.0000
0.9608 0.0588 0.0000
0.9882 0.0588 0.0000
0.0157 0.1529 0.0118
0.0627 0.1294 0.0000
0.1294 0.1255 0.0000
0.2039 0.1294 0.0000
0.2824 0.1294 0.0000
0.3569 0.1294 0.0000
0.4314 0.1294 0.0000
0.5020 0.1255 0.0000
0.5765 0.1294 0.0000
0.6431 0.1294 0.0000
0.7098 0.1294 0.0000
0.7647 0.1255 0.0000
0.8235 0.1294 0.0000
0.8784 0.1294 0.0000
0.9255 0.1294 0.0000
0.9647 0.1294 0.0000
0.9882 0.1294 0.0000
0.0118 0.2275 0.0078
0.0588 0.2039 0.0000
0.1294 0.2039 0.0000
0.2078 0.2039 0.0000
0.2784 0.2039 0.0000
0.3569 0.2039 0.0000
0.4275 0.2039 0.0000
0.5020 0.2039 0.0000
0.5765 0.2039 0.0000
0.6431 0.2039 0.0000
0.7059 0.2039 0.0000
0.7647 0.2039 0.0000
0.8235 0.2039 0.0000
0.8745 0.2039 0.0000
0.9216 0.2039 0.0000
0.9608 0.2039 0.0000
0.9882 0.2039 0.0000
0.0118 0.3020 0.0118
0.0549 0.2784 0.0000
0.1294 0.2784 0.0000
0.2039 0.2784 0.0000
0.2784 0.2784 0.0000
0.3529 0.2824 0.0000
0.4235 0.2784 0.0000
0.5020 0.2784 0.0000
0.5725 0.2784 0.0000
0.6431 0.2784 0.0000
0.7020 0.2784 0.0000
0.7647 0.2784 0.0000
0.8235 0.2784 0.0000
0.8745 0.2784 0.0000
0.9216 0.2824 0.0000
0.9569 0.2784 0.0000
0.9922 0.2784 0.0000
0.0157 0.3686 0.0118
0.0627 0.3569 0.0000
0.1294 0.3529 0.0000
0.2039 0.3529 0.0000
0.2784 0.3529 0.0000
0.3569 0.3529 0.0000
0.4314 0.3529 0.0000
0.5020 0.3529 0.0000
0.5725 0.3529 0.0000
0.6431 0.3529 0.0000
0.7059 0.3569 0.0000
0.7686 0.3569 0.0000
0.8196 0.3529 0.0000
0.8745 0.3529 0.0000
0.9216 0.3569 0.0000
0.9608 0.3569 0.0000
0.9882 0.3569 0.0000
0.0118 0.4392 0.0078
0.0588 0.4314 0.0000
0.1294 0.4275 0.0000
0.2078 0.4275 0.0000
0.2824 0.4314 0.0000
0.3529 0.4275 0.0000
0.4275 0.4275 0.0000
0.5020 0.4275 0.0000
0.5765 0.4275 0.0000
0.6392 0.4235 0.0000
0.7059 0.4275 0.0000
0.7647 0.4275 0.0000
0.8235 0.4314 0.0000
0.8784 0.4275 0.0000
0.9216 0.4275 0.0000
0.9608 0.4314 0.0000
0.9922 0.4314 0.0000
0.0118 0.5059 0.0118
0.0588 0.5059 0.0000
0.1294 0.5020 0.0000
0.2039 0.5020 0.0000
0.2784 0.5020 0.0000
0.3529 0.5059 0.0000
0.4275 0.5059 0.0000
0.5020 0.5020 0.0000
0.5725 0.5020 0.0000
0.6392 0.5020 0.0000
0.7059 0.5020 0.0000
0.7647 0.5020 0.0000
0.8235 0.5020 0.0000
0.8745 0.5020 0.0000
0.9216 0.5020 0.0000
0.9608 0.5059 0.0000
0.9882 0.5020 0.0000
0.0118 0.5725 0.0118
0.0588 0.5725 0.0000
0.1294 0.5765 0.0000
0.2039 0.5765 0.0000
0.2745 0.5725 0.0000
0.3529 0.5725 0.0000
0.4275 0.5765 0.0000
0.5020 0.5765 0.0000
0.5686 0.5725 0.0000
0.6353 0.5725 0.0000
0.7020 0.5725 0.0000
0.7647 0.5725 0.0000
0.8196 0.5765 0.0000
0.8706 0.5725 0.0000
0.9176 0.5725 0.0000
0.9608 0.5725 0.0000
0.9922 0.5686 0.0000
0.0157 0.6353 0.0078
0.0588 0.6353 0.0000
0.1294 0.6431 0.0000
0.2078 0.6431 0.0000
0.2824 0.6431 0.0000
0.3569 0.6392 0.0000
0.4275 0.6431 0.0000
0.5020 0.6431 0.0000
0.5765 0.6431 0.0000
0.6431 0.6431 0.0000
0.7059 0.6431 0.0000
0.7647 0.6431 0.0000
0.8196 0.6392 0.0000
0.8784 0.6431 0.0000
0.9216 0.6392 0.0000
0.9608 0.6353 0.0000
0.9882 0.6353 0.0000
0.0118 0.6980 0.0078
0.0588 0.7059 0.0000
0.1294 0.7059 0.0000
0.2039 0.7059 0.0000
0.2784 0.7059 0.0000
0.3529 0.7059 0.0000
0.4314 0.7059 0.0000
0.5020 0.7059 0.0000
0.5725 0.7059 0.0000
0.6431 0.7059 0.0000
0.7059 0.7059 0.0000
0.7647 0.7098 0.0000
0.8235 0.7059 0.0000
0.8745 0.7059 0.0000
0.9216 0.7059 0.0000
0.9608 0.7059 0.0000
0.9882 0.7020 0.0000
0.0118 0.7569 0.0118
0.0549 0.7647 0.0000
0.1294 0.7686 0.0000
0.2039 0.7647 0.0000
0.2784 0.7686 0.0000
0.3529 0.7647 0.0000
0.4275 0.7647 0.0000
0.5020 0.7647 0.0000
0.5725 0.7686 0.0000
0.6392 0.7647 0.0000
0.7020 0.7647 0.0000
0.7647 0.7647 0.0000
0.8235 0.7686 0.0000
0.8745 0.7686 0.0000
0.9176 0.7647 0.0000
0.9569 0.7647 0.0000
0.9882 0.7647 0.0000
0.0157 0.8118 0.0118
0.0627 0.8196 0.0000
0.1294 0.8196 0.0000
0.2039 0.8235 0.0000
0.2824 0.8235 0.0000
0.3569 0.8235 0.0000
0.4275 0.8196 0.0000
0.5020 0.8196 0.0000
0.5765 0.8235 0.0000
0.6431 0.8235 0.0000
0.7098 0.8235 0.0000
0.7647 0.8196 0.0000
0.8235 0.8196 0.0000
0.8784 0.8235 0.0000
0.9216 0.8196 0.0000
0.9608 0.8196 0.0000
0.9922 0.8196 0.0000
0.0118 0.8627 0.0078
0.0588 0.8745 0.0000
0.1294 0.8745 0.0000
0.2078 0.8745 0.0000
0.2784 0.8745 0.0000
0.3529 0.8745 0.0000
0.4275 0.8745 0.0000
0.5059 0.8745 0.0000
0.5725 0.8706 0.0000
0.6431 0.8745 0.0000
0.7059 0.8745 0.0000
0.7686 0.8745 0.0000
0.8275 0.8745 0.0000
0.8745 0.8745 0.0000
0.9216 0.8745 0.0000
0.9608 0.8745 0.0000
0.9882 0.8745 0.0000
0.0118 0.9137 0.0118
0.0549 0.9216 0.0000
0.1294 0.9216 0.0000
0.2039 0.9216 0.0000
0.2784 0.9216 0.0000
0.3529 0.9216 0.0000
0.4275 0.9216 0.0000
0.5020 0.9216 0.0000
0.5725 0.9216 0.0000
0.6431 0.9216 0.0000
0.7020 0.9216 0.0000
0.7686 0.9216 0.0000
0.8235 0.9216 0.0000
0.8745 0.9216 0.0000
0.9216 0.9216 0.0000
0.9608 0.9216 0.0000
0.9922 0.9216 0.0000
0.0157 0.9569 0.0118
0.0627 0.9608 0.0000
0.1294 0.9608 0.0000
0.2039 0.9608 0.0000
0.2784 0.9608 0.0000
0.3569 0.9608 0.0000
0.4314 0.9608 0.0000
0.5020 0.9608 0.0000
0.5725 0.9569 0.0000
0.6431 0.9608 0.0000
0.7098 0.9608 0.0000
0.7647 0.9608 0.0000
0.8235 0.9608 0.0000
0.8784 0.9608 0.0000
0.9216 0.9608 0.0000
0.9608 0.9608 0.0000
0.9922 0.9608 0.0000
0.0118 0.9922 0.0235
0.0588 0.9922 0.0000
0.1255 0.9922 0.0000
0.2039 0.9882 0.0000
0.2784 0.9882 0.0000
0.3529 0.9922 0.0000
0.4235 0.9922 0.0000
0.4980 0.9882 0.0000
0.5725 0.9882 0.0000
0.6392 0.9882 0.0000
0.7059 0.9882 0.0000
0.7647 0.9922 0.0000
0.8235 0.9922 0.0000
0.8745 0.9882 0.0000
0.9216 0.9882 0.0000
0.9569 0.9922 0.0000
0.9882 0.9922 0.0000
0.0784 0.0118 0.0784
0.0902 0.0118 0.0824
0.1529 0.0118 0.0824
0.2235 0.0118 0.0824
0.2980 0.0118 0.0824
0.3725 0.0118 0.0824
0.4392 0.0118 0.0824
0.5059 0.0118 0.0824
0.5725 0.0118 0.0784
0.6392 0.0118 0.0863
0.7020 0.0118 0.0824
0.7608 0.0118 0.0784
0.8118 0.0118 0.0824
0.8667 0.0118 0.0824
0.9176 0.0118 0.0824
0.9569 0.0118 0.0824
0.9922 0.0118 0.0824
0.0588 0.0588 0.0588
0.0588 0.0588 0.0588
0.1294 0.0588 0.0588
0.2039 0.0588 0.0588
0.2784 0.0588 0.0588
0.3569 0.0588 0.0588
0.4275 0.0588 0.0588
0.5020 0.0588 0.0627
0.5765 0.0627 0.0549
0.6431 0.0588 0.0549
0.7059 0.0588 0.0549
0.7647 0.0588 0.0588
0.8196 0.0588 0.0588
0.8706 0.0549 0.0588
0.9176 0.0588 0.0588
0.9608 0.0588 0.0588
0.9882 0.0588 0.0588
0.0549 0.1333 0.0549
0.0588 0.1294 0.0549
0.1255 0.1294 0.0549
0.2039 0.1294 0.0588
0.2784 0.1294 0.0588
0.3529 0.1333 0.0588
0.4275 0.1294 0.0549
0.4980 0.1294 0.0588
0.5725 0.1294 0.0549
0.6431 0.1333 0.0549
0.7059 0.1333 0.0588
0.7647 0.1294 0.0549
0.8196 0.1294 0.0549
0.8745 0.1333 0.0588
0.9216 0.1294 0.0627
0.9569 0.1294 0.0549
0.9922 0.1294 0.0549
0.0588 0.2039 0.0588
0.0667 0.2039 0.0588
0.1333 0.2039 0.0588
0.2039 0.2000 0.0549
0.2784 0.2039 0.0510
0.3569 0.2039 0.0627
0.4314 0.2039 0.0588
0.5059 0.2039 0.0549
0.5725 0.2000 0.0588
0.6431 0.2039 0.0588
0.7098 0.2039 0.0549
0.7686 0.2039 0.0588
0.8235 0.2000 0.0549
0.8745 0.2039 0.0588
0.9255 0.2039 0.0510
0.9608 0.2039 0.0627
0.9922 0.2039 0.0588
0.0549 0.2745 0.0549
0.0627 0.2784 0.0549
0.1294 0.2784 0.0510
0.2039 0.2784 0.0627
0.2824 0.2784 0.0549
0.3529 0.2784 0.0510
0.4275 0.2784 0.0627
0.5020 0.2784 0.0588
0.5725 0.2784 0.0549
0.6431 0.2784 0.0588
0.7059 0.2784 0.0588
0.7647 0.2784 0.0549
0.8235 0.2784 0.0549
0.8784 0.2784 0.0588
0.9216 0.2784 0.0588
0.9608 0.2784 0.0510
0.9882 0.2784 0.0588
0.0549 0.3569 0.0588
0.0627 0.3569 0.0588
0.1255 0.3529 0.0510
0.2039 0.3529 0.0510
0.2784 0.3529 0.0627
0.3529 0.3529 0.0588
0.4275 0.3569 0.0549
0.4980 0.3529 0.0588
0.5725 0.3529 0.0588
0.6431 0.3529 0.0549
0.7059 0.3569 0.0588
0.7647 0.3529 0.0588
0.8235 0.3529 0.0549
0.8745 0.3569 0.0549
0.9216 0.3569 0.0627
0.9569 0.3569 0.0588
0.9882 0.3529 0.0588
0.0588 0.4314 0.0510
0.0627 0.4314 0.0588
0.1333 0.4275 0.0588
0.2078 0.4275 0.0549
0.2784 0.4275 0.0510
0.3569 0.4275 0.0588
0.4314 0.4275 0.0588
0.5059 0.4275 0.0588
0.5725 0.4275 0.0588
0.6392 0.4275 0.0588
0.7059 0.4275 0.0549
0.7686 0.4314 0.0588
0.8235 0.4314 0.0627
0.8745 0.4275 0.0510
0.9216 0.4275 0.0549
0.9608 0.4314 0.0627
0.9922 0.4275 0.0549
0.0588 0.5020 0.0588
0.0627 0.5020 0.0549
0.1294 0.5020 0.0588
0.2039 0.5020 0.0549
0.2824 0.5020 0.0588
0.3569 0.5059 0.0588
0.4314 0.4980 0.0549
0.5020 0.5020 0.0549
0.5725 0.5020 0.0588
0.6431 0.5020 0.0588
0.7059 0.4980 0.0588
0.7647 0.5020 0.0549
0.8235 0.5020 0.0588
0.8784 0.5020 0.0588
0.9216 0.5020 0.0549
0.9608 0.5020 0.0549
0.9922 0.5020 0.0549
0.0549 0.5725 0.0588
0.0588 0.5725 0.0549
0.1294 0.5765 0.0549
0.2039 0.5725 0.0588
0.2784 0.5725 0.0549
0.3569 0.5725 0.0549
0.4275 0.5765 0.0588
0.5020 0.5765 0.0588
0.5725 0.5725 0.0549
0.6431 0.5725 0.0549
0.7059 0.5725 0.0588
0.7647 0.5725 0.0627
0.8196 0.5725 0.0549
0.8745 0.5725 0.0588
0.9216 0.5725 0.0549
0.9608 0.5725 0.0588
0.9882 0.5686 0.0588
0.0549 0.6392 0.0510
0.0588 0.6431 0.0588
0.1294 0.6431 0.0588
0.2039 0.6431 0.0588
0.2784 0.6431 0.0588
0.3529 0.6392 0.0549
0.4275 0.6392 0.0588
0.5020 0.6431 0.0549
0.5725 0.6431 0.0588
0.6353 0.6431 0.0549
0.7020 0.6431 0.0549
0.7647 0.6431 0.0588
0.8235 0.6431 0.0588
0.8745 0.6431 0.0549
0.9176 0.6392 0.0588
0.9569 0.6392 0.0588
0.9922 0.6392 0.0588
0.0588 0.7059 0.0549
0.0627 0.7020 0.0588
0.1294 0.7020 0.0549
0.2039 0.7059 0.0588
0.2824 0.7059 0.0588
0.3569 0.7059 0.0588
0.4314 0.7059 0.0588
0.5020 0.7059 0.0588
0.5725 0.7059 0.0549
0.6431 0.7059 0.0588
0.7098 0.7059 0.0588
0.7647 0.7059 0.0549
0.8235 0.7059 0.0627
0.8745 0.7059 0.0588
0.9216 0.7059 0.0588
0.9608 0.7020 0.0588
0.9922 0.7020 0.0588
0.0549 0.7647 0.0549
0.0627 0.7647 0.0588
0.1294 0.7647 0.0549
0.2039 0.7647 0.0588
0.2784 0.7647 0.0588
0.3529 0.7647 0.0588
0.4275 0.7647 0.0588
0.5020 0.7647 0.0588
0.5725 0.7647 0.0549
0.6431 0.7647 0.0549
0.7059 0.7647 0.0627
0.7647 0.7647 0.0588
0.8196 0.7686 0.0549
0.8745 0.7647 0.0588
0.9216 0.7647 0.0588
0.9608 0.7647 0.0588
0.9882 0.7647 0.0588
0.0549 0.8235 0.0549
0.0549 0.8235 0.0588
0.1255 0.8235 0.0588
0.2039 0.8235 0.0549
0.2784 0.8235 0.0627
0.3529 0.8235 0.0627
0.4235 0.8235 0.0510
0.5020 0.8235 0.0588
0.5725 0.8235 0.0627
0.6392 0.8235 0.0588
0.7020 0.8235 0.0510
0.7647 0.8235 0.0588
0.8196 0.8235 0.0549
0.8745 0.8275 0.0588
0.9176 0.8235 0.0588
0.9569 0.8235 0.0549
0.9882 0.8235 0.0588
0.0588 0.8745 0.0588
0.0627 0.8745 0.0588
0.1333 0.8745 0.0588
0.2039 0.8706 0.0588
0.2784 0.8745 0.0510
0.3569 0.8745 0.0627
0.4314 0.8745 0.0588
0.5020 0.8706 0.0510
0.5725 0.8745 0.0588
0.6431 0.8745 0.0549
0.7059 0.8745 0.0549
0.7686 0.8745 0.0549
0.8196 0.8706 0.0549
0.8745 0.8745 0.0588
0.9216 0.8745 0.0549
0.9608 0.8745 0.0627
0.9922 0.8745 0.0588
0.0549 0.9216 0.0549
0.0588 0.9216 0.0588
0.1294 0.9216 0.0510
0.2039 0.9216 0.0627
0.2824 0.9216 0.0627
0.3529 0.9216 0.0549
0.4275 0.9216 0.0588
0.5020 0.9216 0.0588
0.5765 0.9216 0.0588
0.6392 0.9176 0.0588
0.7020 0.9216 0.0549
0.7647 0.9216 0.0588
0.8196 0.9216 0.0549
0.8784 0.9216 0.0627
0.9216 0.9216 0.0588
0.9608 0.9216 0.0549
0.9882 0.9216 0.0588
0.0549 0.9608 0.0588
0.0588 0.9647 0.0588
0.1255 0.9608 0.0588
0.2039 0.9608 0.0549
0.2784 0.9608 0.0627
0.3529 0.9608 0.0588
0.4235 0.9608 0.0549
0.5020 0.9608 0.0627
0.5725 0.9608 0.0588
0.6431 0.9608 0.0588
0.7059 0.9608 0.0588
0.7647 0.9608 0.0588
0.8196 0.9608 0.0588
0.8745 0.9608 0.0549
0.9216 0.9608 0.0627
0.9608 0.9647 0.0588
0.9922 0.9608 0.0588
0.0549 0.9922 0.0667
0.0588 0.9922 0.0706
0.1255 0.9922 0.0667
0.2039 0.9882 0.0627
0.2784 0.9882 0.0745
0.3529 0.9922 0.0706
0.4235 0.9922 0.0627
0.5020 0.9882 0.0706
0.5725 0.9882 0.0706
0.6431 0.9922 0.0667
0.7059 0.9882 0.0667
0.7647 0.9922 0.0667
0.8196 0.9882 0.0667
0.8745 0.9882 0.0706
0.9216 0.9882 0.0706
0.9608 0.9922 0.0706
0.9922 0.9922 0.0706
0.0745 0.0157 0.1490
0.0784 0.0118 0.1490
0.1490 0.0118 0.1529
0.2235 0.0118 0.1529
0.2980 0.0157 0.1529
0.3686 0.0157 0.1569
0.4353 0.0118 0.1529
0.5020 0.0118 0.1529
0.5725 0.0157 0.1490
0.6353 0.0118 0.1569
0.6980 0.0157 0.1569
0.7529 0.0118 0.1490
0.8078 0.0118 0.1569
0.8627 0.0118 0.1529
0.9137 0.0157 0.1529
0.9529 0.0118 0.1529
0.9882 0.0118 0.1529
0.0588 0.0588 0.1294
0.0667 0.0588 0.1294
0.1333 0.0588 0.1294
0.2039 0.0549 0.1294
0.2784 0.0588 0.1333
0.3529 0.0588 0.1333
0.4314 0.0588 0.1333
0.5059 0.0588 0.1333
0.5725 0.0588 0.1294
0.6392 0.0588 0.1255
0.7098 0.0588 0.1333
0.7686 0.0588 0.1333
0.8235 0.0588 0.1294
0.8706 0.0549 0.1333
0.9176 0.0588 0.1294
0.9647 0.0588 0.1333
0.9843 0.0588 0.1333
0.0549 0.1294 0.1216
0.0588 0.1294 0.1294
0.1294 0.1294 0.1294
0.2039 0.1294 0.1294
0.2784 0.1294 0.1333
0.3529 0.1294 0.1255
0.4275 0.1294 0.1294
0.5020 0.1294 0.1294
0.5725 0.1294 0.1294
0.6431 0.1333 0.1255
0.7059 0.1294 0.1255
0.7647 0.1294 0.1255
0.8235 0.1294 0.1294
0.8745 0.1294 0.1255
0.9216 0.1255 0.1294
0.9608 0.1294 0.1294
0.9882 0.1294 0.1294
0.0549 0.2039 0.1255
0.0627 0.2078 0.1294
0.1255 0.2039 0.1294
0.2000 0.2039 0.1294
0.2784 0.2039 0.1294
0.3529 0.2039 0.1294
0.4275 0.2039 0.1294
0.4980 0.2039 0.1216
0.5686 0.2039 0.1294
0.6431 0.2039 0.1255
0.7059 0.2078 0.1255
0.7647 0.2078 0.1255
0.8196 0.2039 0.1255
0.8745 0.2039 0.1294
0.9216 0.2078 0.1255
0.9608 0.2039 0.1333
0.9882 0.2039 0.1333
0.0588 0.2745 0.1255
0.0667 0.2784 0.1255
0.1333 0.2784 0.1294
0.2078 0.2784 0.1333
0.2784 0.2745 0.1255
0.3529 0.2784 0.1216
0.4314 0.2784 0.1333
0.5059 0.2784 0.1294
0.5765 0.2784 0.1255
0.6431 0.2745 0.1294
0.7098 0.2784 0.1294
0.7725 0.2784 0.1255
0.8235 0.2784 0.1294
0.8745 0.2745 0.1294
0.9216 0.2784 0.1294
0.9647 0.2784 0.1216
0.9882 0.2784 0.1294
0.0588 0.3529 0.1294
0.0627 0.3490 0.1294
0.1294 0.3569 0.1255
0.2039 0.3529 0.1216
0.2784 0.3529 0.1333
0.3569 0.3529 0.1255
0.4275 0.3529 0.1255
0.5020 0.3529 0.1333
0.5725 0.3529 0.1294
0.6392 0.3529 0.1255
0.7098 0.3529 0.1294
0.7647 0.3529 0.1255
0.8235 0.3529 0.1255
0.8745 0.3529 0.1255
0.9255 0.3529 0.1333
0.9608 0.3529 0.1294
0.9922 0.3529 0.1294
0.0549 0.4275 0.1255
0.0627 0.4275 0.1294
0.1294 0.4314 0.1333
0.2000 0.4275 0.1255
0.2784 0.4275 0.1255
0.3529 0.4275 0.1333
0.4275 0.4275 0.1294
0.5020 0.4314 0.1255
0.5686 0.4275 0.1255
0.6392 0.4275 0.1294
0.7059 0.4275 0.1255
0.7647 0.4275 0.1294
0.8196 0.4275 0.1294
0.8745 0.4275 0.1294
0.9216 0.4275 0.1255
0.9608 0.4275 0.1333
0.9922 0.4275 0.1294
0.0549 0.4980 0.1255
0.0627 0.5020 0.1255
0.1333 0.5020 0.1294
0.2078 0.5020 0.1333
0.2784 0.5020 0.1255
0.3529 0.4980 0.1255
0.4314 0.4980 0.1255
0.5020 0.5020 0.1255
0.5765 0.5020 0.1294
0.6431 0.5020 0.1294
0.7059 0.4980 0.1294
0.7686 0.5020 0.1255
0.8235 0.5020 0.1294
0.8784 0.5020 0.1294
0.9216 0.4980 0.1255
0.9647 0.5020 0.1255
0.9922 0.5020 0.1333
0.0549 0.5725 0.1294
0.0667 0.5725 0.1333
0.1294 0.5725 0.1255
0.2039 0.5725 0.1294
0.2784 0.5725 0.1255
0.3569 0.5725 0.1294
0.4314 0.5765 0.1294
0.5020 0.5686 0.1255
0.5725 0.5725 0.1255
0.6431 0.5725 0.1294
0.7098 0.5725 0.1294
0.7647 0.5686 0.1294
0.8196 0.5725 0.1255
0.8745 0.5725 0.1294
0.9255 0.5725 0.1294
0.9608 0.5725 0.1294
0.9882 0.5725 0.1333
0.0549 0.6431 0.1216
0.0627 0.6392 0.1294
0.1294 0.6392 0.1294
0.2039 0.6431 0.1255
0.2784 0.6431 0.1294
0.3569 0.6431 0.1255
0.4275 0.6392 0.1294
0.5020 0.6431 0.1294
0.5725 0.6431 0.1294
0.6392 0.6431 0.1255
0.7059 0.6392 0.1255
0.7647 0.6431 0.1294
0.8235 0.6431 0.1333
0.8706 0.6431 0.1216
0.9176 0.6431 0.1294
0.9608 0.6392 0.1294
0.9922 0.6392 0.1255
0.0549 0.7098 0.1255
0.0549 0.7059 0.1216
0.1255 0.7059 0.1294
0.2039 0.7059 0.1294
0.2784 0.7098 0.1294
0.3529 0.7098 0.1294
0.4235 0.7059 0.1255
0.4980 0.7059 0.1294
0.5725 0.7098 0.1255
0.6431 0.7098 0.1294
0.7020 0.7059 0.1294
0.7647 0.7059 0.1255
0.8196 0.7059 0.1333
0.8745 0.7059 0.1255
0.9216 0.7098 0.1255
0.9608 0.7059 0.1294
0.9882 0.7059 0.1294
0.0549 0.7647 0.1294
0.0627 0.7647 0.1294
0.1333 0.7647 0.1255
0.2039 0.7647 0.1255
0.2784 0.7647 0.1294
0.3569 0.7647 0.1294
0.4314 0.7647 0.1294
0.5059 0.7647 0.1294
0.5725 0.7647 0.1294
0.6392 0.7647 0.1255
0.7098 0.7647 0.1333
0.7686 0.7647 0.1255
0.8196 0.7647 0.1216
0.8745 0.7647 0.1333
0.9216 0.7647 0.1255
0.9608 0.7647 0.1294
0.9922 0.7647 0.1294
0.0549 0.8196 0.1216
0.0627 0.8235 0.1294
0.1294 0.8235 0.1255
0.2039 0.8235 0.1255
0.2784 0.8235 0.1294
0.3529 0.8235 0.1294
0.4275 0.8235 0.1255
0.5020 0.8235 0.1294
0.5725 0.8235 0.1333
0.6392 0.8235 0.1216
0.7059 0.8235 0.1216
0.7647 0.8235 0.1333
0.8235 0.8235 0.1255
0.8706 0.8235 0.1294
0.9216 0.8235 0.1255
0.9608 0.8235 0.1294
0.9882 0.8235 0.1294
0.0549 0.8784 0.1255
0.0627 0.8784 0.1255
0.1255 0.8745 0.1255
0.2000 0.8745 0.1294
0.2784 0.8745 0.1255
0.3529 0.8745 0.1294
0.4275 0.8745 0.1294
0.4980 0.8745 0.1255
0.5725 0.8745 0.1294
0.6392 0.8745 0.1294
0.7059 0.8784 0.1255
0.7647 0.8745 0.1255
0.8196 0.8745 0.1255
0.8745 0.8745 0.1294
0.9216 0.8784 0.1255
0.9569 0.8784 0.1333
0.9882 0.8745 0.1333
0.0549 0.9216 0.1255
0.0667 0.9216 0.1294
0.1333 0.9216 0.1255
0.2039 0.9216 0.1333
0.2784 0.9176 0.1294
0.3569 0.9216 0.1255
0.4314 0.9216 0.1294
0.5059 0.9216 0.1333
0.5725 0.9176 0.1255
0.6392 0.9176 0.1294
0.7098 0.9216 0.1294
0.7686 0.9216 0.1255
0.8275 0.9216 0.1255
0.8745 0.9176 0.1294
0.9216 0.9216 0.1294
0.9647 0.9216 0.1255
0.9843 0.9216 0.1255
0.0588 0.9608 0.1294
0.0627 0.9569 0.1294
0.1294 0.9608 0.1294
0.2039 0.9608 0.1255
0.2784 0.9608 0.1333
0.3569 0.9608 0.1333
0.4275 0.9608 0.1255
0.5020 0.9608 0.1333
0.5725 0.9608 0.1294
0.6431 0.9608 0.1294
0.7059 0.9608 0.1333
0.7647 0.9608 0.1294
0.8235 0.9608 0.1294
0.8745 0.9608 0.1294
0.9216 0.9569 0.1333
0.9608 0.9608 0.1294
0.9882 0.9608 0.1294
0.0549 0.9882 0.1412
0.0588 0.9922 0.1451
0.1294 0.9882 0.1451
0.2039 0.9882 0.1451
0.2784 0.9882 0.1490
0.3569 0.9882 0.1451
0.4275 0.9922 0.1412
0.5020 0.9882 0.1490
0.5725 0.9922 0.1490
0.6431 0.9882 0.1412
0.7059 0.9882 0.1451
0.7686 0.9922 0.1451
0.8235 0.9922 0.1451
0.8745 0.9882 0.1451
0.9216 0.9843 0.1451
0.9608 0.9922 0.1451
0.9882 0.9882 0.1451
0.0745 0.0157 0.2235
0.0863 0.0118 0.2196
0.1529 0.0118 0.2275
0.2275 0.0118 0.2275
0.2980 0.0157 0.2275
0.3647 0.0118 0.2235
0.4392 0.0118 0.2235
0.5059 0.0118 0.2275
0.5725 0.0118 0.2235
0.6353 0.0118 0.2275
0.6980 0.0118 0.2235
0.7569 0.0118 0.2196
0.8118 0.0118 0.2275
0.8627 0.0118 0.2275
0.9137 0.0157 0.2235
0.9569 0.0118 0.2275
0.9882 0.0118 0.2275
0.0549 0.0588 0.2039
0.0627 0.0627 0.2039
0.1255 0.0588 0.2000
0.2000 0.0588 0.2039
0.2745 0.0588 0.2039
0.3569 0.0627 0.2078
0.4275 0.0627 0.2078
0.4980 0.0588 0.2039
0.5686 0.0588 0.2039
0.6431 0.0627 0.2000
0.7020 0.0588 0.2078
0.7647 0.0627 0.2118
0.8196 0.0588 0.2000
0.8706 0.0588 0.2078
0.9216 0.0588 0.2039
0.9608 0.0627 0.2078
