code/data/lut/22深蓝泪雨.cube
#Generated by Picture Instruments - Look Converter
LUT_3D_SIZE 5
0.0000 0.0078 0.1059
0.2588 0.0118 0.1059
0.5961 0.0157 0.1020
0.8353 0.0157 0.1020
0.9529 0.0196 0.1059
0.0078 0.3137 0.1098
0.2510 0.3176 0.1059
0.6000 0.3294 0.1059
0.8353 0.3294 0.1020
0.9882 0.3216 0.1020
0.0157 0.6314 0.1098
0.2510 0.6353 0.1059
0.5922 0.6392 0.1059
0.8314 0.6431 0.1059
0.9843 0.6353 0.1059
0.0196 0.8471 0.1098
0.2706 0.8588 0.1020
0.6039 0.8510 0.1020
0.8314 0.8549 0.1059
0.9843 0.8549 0.1020
0.0235 0.9647 0.1059
0.2588 0.9804 0.1020
0.5882 0.9804 0.1059
0.8275 0.9804 0.1059
0.9843 0.9804 0.1020
0.0314 0.0157 0.4431
0.2588 0.0118 0.4431
0.6039 0.0157 0.4627
0.8392 0.0196 0.4627
0.9569 0.0196 0.4667
0.0314 0.3098 0.4392
0.2510 0.3176 0.4471
0.5961 0.3294 0.4588
0.8353 0.3294 0.4510
0.9765 0.3294 0.4627
0.0314 0.6275 0.4431
0.2588 0.6353 0.4588
0.5961 0.6392 0.4549
0.8314 0.6392 0.4549
0.9843 0.6392 0.4588
0.0314 0.8510 0.4471
0.2627 0.8510 0.4627
0.5961 0.8549 0.4627
0.8314 0.8549 0.4627
0.9843 0.8471 0.4549
0.0314 0.9725 0.4471
0.2588 0.9804 0.4431
0.5882 0.9765 0.4471
0.8275 0.9765 0.4392
0.9843 0.9804 0.4471
0.0000 0.0078 0.7098
0.2667 0.0078 0.7176
0.6078 0.0078 0.7216
0.8431 0.0078 0.7255
0.9569 0.0157 0.7176
0.0000 0.3098 0.6902
0.2471 0.3137 0.6980
0.5922 0.3216 0.7137
0.8353 0.3255 0.7098
0.9569 0.3216 0.7098
0.0000 0.6353 0.7098
0.2588 0.6353 0.7098
0.5922 0.6392 0.7137
0.8314 0.6431 0.7137
0.9569 0.6392 0.7137
0.0000 0.8588 0.7176
0.2627 0.8549 0.7216
0.6000 0.8549 0.7216
0.8353 0.8549 0.7216
0.9569 0.8549 0.7255
0.0196 0.9647 0.7176
0.2627 0.9647 0.7137
0.6000 0.9647 0.7176
0.8353 0.9647 0.7176
0.9569 0.9647 0.7176
0.0353 0.0275 0.8745
0.2431 0.0235 0.8745
0.5922 0.0235 0.8784
0.8314 0.0235 0.8784
0.9647 0.0235 0.8745
0.0314 0.3098 0.8745
0.2471 0.3098 0.8784
0.6000 0.3255 0.8824
0.8392 0.3255 0.8824
0.9843 0.3176 0.8784
0.0314 0.6314 0.8784
0.2510 0.6314 0.8784
0.5922 0.6392 0.8824
0.8314 0.6353 0.8824
0.9843 0.6353 0.8784
0.0314 0.8510 0.8745
0.2627 0.8471 0.8863
0.5961 0.8471 0.8824
0.8314 0.8510 0.8863
0.9843 0.8510 0.8824
0.0314 0.9686 0.8824
0.2627 0.9765 0.8824
0.5922 0.9765 0.8784
0.8314 0.9804 0.8784
0.9843 0.9804 0.8824
0.0000 0.0078 0.9804
0.2431 0.0078 0.9804
0.5961 0.0078 0.9804
0.8353 0.0078 0.9804
0.9608 0.0157 0.9647
0.0000 0.3098 0.9804
0.2431 0.3059 0.9804
0.5922 0.3216 0.9804
0.8353 0.3216 0.9765
0.9686 0.3255 0.9725
0.0039 0.6314 0.9804
0.2510 0.6275 0.9765
0.5922 0.6353 0.9843
0.8314 0.6392 0.9804
0.9765 0.6392 0.9765
0.0000 0.8471 0.9804
0.2627 0.8471 0.9804
0.5961 0.8471 0.9765
0.8314 0.8510 0.9804
0.9843 0.8471 0.9804
0.0275 0.9608 0.9765
0.2588 0.9765 0.9804
0.5922 0.9804 0.9804
0.8314 0.9765 0.9804
0.9843 0.9765 0.9804
