code/data/lut/23时空.cube
#Generated by Picture Instruments - Look Converter
LUT_3D_SIZE 5
0.0667 0.0353 0.0314
0.3529 0.0431 0.0392
0.6196 0.0471 0.0431
0.7843 0.0510 0.0510
0.8941 0.0510 0.0510
0.0549 0.2863 0.0471
0.3647 0.2353 0.0588
0.6196 0.2510 0.0549
0.7843 0.2549 0.0510
0.8980 0.2510 0.0549
0.0549 0.5882 0.0431
0.3373 0.4235 0.0784
0.5961 0.4078 0.0745
0.7647 0.4118 0.0667
0.8784 0.4039 0.0627
0.0549 0.7529 0.0510
0.3882 0.6627 0.0980
0.5608 0.6314 0.1059
0.7020 0.6392 0.1216
0.8039 0.6431 0.1176
0.0510 0.8902 0.0549
0.4000 0.8353 0.0941
0.5686 0.7961 0.1216
0.7020 0.7961 0.1176
0.8039 0.7961 0.1216
0.0627 0.0431 0.3020
0.2510 0.0431 0.3059
0.5725 0.0431 0.3255
0.7608 0.0471 0.3294
0.8941 0.0510 0.3294
0.0627 0.2863 0.3020
0.2627 0.2980 0.3176
0.5843 0.3216 0.3333
0.7725 0.3255 0.3255
0.9059 0.3294 0.3333
0.0627 0.5882 0.3216
0.2627 0.6039 0.3333
0.5686 0.5137 0.3373
0.7647 0.5255 0.3294
0.8980 0.5255 0.3294
0.0588 0.7529 0.3255
0.2627 0.7686 0.3490
0.5765 0.7020 0.3647
0.7216 0.6941 0.3569
0.8471 0.6980 0.3529
0.0588 0.8941 0.3255
0.2667 0.9059 0.3294
0.5882 0.8627 0.3490
0.7255 0.8314 0.3412
0.8353 0.8314 0.3294
0.0471 0.0392 0.6157
0.2510 0.0392 0.6196
0.5216 0.0392 0.6235
0.7451 0.0471 0.6314
0.8980 0.0510 0.6275
0.0471 0.2941 0.6000
0.2549 0.3059 0.6118
0.5255 0.3176 0.6235
0.7569 0.3255 0.6275
0.9059 0.3216 0.6235
0.0510 0.5882 0.6118
0.2627 0.6000 0.6275
0.5216 0.6157 0.6314
0.7490 0.6196 0.6392
0.9137 0.6235 0.6431
0.0471 0.7608 0.6196
0.2667 0.7647 0.6353
0.5255 0.7725 0.6431
0.7451 0.7569 0.6549
0.9137 0.7686 0.6510
0.0510 0.8941 0.6275
0.2667 0.9059 0.6275
0.5255 0.9098 0.6431
0.7569 0.9059 0.6431
0.8863 0.8863 0.6549
0.0627 0.0471 0.7569
0.2353 0.0510 0.7569
0.5020 0.0471 0.7647
0.7176 0.0510 0.7686
0.8941 0.0510 0.7647
0.0588 0.2980 0.7608
0.2549 0.3020 0.7725
0.5255 0.3255 0.7765
0.7373 0.3255 0.7765
0.9098 0.3216 0.7765
0.0588 0.5922 0.7608
0.2588 0.6000 0.7725
0.5176 0.6118 0.7843
0.7216 0.6196 0.7804
0.9176 0.6235 0.7882
0.0549 0.7569 0.7647
0.2627 0.7608 0.7765
0.5137 0.7725 0.7804
0.6745 0.7765 0.7882
0.9137 0.7843 0.7922
0.0549 0.8941 0.7647
0.2627 0.9059 0.7804
0.5176 0.9098 0.7804
0.6706 0.9137 0.7843
0.9059 0.9176 0.7961
0.0471 0.0510 0.8980
0.2353 0.0510 0.9020
0.5098 0.0471 0.8980
0.7176 0.0510 0.9020
0.8941 0.0471 0.8941
0.0471 0.2980 0.9020
0.2471 0.3059 0.9059
0.5176 0.3216 0.9098
0.7294 0.3216 0.9137
0.9059 0.3216 0.9098
0.0471 0.5961 0.9020
0.2588 0.6039 0.9059
0.5216 0.6157 0.9216
0.7176 0.6275 0.9176
0.9137 0.6275 0.9176
0.0510 0.7569 0.8980
0.2627 0.7647 0.9059
0.5176 0.7765 0.9137
0.6706 0.7804 0.9176
0.9176 0.7804 0.9216
0.0549 0.8902 0.8980
0.2627 0.9020 0.9059
0.5176 0.9098 0.9137
0.6667 0.9137 0.9176
0.9098 0.9216 0.9255
