code/data/lut/24四月物语.cube
#Generated by Picture Instruments - Look Converter
LUT_3D_SIZE 5
0.0431 0.0431 0.0392
0.3098 0.0235 0.0196
0.6078 0.0118 0.0157
0.7961 0.0118 0.0118
0.9216 0.0118 0.0118
0.0275 0.3059 0.0235
0.3059 0.3059 0.0235
0.6118 0.3020 0.0078
0.8039 0.2941 0.0039
0.9373 0.2784 0.0000
0.0196 0.6000 0.0235
0.2941 0.6078 0.0078
0.6000 0.6118 0.0078
0.7961 0.6000 0.0000
0.9373 0.5843 0.0000
0.0235 0.8000 0.0235
0.3059 0.8039 0.0000
0.6078 0.8039 0.0000
0.7961 0.8000 0.0000
0.9373 0.8000 0.0000
0.0235 0.9451 0.0235
0.2824 0.9490 0.0000
0.5804 0.9451 0.0000
0.7804 0.9451 0.0000
0.9294 0.9412 0.0000
0.0431 0.0235 0.3137
0.3137 0.0235 0.3137
0.6157 0.0157 0.3098
0.8000 0.0118 0.3020
0.9255 0.0118 0.3059
0.0431 0.2980 0.3059
0.2980 0.2941 0.3059
0.5961 0.2863 0.2980
0.7843 0.2784 0.2784
0.9098 0.2745 0.2863
0.0353 0.6000 0.2941
0.2863 0.5961 0.2941
0.5922 0.5961 0.2941
0.7804 0.5804 0.2824
0.9137 0.5765 0.2824
0.0314 0.8000 0.2941
0.2745 0.7882 0.2902
0.5843 0.7882 0.2902
0.7765 0.7882 0.2824
0.9176 0.7804 0.2745
0.0314 0.9451 0.2863
0.2627 0.9333 0.2667
0.5686 0.9333 0.2706
0.7725 0.9294 0.2627
0.9137 0.9294 0.2706
0.0078 0.0118 0.6157
0.3059 0.0118 0.6235
0.6157 0.0078 0.6314
0.8039 0.0000 0.6314
0.9255 0.0078 0.6157
0.0078 0.2824 0.5961
0.2784 0.2745 0.5922
0.5843 0.2824 0.6039
0.7843 0.2745 0.5961
0.9098 0.2627 0.5804
0.0118 0.6000 0.6157
0.2824 0.5882 0.6039
0.5725 0.5765 0.5922
0.7647 0.5686 0.5804
0.8980 0.5608 0.5765
0.0000 0.8078 0.6196
0.2784 0.7882 0.6000
0.5725 0.7725 0.5922
0.7647 0.7686 0.5843
0.8902 0.7686 0.5843
0.0196 0.9412 0.6078
0.2745 0.9255 0.5843
0.5608 0.9098 0.5804
0.7569 0.9059 0.5765
0.8941 0.9059 0.5765
0.0314 0.0196 0.8078
0.2745 0.0196 0.8118
0.5961 0.0196 0.8157
0.7882 0.0196 0.8196
0.9294 0.0157 0.8078
0.0314 0.2706 0.8118
0.2667 0.2588 0.8000
0.5804 0.2784 0.8078
0.7843 0.2745 0.8078
0.9216 0.2588 0.7961
0.0314 0.5843 0.8157
0.2706 0.5725 0.8000
0.5647 0.5686 0.7922
0.7647 0.5608 0.7882
0.9020 0.5569 0.7804
0.0275 0.8000 0.8157
0.2824 0.7804 0.8078
0.5647 0.7686 0.7843
0.7529 0.7608 0.7804
0.8902 0.7569 0.7804
0.0275 0.9412 0.8118
0.2706 0.9294 0.7961
0.5529 0.9137 0.7765
0.7490 0.9059 0.7725
0.8941 0.9059 0.7686
0.0000 0.0000 0.9569
0.2706 0.0000 0.9608
0.5882 0.0000 0.9608
0.7922 0.0000 0.9608
0.9216 0.0078 0.9451
0.0000 0.2667 0.9608
0.2549 0.2471 0.9529
0.5686 0.2588 0.9490
0.7725 0.2627 0.9451
0.9098 0.2627 0.9412
0.0000 0.5804 0.9608
0.2549 0.5608 0.9412
0.5569 0.5529 0.9373
0.7569 0.5569 0.9294
0.8902 0.5569 0.9255
0.0000 0.7922 0.9569
0.2667 0.7765 0.9451
0.5569 0.7608 0.9255
0.7529 0.7529 0.9255
0.8863 0.7529 0.9216
0.0275 0.9294 0.9569
0.2706 0.9255 0.9451
0.5529 0.9098 0.9294
0.7490 0.9059 0.9216
0.8863 0.8941 0.9137
