code/data/lut/25唯美.cube
#Generated by Picture Instruments - Look Converter
LUT_3D_SIZE 5
0.0549 0.1373 0.2118
0.3882 0.1373 0.2039
0.6275 0.1373 0.2078
0.7922 0.1373 0.2078
0.9216 0.1373 0.2078
0.0549 0.4235 0.2157
0.3922 0.4196 0.2078
0.6275 0.4196 0.2078
0.7922 0.4196 0.2078
0.9255 0.4196 0.2118
0.0549 0.6235 0.2118
0.3882 0.6314 0.2118
0.6235 0.6314 0.2118
0.7922 0.6275 0.2039
0.9255 0.6196 0.2078
0.0588 0.7804 0.2078
0.4039 0.7765 0.2196
0.6275 0.7765 0.2078
0.7961 0.7765 0.2118
0.9216 0.7725 0.2078
0.0510 0.8980 0.2118
0.3882 0.8980 0.2118
0.6235 0.8980 0.2078
0.7882 0.8980 0.2039
0.9255 0.8980 0.2078
0.0549 0.1373 0.3922
0.3922 0.1373 0.3882
0.6314 0.1373 0.3882
0.8000 0.1373 0.3922
0.9176 0.1333 0.3843
0.0549 0.4196 0.3882
0.3922 0.4196 0.3882
0.6275 0.4196 0.3882
0.7882 0.4196 0.3804
0.9216 0.4157 0.3843
0.0549 0.6275 0.3843
0.3922 0.6314 0.3961
0.6275 0.6275 0.3843
0.7922 0.6314 0.3882
0.9216 0.6275 0.3922
0.0549 0.7804 0.3843
0.3843 0.7765 0.3922
0.6275 0.7765 0.3882
0.7922 0.7765 0.3882
0.9255 0.7765 0.3804
0.0549 0.8980 0.3882
0.3882 0.8980 0.3843
0.6235 0.8980 0.3843
0.7922 0.8980 0.3843
0.9255 0.8980 0.3882
0.0549 0.1373 0.5490
0.4000 0.1373 0.5490
0.6353 0.1373 0.5490
0.7922 0.1373 0.5490
0.9216 0.1373 0.5451
0.0549 0.4196 0.5490
0.3961 0.4196 0.5529
0.6275 0.4157 0.5412
0.7922 0.4196 0.5451
0.9216 0.4157 0.5490
0.0549 0.6275 0.5529
0.3961 0.6275 0.5490
0.6314 0.6275 0.5490
0.7922 0.6235 0.5490
0.9216 0.6235 0.5451
0.0549 0.7725 0.5490
0.3882 0.7765 0.5529
0.6275 0.7765 0.5451
0.7961 0.7765 0.5490
0.9255 0.7725 0.5412
0.0510 0.8980 0.5451
0.3922 0.8980 0.5490
0.6275 0.8980 0.5490
0.7961 0.8980 0.5490
0.9216 0.8941 0.5451
0.0549 0.1373 0.6902
0.3882 0.1333 0.6902
0.6275 0.1373 0.6863
0.7922 0.1373 0.6863
0.9255 0.1333 0.6863
0.0510 0.4157 0.6902
0.4000 0.4196 0.6863
0.6275 0.4196 0.6863
0.7922 0.4196 0.6863
0.9255 0.4196 0.6902
0.0549 0.6235 0.6902
0.3961 0.6275 0.6902
0.6314 0.6275 0.6902
0.7922 0.6235 0.6902
0.9255 0.6275 0.6902
0.0549 0.7725 0.6863
0.3922 0.7725 0.6941
0.6275 0.7765 0.6863
0.7961 0.7765 0.6902
0.9216 0.7765 0.6863
0.0549 0.8941 0.6863
0.3961 0.9020 0.6902
0.6275 0.8980 0.6902
0.7922 0.8980 0.6902
0.9216 0.8980 0.6863
0.0510 0.1373 0.8078
0.3882 0.1373 0.8157
0.6235 0.1373 0.8157
0.7922 0.1373 0.8118
0.9255 0.1333 0.8118
0.0549 0.4196 0.8157
0.3961 0.4196 0.8118
0.6275 0.4157 0.8118
0.7922 0.4157 0.8157
0.9255 0.4157 0.8118
0.0510 0.6235 0.8157
0.3922 0.6275 0.8118
0.6314 0.6235 0.8118
0.7922 0.6235 0.8118
0.9216 0.6235 0.8078
0.0549 0.7765 0.8196
0.3922 0.7765 0.8157
0.6275 0.7765 0.8078
0.7882 0.7765 0.8118
0.9216 0.7725 0.8118
0.0510 0.8980 0.8157
0.3922 0.8941 0.8118
0.6235 0.8980 0.8078
0.7922 0.8980 0.8118
0.9176 0.8980 0.8118
