code/data/lut/26新日系.cube
#Generated by Picture Instruments - Look Converter
LUT_3D_SIZE 9
0.0863 0.0353 0.0000
0.1529 0.0392 0.0078
0.2745 0.0392 0.0000
0.4078 0.0392 0.0000
0.5137 0.0392 0.0039
0.5922 0.0392 0.0000
0.6431 0.0392 0.0000
0.7098 0.0392 0.0000
0.7569 0.0392 0.0000
0.0863 0.1412 0.0000
0.1529 0.1451 0.0000
0.2745 0.1412 0.0039
0.4196 0.1373 0.0000
0.5098 0.1412 0.0000
0.5882 0.1412 0.0000
0.6431 0.1412 0.0000
0.7059 0.1412 0.0039
0.7647 0.1412 0.0000
0.0863 0.3373 0.0000
0.1569 0.3333 0.0000
0.2784 0.3333 0.0000
0.4196 0.3333 0.0000
0.5137 0.3333 0.0000
0.5843 0.3294 0.0000
0.6471 0.3333 0.0000
0.7098 0.3373 0.0000
0.7647 0.3333 0.0000
0.0902 0.4627 0.0000
0.1529 0.4627 0.0000
0.2745 0.4627 0.0000
0.4118 0.4627 0.0000
0.5137 0.4667 0.0039
0.5882 0.4588 0.0039
0.6471 0.4627 0.0078
0.7059 0.4627 0.0000
0.7686 0.4588 0.0000
0.0863 0.5490 0.0000
0.1490 0.5529 0.0000
0.2667 0.5529 0.0000
0.4078 0.5529 0.0039
0.5137 0.5451 0.0039
0.5843 0.5490 0.0039
0.6431 0.5490 0.0000
0.7098 0.5490 0.0000
0.7647 0.5490 0.0000
0.0824 0.6235 0.0039
0.1529 0.6235 0.0000
0.2824 0.6275 0.0000
0.4118 0.6235 0.0039
0.5176 0.6275 0.0000
0.5843 0.6235 0.0000
0.6471 0.6235 0.0000
0.7098 0.6196 0.0000
0.7569 0.6235 0.0000
0.0863 0.7098 0.0000
0.1490 0.7059 0.0000
0.2824 0.7098 0.0078
0.4118 0.7059 0.0039
0.5137 0.7059 0.0000
0.5882 0.7059 0.0000
0.6510 0.7098 0.0000
0.7098 0.7059 0.0039
0.7647 0.7059 0.0000
0.0863 0.7961 0.0039
0.1569 0.7961 0.0000
0.2784 0.7922 0.0000
0.4118 0.7961 0.0078
0.5137 0.7922 0.0000
0.5882 0.7961 0.0039
0.6471 0.7922 0.0000
0.7059 0.7922 0.0000
0.7647 0.7961 0.0000
0.0824 0.8745 0.0039
0.1608 0.8745 0.0000
0.2784 0.8745 0.0039
0.4196 0.8745 0.0000
0.5137 0.8745 0.0000
0.5843 0.8745 0.0000
0.6471 0.8745 0.0000
0.7098 0.8745 0.0039
0.7647 0.8745 0.0000
0.0863 0.0431 0.0275
0.1608 0.0392 0.0275
0.2745 0.0431 0.0196
0.4235 0.0431 0.0196
0.5098 0.0431 0.0196
0.5843 0.0392 0.0235
0.6471 0.0392 0.0235
0.7059 0.0431 0.0235
0.7608 0.0392 0.0235
0.0824 0.1412 0.0196
0.1529 0.1412 0.0196
0.2784 0.1412 0.0235
0.4118 0.1412 0.0196
0.5137 0.1412 0.0235
0.5882 0.1451 0.0275
0.6471 0.1412 0.0196
0.7098 0.1412 0.0275
0.7608 0.1412 0.0196
0.0824 0.3216 0.0196
0.1608 0.3333 0.0235
0.2784 0.3216 0.0235
0.4235 0.3333 0.0275
0.5137 0.3294 0.0235
0.5882 0.3294 0.0235
0.6431 0.3333 0.0235
0.7098 0.3373 0.0235
0.7647 0.3333 0.0196
0.0863 0.4667 0.0235
0.1569 0.4627 0.0235
0.2784 0.4627 0.0235
0.4118 0.4588 0.0196
0.5137 0.4627 0.0235
0.5882 0.4627 0.0275
0.6471 0.4588 0.0235
0.7098 0.4627 0.0196
0.7647 0.4627 0.0235
0.0863 0.5451 0.0235
0.1529 0.5529 0.0235
0.2745 0.5490 0.0275
0.4196 0.5529 0.0235
0.5098 0.5490 0.0275
0.5882 0.5490 0.0235
0.6431 0.5490 0.0235
0.7059 0.5490 0.0235
0.7647 0.5451 0.0235
0.0863 0.6235 0.0275
0.1569 0.6235 0.0196
0.2745 0.6235 0.0196
0.4235 0.6235 0.0235
0.5098 0.6235 0.0196
0.5843 0.6275 0.0235
0.6431 0.6235 0.0196
0.7059 0.6235 0.0235
0.7647 0.6235 0.0235
0.0902 0.7098 0.0235
0.1529 0.7137 0.0235
0.2745 0.7059 0.0235
0.4078 0.7098 0.0196
0.5137 0.7098 0.0235
0.5922 0.7098 0.0275
0.6431 0.7098 0.0196
0.7098 0.7098 0.0196
0.7647 0.7098 0.0235
0.0863 0.7922 0.0235
0.1608 0.7961 0.0235
0.2784 0.7961 0.0235
0.4275 0.7922 0.0275
0.5137 0.7961 0.0275
0.5922 0.7961 0.0235
0.6471 0.7961 0.0235
0.7098 0.7961 0.0235
0.7608 0.7961 0.0235
0.0863 0.8745 0.0196
0.1529 0.8745 0.0235
0.2745 0.8745 0.0235
0.4118 0.8784 0.0235
0.5098 0.8745 0.0235
0.5882 0.8745 0.0196
0.6471 0.8784 0.0235
0.7059 0.8745 0.0196
0.7647 0.8706 0.0235
0.0863 0.0431 0.2118
0.1529 0.0392 0.2275
0.2784 0.0392 0.2118
0.4118 0.0392 0.2118
0.5137 0.0392 0.2157
0.5882 0.0431 0.2078
0.6510 0.0392 0.2235
0.7098 0.0392 0.2118
0.7647 0.0392 0.2196
0.0902 0.1412 0.2078
0.1569 0.1451 0.2118
0.2706 0.1412 0.2157
0.4118 0.1412 0.2118
0.5098 0.1412 0.2118
0.5882 0.1490 0.2118
0.6471 0.1451 0.2196
0.7137 0.1412 0.2235
0.7686 0.1373 0.2078
0.0863 0.3333 0.2118
0.1569 0.3333 0.2118
0.2784 0.3294 0.2118
0.4118 0.3333 0.2275
0.5137 0.3294 0.2118
0.5882 0.3333 0.2235
0.6471 0.3294 0.2118
0.7137 0.3333 0.2078
0.7608 0.3216 0.2118
0.0863 0.4627 0.2118
0.1490 0.4549 0.2118
0.2824 0.4627 0.2118
0.4118 0.4588 0.2157
0.5098 0.4667 0.2235
0.5843 0.4588 0.2118
0.6510 0.4627 0.2118
0.7137 0.4627 0.2118
0.7647 0.4588 0.2118
0.0863 0.5490 0.2118
0.1490 0.5490 0.2118
0.2784 0.5490 0.2235
0.4118 0.5529 0.2118
0.5137 0.5529 0.2157
0.5804 0.5529 0.2078
0.6471 0.5529 0.2157
0.7059 0.5490 0.2078
0.7647 0.5490 0.2196
0.0863 0.6235 0.2157
0.1490 0.6235 0.2196
0.2824 0.6235 0.2118
0.4157 0.6235 0.2157
0.5176 0.6235 0.2118
0.5882 0.6235 0.2118
0.6431 0.6235 0.2235
0.7137 0.6235 0.2157
0.7608 0.6196 0.2196
0.0863 0.7098 0.2078
0.1529 0.7137 0.2118
0.2706 0.7098 0.2235
0.4118 0.7137 0.2118
0.5137 0.7137 0.2157
0.5882 0.7176 0.2078
0.6471 0.7137 0.2118
0.7098 0.7098 0.2235
0.7647 0.7098 0.2118
0.0824 0.7961 0.2275
0.1529 0.7961 0.2118
0.2784 0.7961 0.2157
0.4157 0.7961 0.2235
0.5098 0.7922 0.2118
0.5882 0.8000 0.2275
0.6471 0.7961 0.2157
0.7059 0.7961 0.2078
0.7647 0.7922 0.2118
0.0824 0.8745 0.2196
0.1490 0.8745 0.2078
0.2745 0.8745 0.2118
0.4118 0.8745 0.2118
0.5098 0.8745 0.2157
0.5882 0.8745 0.2196
0.6471 0.8745 0.2078
0.7059 0.8745 0.2196
0.7647 0.8745 0.2157
0.0863 0.0392 0.4235
0.1490 0.0353 0.4275
0.2784 0.0353 0.4235
0.4118 0.0431 0.4235
0.5137 0.0353 0.4235
0.5882 0.0392 0.4196
0.6510 0.0392 0.4275
0.7098 0.0353 0.4196
0.7647 0.0392 0.4275
0.0863 0.1412 0.4196
0.1529 0.1412 0.4196
0.2824 0.1412 0.4314
0.4157 0.1412 0.4235
0.5176 0.1412 0.4235
0.5882 0.1412 0.4235
0.6510 0.1412 0.4235
0.7137 0.1412 0.4275
0.7647 0.1412 0.4235
0.0824 0.3333 0.4235
0.1569 0.3333 0.4235
0.2784 0.3373 0.4275
0.4235 0.3294 0.4235
0.5137 0.3373 0.4196
0.5843 0.3333 0.4275
0.6471 0.3373 0.4235
0.7059 0.3333 0.4196
0.7686 0.3294 0.4235
0.0863 0.4627 0.4196
0.1490 0.4627 0.4196
0.2784 0.4627 0.4235
0.4118 0.4627 0.4235
0.5137 0.4627 0.4275
0.5882 0.4588 0.4235
0.6471 0.4627 0.4314
0.7098 0.4667 0.4235
0.7608 0.4627 0.4235
0.0863 0.5529 0.4275
0.1608 0.5490 0.4275
0.2784 0.5529 0.4196
0.4275 0.5490 0.4235
0.5137 0.5529 0.4196
0.5882 0.5451 0.4275
0.6471 0.5490 0.4235
0.7098 0.5490 0.4235
0.7647 0.5451 0.4235
0.0863 0.6196 0.4235
0.1608 0.6235 0.4196
0.2784 0.6235 0.4235
0.4118 0.6235 0.4275
0.5137 0.6235 0.4235
0.5882 0.6196 0.4196
0.6471 0.6235 0.4196
0.7098 0.6235 0.4275
0.7647 0.6235 0.4196
0.0824 0.7098 0.4196
0.1529 0.7098 0.4196
0.2784 0.7098 0.4314
0.4118 0.7098 0.4196
0.5137 0.7098 0.4235
0.5843 0.7098 0.4196
0.6471 0.7098 0.4235
0.7098 0.7098 0.4275
0.7608 0.7059 0.4235
0.0863 0.7961 0.4235
0.1647 0.7961 0.4275
0.2824 0.7961 0.4275
0.4235 0.7961 0.4275
0.5176 0.7961 0.4275
0.5843 0.7961 0.4275
0.6510 0.7961 0.4235
0.7137 0.7961 0.4235
0.7647 0.7961 0.4235
0.0824 0.8745 0.4235
0.1569 0.8745 0.4235
0.2784 0.8745 0.4235
0.4196 0.8745 0.4235
0.5137 0.8745 0.4275
0.5843 0.8706 0.4235
0.6471 0.8745 0.4235
0.7098 0.8745 0.4275
0.7608 0.8745 0.4235
0.0863 0.0431 0.5529
0.1569 0.0392 0.5569
0.2784 0.0392 0.5490
0.4118 0.0392 0.5490
0.5137 0.0392 0.5529
0.5882 0.0392 0.5529
0.6471 0.0353 0.5569
0.7098 0.0392 0.5569
0.7647 0.0392 0.5529
0.0863 0.1412 0.5529
0.1529 0.1412 0.5529
0.2784 0.1412 0.5529
0.4118 0.1412 0.5569
0.5137 0.1373 0.5569
0.5843 0.1412 0.5490
0.6510 0.1412 0.5569
0.7098 0.1412 0.5529
0.7647 0.1412 0.5529
0.0902 0.3333 0.5569
0.1569 0.3333 0.5490
0.2745 0.3333 0.5490
0.4078 0.3333 0.5529
0.5137 0.3176 0.5490
0.5882 0.3333 0.5529
0.6431 0.3333 0.5569
0.7059 0.3333 0.5529
0.7569 0.3333 0.5529
0.0863 0.4627 0.5569
0.1569 0.4627 0.5529
0.2667 0.4627 0.5529
0.4157 0.4627 0.5569
0.5176 0.4627 0.5529
0.5882 0.4627 0.5529
0.6510 0.4627 0.5569
0.7098 0.4588 0.5529
0.7647 0.4627 0.5490
0.0863 0.5490 0.5569
0.1490 0.5490 0.5569
0.2745 0.5490 0.5490
0.4118 0.5529 0.5529
0.5098 0.5490 0.5529
0.5882 0.5490 0.5529
0.6471 0.5529 0.5529
0.7059 0.5490 0.5529
0.7608 0.5451 0.5529
0.0863 0.6235 0.5529
0.1490 0.6235 0.5569
0.2784 0.6275 0.5569
0.4118 0.6275 0.5529
0.5137 0.6275 0.5569
0.5882 0.6235 0.5569
0.6471 0.6275 0.5529
0.7098 0.6275 0.5529
0.7647 0.6235 0.5529
0.0863 0.7098 0.5529
0.1529 0.7098 0.5529
0.2706 0.7098 0.5529
0.4118 0.7098 0.5569
0.5137 0.7098 0.5608
0.5882 0.7098 0.5490
0.6471 0.7098 0.5569
0.7059 0.7098 0.5529
0.7608 0.7059 0.5490
0.0902 0.7961 0.5569
0.1569 0.7961 0.5490
0.2745 0.7961 0.5490
0.4118 0.7961 0.5569
0.5137 0.7961 0.5490
0.5922 0.7961 0.5529
0.6471 0.8000 0.5529
0.7098 0.7961 0.5529
0.7569 0.7922 0.5529
0.0824 0.8745 0.5569
0.1490 0.8745 0.5529
0.2784 0.8745 0.5529
0.4118 0.8745 0.5569
0.5137 0.8745 0.5529
0.5843 0.8706 0.5529
0.6471 0.8745 0.5490
0.7098 0.8745 0.5569
0.7608 0.8706 0.5529
0.0863 0.0392 0.6588
0.1490 0.0392 0.6745
0.2784 0.0353 0.6588
0.4118 0.0353 0.6588
0.5137 0.0392 0.6588
0.5882 0.0392 0.6549
0.6471 0.0431 0.6706
0.7098 0.0392 0.6588
0.7608 0.0392 0.6667
0.0863 0.1412 0.6549
0.1647 0.1412 0.6588
0.2824 0.1412 0.6745
0.4235 0.1451 0.6627
0.5137 0.1373 0.6588
0.5843 0.1412 0.6588
0.6510 0.1412 0.6588
0.7137 0.1412 0.6706
0.7647 0.1412 0.6588
0.0902 0.3333 0.6745
0.1569 0.3333 0.6588
0.2745 0.3333 0.6588
0.4118 0.3294 0.6706
0.5098 0.3333 0.6588
0.5882 0.3294 0.6706
0.6431 0.3333 0.6588
0.7059 0.3333 0.6549
0.7686 0.3333 0.6627
0.0863 0.4627 0.6588
0.1490 0.4627 0.6549
0.2784 0.4667 0.6588
0.4118 0.4667 0.6588
0.5137 0.4627 0.6706
0.5882 0.4627 0.6588
0.6471 0.4667 0.6588
0.7098 0.4667 0.6588
0.7647 0.4588 0.6588
0.0863 0.5490 0.6588
0.1608 0.5490 0.6627
0.2745 0.5490 0.6667
0.4275 0.5490 0.6588
0.5137 0.5529 0.6588
0.5843 0.5490 0.6549
0.6471 0.5529 0.6549
0.7059 0.5490 0.6549
0.7608 0.5490 0.6667
0.0863 0.6235 0.6627
0.1490 0.6235 0.6667
0.2784 0.6275 0.6588
0.4118 0.6235 0.6627
0.5137 0.6275 0.6588
0.5882 0.6235 0.6588
0.6471 0.6235 0.6706
0.7098 0.6275 0.6627
0.7608 0.6196 0.6549
0.0902 0.7098 0.6549
0.1569 0.7059 0.6588
0.2745 0.7059 0.6706
0.4275 0.7098 0.6627
0.5098 0.7059 0.6588
0.5882 0.7059 0.6588
0.6431 0.7059 0.6627
0.7098 0.7098 0.6706
0.7686 0.7098 0.6588
0.0863 0.7961 0.6745
0.1647 0.7961 0.6627
0.2824 0.7961 0.6627
0.4235 0.7961 0.6627
0.5137 0.7922 0.6588
0.5882 0.8000 0.6745
0.6510 0.7961 0.6627
0.7098 0.7961 0.6549
0.7647 0.7961 0.6588
0.0863 0.8745 0.6667
0.1529 0.8745 0.6549
0.2745 0.8745 0.6588
0.4118 0.8745 0.6588
0.5137 0.8745 0.6588
0.5843 0.8706 0.6667
0.6471 0.8745 0.6588
0.7098 0.8745 0.6667
0.7647 0.8745 0.6627
0.0824 0.0392 0.7843
0.1490 0.0392 0.7882
0.2627 0.0392 0.7882
0.4078 0.0431 0.7961
0.5137 0.0392 0.7882
0.5882 0.0431 0.7922
0.6471 0.0392 0.7843
0.7098 0.0392 0.7922
0.7608 0.0392 0.7843
0.0902 0.1412 0.7922
0.1529 0.1412 0.7882
0.2784 0.1412 0.7882
0.4078 0.1412 0.7882
0.5137 0.1412 0.7843
0.5843 0.1412 0.7882
0.6471 0.1412 0.7882
0.7098 0.1412 0.7961
0.7647 0.1373 0.7882
0.0863 0.3333 0.7922
0.1647 0.3333 0.7843
0.2824 0.3333 0.7843
0.4157 0.3216 0.7922
0.5176 0.3333 0.7882
0.5882 0.3216 0.7882
0.6471 0.3294 0.7922
0.7098 0.3216 0.7882
0.7647 0.3333 0.7922
0.0863 0.4627 0.7922
0.1569 0.4627 0.7882
0.2667 0.4667 0.7922
0.4157 0.4627 0.7922
0.5137 0.4588 0.7922
0.5882 0.4627 0.7882
0.6510 0.4627 0.7922
0.7098 0.4588 0.7882
0.7647 0.4627 0.7882
0.0863 0.5490 0.7922
0.1608 0.5451 0.7843
0.2784 0.5451 0.7843
0.4235 0.5490 0.7882
0.5137 0.5451 0.7882
0.5882 0.5490 0.7882
0.6471 0.5529 0.7882
0.7098 0.5451 0.7922
0.7569 0.5490 0.7843
0.0863 0.6235 0.7882
0.1647 0.6235 0.7922
0.2667 0.6275 0.7882
0.4157 0.6235 0.7922
0.5137 0.6196 0.7882
0.5882 0.6235 0.7922
0.6510 0.6235 0.7882
0.7098 0.6196 0.7843
0.7647 0.6235 0.7922
0.0824 0.7137 0.7843
0.1529 0.7098 0.7882
0.2784 0.7137 0.7922
0.4118 0.7137 0.7922
0.5098 0.7098 0.7843
0.5882 0.7098 0.7882
0.6431 0.7098 0.7882
0.7059 0.7098 0.7882
0.7608 0.7059 0.7843
0.0902 0.7961 0.7922
0.1569 0.7961 0.7843
0.2745 0.7961 0.7843
0.4118 0.7961 0.7922
0.5137 0.7961 0.7843
0.5922 0.7961 0.7882
0.6431 0.7961 0.7843
0.7098 0.7961 0.7882
0.7686 0.7922 0.7922
0.0863 0.8745 0.7922
0.1490 0.8745 0.7882
0.2745 0.8745 0.7922
0.4118 0.8745 0.7882
0.5137 0.8784 0.7843
0.5882 0.8745 0.7882
0.6431 0.8784 0.7843
0.7098 0.8784 0.7882
0.7608 0.8745 0.7882
0.0863 0.0353 0.9216
0.1490 0.0392 0.9216
0.2784 0.0392 0.9294
0.4118 0.0392 0.9255
0.5137 0.0392 0.9216
0.5922 0.0392 0.9255
0.6471 0.0392 0.9255
0.7098 0.0392 0.9216
0.7647 0.0353 0.9216
0.0863 0.1412 0.9137
0.1529 0.1451 0.9216
0.2745 0.1412 0.9255
0.4235 0.1373 0.9255
0.5137 0.1451 0.9294
0.5804 0.1412 0.9176
0.6471 0.1451 0.9255
0.7098 0.1412 0.9294
0.7686 0.1412 0.9216
0.0824 0.3333 0.9216
0.1529 0.3294 0.9216
0.2784 0.3333 0.9255
0.4118 0.3333 0.9255
0.5137 0.3333 0.9216
0.5882 0.3333 0.9294
0.6471 0.3333 0.9255
0.7098 0.3333 0.9255
0.7608 0.3255 0.9255
0.0863 0.4667 0.9255
0.1569 0.4588 0.9255
0.2784 0.4627 0.9176
0.4196 0.4627 0.9255
0.5137 0.4627 0.9255
0.5843 0.4627 0.9294
0.6471 0.4588 0.9216
0.7098 0.4627 0.9137
0.7647 0.4627 0.9255
0.0863 0.5490 0.9255
0.1608 0.5490 0.9176
0.2784 0.5451 0.9255
0.4196 0.5490 0.9137
0.5137 0.5451 0.9294
0.5843 0.5490 0.9255
0.6471 0.5451 0.9255
0.7098 0.5490 0.9255
0.7647 0.5490 0.9255
0.0863 0.6235 0.9294
0.1529 0.6235 0.9294
0.2784 0.6196 0.9216
0.4157 0.6235 0.9294
0.5137 0.6196 0.9216
0.5882 0.6235 0.9255
0.6510 0.6235 0.9255
0.7098 0.6235 0.9176
0.7647 0.6235 0.9216
0.0863 0.7137 0.9176
0.1569 0.7098 0.9216
0.2627 0.7059 0.9255
0.4235 0.7098 0.9255
0.5137 0.7098 0.9255
0.5843 0.7059 0.9176
0.6471 0.7137 0.9255
0.7098 0.7098 0.9216
0.7647 0.7098 0.9216
0.0902 0.7961 0.9255
0.1529 0.8000 0.9255
0.2745 0.7961 0.9255
0.4078 0.7961 0.9216
0.5098 0.7961 0.9216
0.5882 0.7961 0.9216
0.6431 0.7961 0.9176
0.7059 0.7961 0.9216
0.7647 0.7961 0.9255
0.0863 0.8745 0.9216
0.1529 0.8745 0.9255
0.2784 0.8745 0.9255
0.4157 0.8745 0.9176
0.5137 0.8745 0.9255
0.5843 0.8745 0.9176
0.6471 0.8745 0.9255
0.7098 0.8745 0.9216
0.7608 0.8745 0.9216
0.0863 0.0353 0.9608
0.1529 0.0392 0.9608
0.2667 0.0392 0.9569
0.4118 0.0392 0.9647
0.5098 0.0392 0.9647
0.5882 0.0392 0.9608
0.6431 0.0392 0.9608
0.7098 0.0392 0.9608
0.7647 0.0392 0.9608
0.0863 0.1412 0.9608
0.1529 0.1412 0.9569
0.2745 0.1412 0.9569
0.4157 0.1373 0.9608
0.5098 0.1412 0.9608
0.5882 0.1412 0.9608
0.6471 0.1412 0.9608
0.7059 0.1373 0.9647
0.7569 0.1412 0.9569
0.0863 0.3333 0.9608
0.1569 0.3216 0.9608
0.2784 0.3333 0.9608
0.4118 0.3255 0.9608
0.5137 0.3333 0.9608
0.5843 0.3294 0.9608
0.6471 0.3333 0.9608
0.7098 0.3333 0.9569
0.7647 0.3294 0.9608
0.0902 0.4627 0.9608
0.1529 0.4627 0.9569
0.2745 0.4627 0.9608
0.4118 0.4588 0.9608
0.5098 0.4627 0.9608
0.5843 0.4588 0.9647
0.6431 0.4627 0.9608
0.7059 0.4627 0.9569
0.7686 0.4627 0.9608
0.0863 0.5490 0.9608
0.1569 0.5451 0.9608
0.2784 0.5451 0.9608
0.4196 0.5490 0.9608
0.5098 0.5451 0.9608
0.5843 0.5490 0.9569
0.6471 0.5490 0.9647
0.7098 0.5490 0.9608
0.7608 0.5451 0.9569
0.0824 0.6235 0.9647
0.1529 0.6235 0.9608
0.2667 0.6235 0.9647
0.4118 0.6196 0.9647
0.5137 0.6235 0.9608
0.5843 0.6235 0.9608
0.6431 0.6235 0.9569
0.7098 0.6196 0.9608
0.7608 0.6196 0.9608
0.0863 0.7098 0.9608
0.1490 0.7059 0.9569
0.2784 0.7098 0.9608
0.4157 0.7098 0.9647
0.5137 0.7059 0.9608
0.5882 0.7098 0.9608
0.6471 0.7098 0.9608
0.7098 0.7098 0.9569
0.7529 0.7098 0.9569
0.0863 0.7961 0.9608
0.1569 0.7922 0.9608
0.2784 0.7922 0.9608
0.4157 0.7922 0.9608
0.5137 0.7922 0.9608
0.5882 0.7961 0.9569
0.6471 0.7922 0.9647
0.7098 0.7922 0.9569
0.7647 0.7922 0.9608
0.0863 0.8745 0.9608
0.1529 0.8745 0.9569
0.2745 0.8745 0.9608
0.4196 0.8745 0.9647
0.5137 0.8706 0.9608
0.5843 0.8745 0.9569
0.6471 0.8745 0.9608
0.7098 0.8745 0.9569
0.7569 0.8745 0.9608
