code/data/lut/26新日系.cube
#Generated by Picture Instruments - Look Converter
LUT_3D_SIZE 17
0.0863 0.0353 0.0000
0.1176 0.0392 0.0039
0.1529 0.0392 0.0078
0.2078 0.0392 0.0039
0.2745 0.0392 0.0000
0.3529 0.0392 0.0000
0.4078 0.0392 0.0000
0.4667 0.0392 0.0000
0.5137 0.0392 0.0039
0.5412 0.0392 0.0000
0.5922 0.0392 0.0000
0.6196 0.0392 0.0000
0.6431 0.0392 0.0000
0.6784 0.0431 0.0000
0.7098 0.0392 0.0000
0.7373 0.0392 0.0000
0.7569 0.0392 0.0000
0.0824 0.0706 0.0000
0.1059 0.0745 0.0000
0.1529 0.0706 0.0000
0.2118 0.0706 0.0078
0.2706 0.0706 0.0000
0.3569 0.0706 0.0039
0.4196 0.0706 0.0000
0.4745 0.0706 0.0000
0.5137 0.0706 0.0000
0.5451 0.0706 0.0000
0.5843 0.0706 0.0000
0.6235 0.0706 0.0000
0.6471 0.0706 0.0000
0.6784 0.0706 0.0000
0.7098 0.0706 0.0000
0.7373 0.0745 0.0000
0.7608 0.0706 0.0000
0.0863 0.1412 0.0000
0.1176 0.1412 0.0078
0.1529 0.1451 0.0000
0.2039 0.1412 0.0000
0.2745 0.1412 0.0039
0.3529 0.1412 0.0000
0.4196 0.1373 0.0000
0.4784 0.1412 0.0000
0.5098 0.1412 0.0000
0.5490 0.1412 0.0000
0.5882 0.1412 0.0000
0.6235 0.1451 0.0000
0.6431 0.1412 0.0000
0.6784 0.1412 0.0000
0.7059 0.1412 0.0039
0.7373 0.1412 0.0039
0.7647 0.1412 0.0000
0.0863 0.2431 0.0000
0.1176 0.2431 0.0000
0.1490 0.2431 0.0000
0.2157 0.2392 0.0000
0.2824 0.2431 0.0000
0.3569 0.2431 0.0078
0.4157 0.2431 0.0039
0.4784 0.2431 0.0000
0.5137 0.2431 0.0039
0.5490 0.2431 0.0000
0.5882 0.2431 0.0000
0.6275 0.2431 0.0039
0.6471 0.2471 0.0039
0.6824 0.2431 0.0000
0.7137 0.2431 0.0039
0.7373 0.2431 0.0039
0.7569 0.2431 0.0000
0.0863 0.3373 0.0000
0.1059 0.3333 0.0000
0.1569 0.3333 0.0000
0.2078 0.3333 0.0000
0.2784 0.3333 0.0000
0.3569 0.3373 0.0000
0.4196 0.3333 0.0000
0.4745 0.3333 0.0000
0.5137 0.3333 0.0000
0.5451 0.3333 0.0039
0.5843 0.3294 0.0000
0.6235 0.3333 0.0000
0.6471 0.3333 0.0000
0.6824 0.3333 0.0039
0.7098 0.3373 0.0000
0.7333 0.3333 0.0000
0.7647 0.3333 0.0000
0.0863 0.4078 0.0000
0.1176 0.4078 0.0039
0.1647 0.4118 0.0000
0.2039 0.4039 0.0000
0.2745 0.4078 0.0000
0.3608 0.4118 0.0000
0.4196 0.4078 0.0000
0.4706 0.4118 0.0039
0.5137 0.4078 0.0000
0.5451 0.4078 0.0000
0.5843 0.4118 0.0000
0.6196 0.4078 0.0039
0.6471 0.4039 0.0000
0.6784 0.4078 0.0000
0.7059 0.4157 0.0039
0.7412 0.4078 0.0000
0.7647 0.4078 0.0000
0.0902 0.4627 0.0000
0.1176 0.4588 0.0000
0.1529 0.4627 0.0000
0.2157 0.4627 0.0039
0.2745 0.4627 0.0000
0.3608 0.4588 0.0000
0.4118 0.4627 0.0000
0.4824 0.4627 0.0000
0.5137 0.4667 0.0039
0.5451 0.4549 0.0000
0.5882 0.4588 0.0039
0.6235 0.4627 0.0039
0.6471 0.4627 0.0078
0.6784 0.4588 0.0000
0.7059 0.4627 0.0000
0.7373 0.4588 0.0000
0.7686 0.4588 0.0000
0.0902 0.5098 0.0000
0.1137 0.5098 0.0000
0.1529 0.5098 0.0000
0.2078 0.5098 0.0000
0.2784 0.5098 0.0039
0.3569 0.5137 0.0000
0.4157 0.5098 0.0000
0.4824 0.5098 0.0000
0.5098 0.5098 0.0000
0.5451 0.5098 0.0039
0.5843 0.5098 0.0039
0.6235 0.5098 0.0000
0.6471 0.5098 0.0039
0.6784 0.5098 0.0000
0.7059 0.5098 0.0000
0.7373 0.5098 0.0000
0.7686 0.5098 0.0000
0.0863 0.5490 0.0000
0.1137 0.5490 0.0039
0.1490 0.5529 0.0000
0.2039 0.5490 0.0039
0.2667 0.5529 0.0000
0.3569 0.5490 0.0000
0.4078 0.5529 0.0039
0.4784 0.5529 0.0000
0.5137 0.5451 0.0039
0.5451 0.5490 0.0000
0.5843 0.5490 0.0039
0.6235 0.5490 0.0039
0.6431 0.5490 0.0000
0.6784 0.5490 0.0000
0.7098 0.5490 0.0000
0.7333 0.5490 0.0000
0.7647 0.5490 0.0000
0.0824 0.5804 0.0000
0.1176 0.5804 0.0000
0.1529 0.5843 0.0000
0.2157 0.5843 0.0000
0.2784 0.5843 0.0039
0.3569 0.5804 0.0039
0.4118 0.5843 0.0000
0.4824 0.5843 0.0000
0.5137 0.5843 0.0039
0.5490 0.5804 0.0000
0.5882 0.5843 0.0000
0.6235 0.5843 0.0000
0.6471 0.5843 0.0039
0.6784 0.5843 0.0000
0.7098 0.5804 0.0039
0.7373 0.5804 0.0000
0.7647 0.5804 0.0000
0.0824 0.6235 0.0039
0.1137 0.6235 0.0000
0.1529 0.6235 0.0000
0.2078 0.6235 0.0000
0.2824 0.6275 0.0000
0.3608 0.6235 0.0039
0.4118 0.6235 0.0039
0.4784 0.6235 0.0039
0.5176 0.6275 0.0000
0.5451 0.6235 0.0000
0.5843 0.6235 0.0000
0.6235 0.6235 0.0000
0.6471 0.6235 0.0000
0.6784 0.6235 0.0000
0.7098 0.6196 0.0000
0.7373 0.6275 0.0039
0.7569 0.6235 0.0000
0.0863 0.6549 0.0000
0.1098 0.6588 0.0039
0.1490 0.6588 0.0000
0.2078 0.6588 0.0078
0.2745 0.6627 0.0000
0.3569 0.6588 0.0000
0.4118 0.6588 0.0039
0.4784 0.6588 0.0000
0.5137 0.6667 0.0039
0.5451 0.6588 0.0000
0.5843 0.6588 0.0000
0.6235 0.6588 0.0039
0.6431 0.6667 0.0000
0.6745 0.6667 0.0000
0.7098 0.6588 0.0039
0.7412 0.6588 0.0039
0.7647 0.6549 0.0000
0.0863 0.7098 0.0000
0.1137 0.7059 0.0000
0.1490 0.7059 0.0000
0.2078 0.7098 0.0000
0.2824 0.7098 0.0078
0.3608 0.7098 0.0039
0.4118 0.7059 0.0039
0.4784 0.7059 0.0000
0.5137 0.7059 0.0000
0.5490 0.7098 0.0000
0.5882 0.7059 0.0000
0.6235 0.7059 0.0039
0.6510 0.7098 0.0000
0.6784 0.7098 0.0000
0.7098 0.7059 0.0039
0.7412 0.7059 0.0039
0.7647 0.7059 0.0000
0.0863 0.7490 0.0000
0.1176 0.7490 0.0039
0.1490 0.7490 0.0078
0.2118 0.7490 0.0000
0.2784 0.7451 0.0000
0.3529 0.7490 0.0039
0.4157 0.7490 0.0000
0.4706 0.7490 0.0000
0.5098 0.7451 0.0000
0.5490 0.7490 0.0000
0.5882 0.7490 0.0000
0.6275 0.7490 0.0039
0.6471 0.7490 0.0000
0.6824 0.7490 0.0039
0.7098 0.7451 0.0000
0.7373 0.7451 0.0039
0.7569 0.7451 0.0000
0.0863 0.7961 0.0039
0.1098 0.7961 0.0000
0.1569 0.7961 0.0000
0.2039 0.7961 0.0000
0.2784 0.7922 0.0000
0.3569 0.7922 0.0000
0.4118 0.7961 0.0078
0.4784 0.7961 0.0000
0.5137 0.7922 0.0000
0.5451 0.7961 0.0039
0.5882 0.7961 0.0039
0.6275 0.7961 0.0000
0.6471 0.7922 0.0000
0.6745 0.7961 0.0039
0.7059 0.7922 0.0000
0.7373 0.7961 0.0000
0.7647 0.7961 0.0000
0.0824 0.8392 0.0039
0.1176 0.8392 0.0000
0.1569 0.8431 0.0000
0.2039 0.8431 0.0000
0.2745 0.8431 0.0039
0.3529 0.8392 0.0000
0.4196 0.8392 0.0000
0.4745 0.8392 0.0000
0.5098 0.8392 0.0000
0.5451 0.8431 0.0000
0.5843 0.8392 0.0000
0.6235 0.8471 0.0000
0.6471 0.8392 0.0000
0.6745 0.8431 0.0039
0.7059 0.8431 0.0039
0.7373 0.8431 0.0000
0.7647 0.8431 0.0000
0.0824 0.8745 0.0039
0.1137 0.8745 0.0000
0.1608 0.8745 0.0000
0.2039 0.8706 0.0000
0.2784 0.8745 0.0039
0.3569 0.8745 0.0000
0.4196 0.8745 0.0000
0.4745 0.8745 0.0000
0.5137 0.8745 0.0000
0.5451 0.8745 0.0000
0.5843 0.8745 0.0000
0.6235 0.8745 0.0000
0.6471 0.8745 0.0000
0.6745 0.8706 0.0000
0.7098 0.8745 0.0039
0.7373 0.8745 0.0000
0.7647 0.8745 0.0000
0.0902 0.0392 0.0039
0.1176 0.0392 0.0039
0.1529 0.0392 0.0078
0.2078 0.0392 0.0039
0.2745 0.0392 0.0000
0.3529 0.0392 0.0039
0.4196 0.0392 0.0000
0.4784 0.0353 0.0039
0.5137 0.0392 0.0039
0.5529 0.0392 0.0078
0.5922 0.0392 0.0039
0.6235 0.0431 0.0039
0.6431 0.0392 0.0000
0.6784 0.0392 0.0039
0.7098 0.0392 0.0078
0.7373 0.0392 0.0078
0.7686 0.0392 0.0039
0.0824 0.0706 0.0039
0.1176 0.0745 0.0039
0.1529 0.0706 0.0039
0.2118 0.0706 0.0078
0.2784 0.0706 0.0078
0.3569 0.0706 0.0039
0.4118 0.0706 0.0039
0.4745 0.0706 0.0039
0.5098 0.0706 0.0000
0.5451 0.0706 0.0039
0.5882 0.0745 0.0039
0.6235 0.0706 0.0039
0.6471 0.0706 0.0078
0.6784 0.0627 0.0039
0.7098 0.0706 0.0039
0.7373 0.0706 0.0039
0.7569 0.0706 0.0039
0.0824 0.1451 0.0039
0.1137 0.1412 0.0078
0.1608 0.1451 0.0078
0.2039 0.1412 0.0078
0.2784 0.1451 0.0078
0.3529 0.1412 0.0000
0.4275 0.1412 0.0039
0.4784 0.1412 0.0039
0.5098 0.1412 0.0000
0.5451 0.1412 0.0039
0.5843 0.1451 0.0000
0.6235 0.1412 0.0078
0.6471 0.1451 0.0078
0.6824 0.1451 0.0039
0.7059 0.1412 0.0078
0.7373 0.1373 0.0039
0.7647 0.1373 0.0039
0.0863 0.2431 0.0000
0.1176 0.2392 0.0039
0.1608 0.2431 0.0118
0.2078 0.2275 0.0000
0.2784 0.2471 0.0039
0.3569 0.2431 0.0078
0.4235 0.2431 0.0078
0.4706 0.2353 0.0039
0.5098 0.2275 0.0078
0.5490 0.2431 0.0000
0.5882 0.2392 0.0039
0.6196 0.2431 0.0039
0.6431 0.2275 0.0000
0.6745 0.2431 0.0039
0.7098 0.2471 0.0039
0.7373 0.2431 0.0118
0.7647 0.2431 0.0039
0.0902 0.3216 0.0078
0.1176 0.3333 0.0039
0.1569 0.3333 0.0078
0.2078 0.3333 0.0078
0.2745 0.3294 0.0000
0.3569 0.3333 0.0039
0.4157 0.3333 0.0078
0.4745 0.3333 0.0039
0.5137 0.3333 0.0000
0.5490 0.3333 0.0078
0.5882 0.3333 0.0039
0.6275 0.3333 0.0078
0.6471 0.3294 0.0078
0.6824 0.3333 0.0118
0.7098 0.3333 0.0039
0.7333 0.3333 0.0039
0.7647 0.3333 0.0039
0.0863 0.4039 0.0039
0.1216 0.4039 0.0118
0.1569 0.4118 0.0039
0.2078 0.4157 0.0078
0.2745 0.4118 0.0039
0.3529 0.4118 0.0000
0.4118 0.4039 0.0039
0.4784 0.4118 0.0039
0.5098 0.4118 0.0078
0.5412 0.4118 0.0000
0.5882 0.4078 0.0039
0.6196 0.4118 0.0039
0.6431 0.4118 0.0039
0.6745 0.4118 0.0039
0.7059 0.4118 0.0118
0.7373 0.4039 0.0039
0.7647 0.4039 0.0039
0.0902 0.4627 0.0078
0.1137 0.4627 0.0078
0.1569 0.4627 0.0039
0.2118 0.4627 0.0039
0.2706 0.4588 0.0039
0.3529 0.4588 0.0000
0.4275 0.4627 0.0039
0.4706 0.4588 0.0000
0.5137 0.4627 0.0078
0.5412 0.4588 0.0000
0.5843 0.4588 0.0039
0.6235 0.4627 0.0078
0.6471 0.4627 0.0078
0.6784 0.4627 0.0039
0.7059 0.4588 0.0039
0.7373 0.4627 0.0078
0.7686 0.4627 0.0000
0.0824 0.5098 0.0039
0.1137 0.5098 0.0000
0.1529 0.5098 0.0039
0.2078 0.5098 0.0000
0.2784 0.5098 0.0039
0.3569 0.5098 0.0039
0.4157 0.5020 0.0039
0.4745 0.5098 0.0039
0.5137 0.5137 0.0039
0.5451 0.5098 0.0039
0.5843 0.5020 0.0039
0.6235 0.5098 0.0078
0.6471 0.5098 0.0078
0.6784 0.5098 0.0078
0.7098 0.5059 0.0039
0.7373 0.5137 0.0078
0.7608 0.5098 0.0000
0.0863 0.5490 0.0078
0.1137 0.5490 0.0039
0.1529 0.5529 0.0039
0.2078 0.5451 0.0039
0.2824 0.5490 0.0039
0.3608 0.5490 0.0078
0.4078 0.5529 0.0039
0.4784 0.5490 0.0078
0.5137 0.5451 0.0039
0.5451 0.5490 0.0078
0.5843 0.5490 0.0039
0.6235 0.5490 0.0078
0.6510 0.5490 0.0039
0.6784 0.5490 0.0039
0.7098 0.5451 0.0039
0.7373 0.5529 0.0039
0.7686 0.5529 0.0039
0.0863 0.5843 0.0000
0.1059 0.5843 0.0078
0.1529 0.5843 0.0078
0.2078 0.5843 0.0000
0.2745 0.5843 0.0078
0.3569 0.5843 0.0078
0.4275 0.5843 0.0039
0.4824 0.5804 0.0078
0.5137 0.5843 0.0118
0.5451 0.5843 0.0039
0.5843 0.5843 0.0039
0.6235 0.5843 0.0078
0.6471 0.5843 0.0039
0.6784 0.5843 0.0039
0.7098 0.5843 0.0078
0.7412 0.5843 0.0000
0.7647 0.5843 0.0000
0.0824 0.6235 0.0039
0.1137 0.6235 0.0039
0.1529 0.6235 0.0000
0.2078 0.6235 0.0039
0.2824 0.6235 0.0078
0.3608 0.6235 0.0039
0.4196 0.6235 0.0039
0.4784 0.6235 0.0039
0.5176 0.6235 0.0078
0.5451 0.6235 0.0078
0.5843 0.6235 0.0078
0.6235 0.6235 0.0039
0.6471 0.6235 0.0039
0.6784 0.6235 0.0039
0.7137 0.6235 0.0039
0.7373 0.6235 0.0039
0.7608 0.6235 0.0039
0.0863 0.6549 0.0000
0.1216 0.6588 0.0078
0.1490 0.6588 0.0000
0.2039 0.6549 0.0039
0.2784 0.6588 0.0039
0.3569 0.6588 0.0000
0.4118 0.6588 0.0039
0.4745 0.6588 0.0078
0.5137 0.6588 0.0078
0.5451 0.6588 0.0000
0.5882 0.6627 0.0078
0.6235 0.6588 0.0039
0.6431 0.6627 0.0000
0.6745 0.6549 0.0039
0.7098 0.6588 0.0039
0.7412 0.6588 0.0039
0.7608 0.6549 0.0039
0.0863 0.7098 0.0039
0.1098 0.7098 0.0078
0.1647 0.7098 0.0078
0.2078 0.7059 0.0078
0.2824 0.7098 0.0078
0.3569 0.7098 0.0039
0.4235 0.7137 0.0039
0.4784 0.7098 0.0039
0.5176 0.7098 0.0078
0.5451 0.7176 0.0078
0.5882 0.7098 0.0000
0.6275 0.7098 0.0078
0.6510 0.7098 0.0078
0.6784 0.7137 0.0039
0.7098 0.7098 0.0039
0.7373 0.7098 0.0078
0.7647 0.7098 0.0000
0.0863 0.7490 0.0078
0.1176 0.7490 0.0039
0.1569 0.7490 0.0078
0.2039 0.7490 0.0000
0.2745 0.7490 0.0000
0.3569 0.7529 0.0078
0.4275 0.7490 0.0118
0.4784 0.7490 0.0078
0.5098 0.7490 0.0078
0.5490 0.7490 0.0078
0.5882 0.7490 0.0039
0.6235 0.7529 0.0039
0.6471 0.7529 0.0039
0.6745 0.7490 0.0039
0.7059 0.7490 0.0039
0.7412 0.7490 0.0078
0.7647 0.7490 0.0039
0.0863 0.7961 0.0078
0.1176 0.7961 0.0000
0.1490 0.7961 0.0078
0.2039 0.7961 0.0078
0.2784 0.8000 0.0078
0.3529 0.7961 0.0039
0.4118 0.7961 0.0078
0.4784 0.7961 0.0078
0.5098 0.7961 0.0000
0.5451 0.7961 0.0078
0.5882 0.7961 0.0039
0.6235 0.8000 0.0000
0.6471 0.8000 0.0039
0.6745 0.7961 0.0078
0.7059 0.7961 0.0039
0.7373 0.7922 0.0039
0.7608 0.7922 0.0039
0.0824 0.8392 0.0039
0.1137 0.8392 0.0078
0.1608 0.8471 0.0039
0.2039 0.8431 0.0000
0.2784 0.8431 0.0118
0.3569 0.8392 0.0039
0.4275 0.8431 0.0039
0.4784 0.8431 0.0078
0.5098 0.8431 0.0000
0.5451 0.8431 0.0039
0.5843 0.8431 0.0039
0.6235 0.8471 0.0000
0.6471 0.8471 0.0039
0.6745 0.8431 0.0039
0.7098 0.8471 0.0078
0.7373 0.8392 0.0039
0.7647 0.8392 0.0039
0.0824 0.8745 0.0039
0.1137 0.8784 0.0039
0.1529 0.8706 0.0039
0.2039 0.8706 0.0000
0.2784 0.8745 0.0078
0.3569 0.8745 0.0039
0.4157 0.8745 0.0039
0.4784 0.8745 0.0039
0.5137 0.8745 0.0000
0.5451 0.8745 0.0039
0.5843 0.8745 0.0039
0.6235 0.8745 0.0000
0.6471 0.8745 0.0000
0.6745 0.8706 0.0000
0.7098 0.8745 0.0078
0.7373 0.8745 0.0039
0.7647 0.8745 0.0039
0.0863 0.0431 0.0275
0.1098 0.0392 0.0235
0.1608 0.0392 0.0275
0.2000 0.0392 0.0235
0.2745 0.0431 0.0196
0.3529 0.0431 0.0235
0.4235 0.0431 0.0196
0.4784 0.0392 0.0235
0.5098 0.0431 0.0196
0.5451 0.0392 0.0196
0.5843 0.0392 0.0235
0.6235 0.0392 0.0235
0.6471 0.0392 0.0235
0.6784 0.0392 0.0196
0.7059 0.0431 0.0235
0.7373 0.0392 0.0235
0.7608 0.0392 0.0235
0.0863 0.0706 0.0235
0.1176 0.0706 0.0235
0.1608 0.0745 0.0235
0.2078 0.0588 0.0235
0.2745 0.0706 0.0196
0.3529 0.0706 0.0235
0.4235 0.0706 0.0275
0.4706 0.0667 0.0196
0.5098 0.0706 0.0235
0.5451 0.0706 0.0275
0.5882 0.0706 0.0235
0.6235 0.0745 0.0235
0.6471 0.0706 0.0235
0.6784 0.0588 0.0235
0.7059 0.0706 0.0196
0.7412 0.0745 0.0235
0.7569 0.0706 0.0196
0.0824 0.1412 0.0196
0.1176 0.1451 0.0235
0.1529 0.1412 0.0196
0.2078 0.1412 0.0235
0.2784 0.1412 0.0235
0.3569 0.1412 0.0235
0.4118 0.1412 0.0196
0.4745 0.1412 0.0196
0.5137 0.1412 0.0235
0.5451 0.1412 0.0235
0.5882 0.1451 0.0275
0.6235 0.1412 0.0196
0.6471 0.1412 0.0196
0.6824 0.1412 0.0275
0.7098 0.1412 0.0275
0.7333 0.1412 0.0196
0.7608 0.1412 0.0196
0.0902 0.2431 0.0275
0.1176 0.2471 0.0235
0.1608 0.2431 0.0235
0.2078 0.2431 0.0275
0.2784 0.2431 0.0196
0.3569 0.2431 0.0235
0.4118 0.2431 0.0196
0.4824 0.2431 0.0275
0.5137 0.2431 0.0196
0.5451 0.2431 0.0235
0.5882 0.2510 0.0275
0.6235 0.2431 0.0196
0.6471 0.2392 0.0235
0.6784 0.2431 0.0235
0.7137 0.2471 0.0275
0.7373 0.2392 0.0235
0.7686 0.2392 0.0235
0.0824 0.3216 0.0196
0.1216 0.3333 0.0275
0.1608 0.3333 0.0235
0.2118 0.3333 0.0275
0.2784 0.3216 0.0235
0.3569 0.3373 0.0196
0.4235 0.3333 0.0275
0.4706 0.3294 0.0235
0.5137 0.3294 0.0235
0.5412 0.3216 0.0196
0.5882 0.3294 0.0235
0.6196 0.3333 0.0235
0.6431 0.3333 0.0235
0.6824 0.3216 0.0275
0.7098 0.3373 0.0235
0.7373 0.3333 0.0235
0.7647 0.3333 0.0196
0.0902 0.4118 0.0275
0.1137 0.4039 0.0235
0.1529 0.4118 0.0275
0.2078 0.4118 0.0196
0.2784 0.4157 0.0235
0.3569 0.4078 0.0235
0.4118 0.4118 0.0196
0.4824 0.4118 0.0275
0.5098 0.4118 0.0196
0.5451 0.4118 0.0275
0.5882 0.4078 0.0235
0.6235 0.4118 0.0196
0.6471 0.4157 0.0235
0.6784 0.4118 0.0235
0.7059 0.4078 0.0235
0.7412 0.4118 0.0235
0.7647 0.4078 0.0235
0.0863 0.4667 0.0235
0.1176 0.4627 0.0235
0.1569 0.4627 0.0235
0.2000 0.4627 0.0196
0.2784 0.4627 0.0235
0.3569 0.4588 0.0275
0.4118 0.4588 0.0196
0.4745 0.4627 0.0196
0.5137 0.4627 0.0235
0.5490 0.4627 0.0235
0.5882 0.4627 0.0275
0.6235 0.4588 0.0196
0.6471 0.4588 0.0235
0.6824 0.4627 0.0275
0.7098 0.4627 0.0196
0.7373 0.4627 0.0235
0.7647 0.4627 0.0235
0.0863 0.5020 0.0235
0.1137 0.5098 0.0196
0.1608 0.5059 0.0235
0.2118 0.5059 0.0235
0.2745 0.5059 0.0196
0.3529 0.5020 0.0235
0.4235 0.5020 0.0196
0.4706 0.5098 0.0235
0.5137 0.5059 0.0196
0.5490 0.5098 0.0235
0.5882 0.5020 0.0235
0.6275 0.5098 0.0235
0.6471 0.5059 0.0235
0.6784 0.5098 0.0235
0.7059 0.5020 0.0196
0.7412 0.5098 0.0196
0.7647 0.5098 0.0235
0.0863 0.5451 0.0235
0.1176 0.5490 0.0275
0.1529 0.5529 0.0235
0.2078 0.5490 0.0275
0.2745 0.5490 0.0275
0.3529 0.5490 0.0196
0.4196 0.5529 0.0235
0.4745 0.5529 0.0275
0.5098 0.5490 0.0275
0.5412 0.5490 0.0196
0.5882 0.5490 0.0235
0.6235 0.5529 0.0196
0.6431 0.5490 0.0235
0.6784 0.5529 0.0235
0.7059 0.5490 0.0235
0.7373 0.5490 0.0235
0.7647 0.5451 0.0235
0.0863 0.5843 0.0235
0.1176 0.5843 0.0275
0.1569 0.5843 0.0235
0.2078 0.5843 0.0275
0.2784 0.5804 0.0235
0.3569 0.5804 0.0196
0.4157 0.5843 0.0275
0.4784 0.5843 0.0235
0.5137 0.5804 0.0275
0.5490 0.5843 0.0235
0.5882 0.5843 0.0196
0.6275 0.5843 0.0275
0.6471 0.5804 0.0235
0.6824 0.5843 0.0196
0.7098 0.5843 0.0235
0.7333 0.5843 0.0235
0.7647 0.5765 0.0235
0.0863 0.6235 0.0275
0.1098 0.6196 0.0235
0.1569 0.6235 0.0196
0.2078 0.6275 0.0196
0.2745 0.6235 0.0196
0.3529 0.6235 0.0235
0.4235 0.6235 0.0235
0.4784 0.6196 0.0235
0.5098 0.6235 0.0196
0.5451 0.6275 0.0275
0.5843 0.6275 0.0235
0.6235 0.6275 0.0235
0.6431 0.6235 0.0196
0.6784 0.6275 0.0235
0.7059 0.6235 0.0235
0.7373 0.6235 0.0235
0.7647 0.6235 0.0235
0.0863 0.6588 0.0275
0.1137 0.6588 0.0196
0.1608 0.6588 0.0235
0.2078 0.6588 0.0196
0.2824 0.6588 0.0235
0.3608 0.6588 0.0275
0.4235 0.6627 0.0235
0.4706 0.6588 0.0235
0.5137 0.6549 0.0196
0.5490 0.6588 0.0235
0.5882 0.6588 0.0235
0.6275 0.6588 0.0275
0.6510 0.6588 0.0275
0.6784 0.6588 0.0235
0.7098 0.6549 0.0235
0.7451 0.6588 0.0196
0.7647 0.6588 0.0196
0.0902 0.7098 0.0235
0.1176 0.7098 0.0235
0.1529 0.7137 0.0235
0.2078 0.7098 0.0235
0.2745 0.7059 0.0235
0.3569 0.7098 0.0235
0.4078 0.7098 0.0196
0.4784 0.7098 0.0196
0.5137 0.7098 0.0235
0.5412 0.7098 0.0235
0.5922 0.7098 0.0275
0.6196 0.7098 0.0196
0.6431 0.7098 0.0196
0.6784 0.7098 0.0275
0.7098 0.7098 0.0196
0.7373 0.7098 0.0196
0.7647 0.7098 0.0235
0.0902 0.7569 0.0235
0.1137 0.7529 0.0235
0.1608 0.7490 0.0235
0.2039 0.7451 0.0235
0.2784 0.7490 0.0235
0.3569 0.7490 0.0196
0.4118 0.7529 0.0196
0.4784 0.7451 0.0196
0.5137 0.7490 0.0275
0.5451 0.7490 0.0196
0.5922 0.7569 0.0275
0.6235 0.7490 0.0235
0.6471 0.7490 0.0235
0.6784 0.7490 0.0275
0.7098 0.7569 0.0275
0.7373 0.7529 0.0196
0.7647 0.7451 0.0196
0.0863 0.7922 0.0235
0.1216 0.7961 0.0275
0.1608 0.7961 0.0235
0.2118 0.7961 0.0196
0.2784 0.7961 0.0235
0.3569 0.7961 0.0196
0.4275 0.7922 0.0275
0.4745 0.7961 0.0275
0.5137 0.7961 0.0275
0.5451 0.7961 0.0196
0.5922 0.7961 0.0235
0.6235 0.7961 0.0235
0.6471 0.7961 0.0235
0.6784 0.7961 0.0275
0.7098 0.7961 0.0235
0.7412 0.7961 0.0235
0.7608 0.7961 0.0235
0.0824 0.8431 0.0196
0.1137 0.8431 0.0275
0.1529 0.8471 0.0235
0.2078 0.8431 0.0275
0.2784 0.8431 0.0235
0.3569 0.8431 0.0196
0.4118 0.8431 0.0235
0.4745 0.8431 0.0196
0.5137 0.8431 0.0275
0.5490 0.8471 0.0235
0.5882 0.8392 0.0196
0.6235 0.8431 0.0235
0.6471 0.8431 0.0235
0.6784 0.8431 0.0275
0.7059 0.8392 0.0235
0.7333 0.8431 0.0235
0.7608 0.8392 0.0235
0.0863 0.8745 0.0196
0.1137 0.8745 0.0235
0.1529 0.8745 0.0235
0.2118 0.8745 0.0275
0.2745 0.8745 0.0235
0.3529 0.8745 0.0196
0.4118 0.8784 0.0235
0.4706 0.8745 0.0235
0.5098 0.8745 0.0235
0.5451 0.8784 0.0235
0.5882 0.8745 0.0196
0.6235 0.8745 0.0235
0.6471 0.8784 0.0235
0.6784 0.8745 0.0275
0.7059 0.8745 0.0196
0.7333 0.8706 0.0196
0.7647 0.8706 0.0235
0.0863 0.0392 0.0863
0.1176 0.0392 0.0824
0.1490 0.0392 0.0941
0.2078 0.0392 0.0784
0.2784 0.0431 0.0824
0.3569 0.0353 0.0784
0.4157 0.0392 0.0824
0.4784 0.0392 0.0863
0.5137 0.0353 0.0784
0.5412 0.0392 0.0863
0.5882 0.0392 0.0824
0.6275 0.0392 0.0824
0.6471 0.0431 0.0902
0.6745 0.0392 0.0902
0.7098 0.0392 0.0745
0.7333 0.0392 0.0824
0.7647 0.0392 0.0824
0.0902 0.0706 0.0941
0.1176 0.0784 0.0824
0.1569 0.0706 0.0784
0.2078 0.0706 0.0863
0.2667 0.0706 0.0824
0.3569 0.0745 0.0863
0.4118 0.0745 0.0824
0.4784 0.0667 0.0824
0.5137 0.0706 0.0784
0.5451 0.0745 0.0784
0.5922 0.0706 0.0902
0.6235 0.0745 0.0863
0.6431 0.0706 0.0745
0.6784 0.0706 0.0863
0.7098 0.0706 0.0824
0.7373 0.0784 0.0784
