code/data/lut/26新日系.cube
#Generated by Picture Instruments - Look Converter
LUT_3D_SIZE 5
0.0863 0.0353 0.0000
0.2745 0.0392 0.0000
0.5137 0.0392 0.0039
0.6431 0.0392 0.0000
0.7569 0.0392 0.0000
0.0863 0.3373 0.0000
0.2784 0.3333 0.0000
0.5137 0.3333 0.0000
0.6471 0.3333 0.0000
0.7647 0.3333 0.0000
0.0863 0.5490 0.0000
0.2667 0.5529 0.0000
0.5137 0.5451 0.0039
0.6431 0.5490 0.0000
0.7647 0.5490 0.0000
0.0863 0.7098 0.0000
0.2824 0.7098 0.0078
0.5137 0.7059 0.0000
0.6510 0.7098 0.0000
0.7647 0.7059 0.0000
0.0824 0.8745 0.0039
0.2784 0.8745 0.0039
0.5137 0.8745 0.0000
0.6471 0.8745 0.0000
0.7647 0.8745 0.0000
0.0863 0.0431 0.2118
0.2784 0.0392 0.2118
0.5137 0.0392 0.2157
0.6510 0.0392 0.2235
0.7647 0.0392 0.2196
0.0863 0.3333 0.2118
0.2784 0.3294 0.2118
0.5137 0.3294 0.2118
0.6471 0.3294 0.2118
0.7608 0.3216 0.2118
0.0863 0.5490 0.2118
0.2784 0.5490 0.2235
0.5137 0.5529 0.2157
0.6471 0.5529 0.2157
0.7647 0.5490 0.2196
0.0863 0.7098 0.2078
0.2706 0.7098 0.2235
0.5137 0.7137 0.2157
0.6471 0.7137 0.2118
0.7647 0.7098 0.2118
0.0824 0.8745 0.2196
0.2745 0.8745 0.2118
0.5098 0.8745 0.2157
0.6471 0.8745 0.2078
0.7647 0.8745 0.2157
0.0863 0.0431 0.5529
0.2784 0.0392 0.5490
0.5137 0.0392 0.5529
0.6471 0.0353 0.5569
0.7647 0.0392 0.5529
0.0902 0.3333 0.5569
0.2745 0.3333 0.5490
0.5137 0.3176 0.5490
0.6431 0.3333 0.5569
0.7569 0.3333 0.5529
0.0863 0.5490 0.5569
0.2745 0.5490 0.5490
0.5098 0.5490 0.5529
0.6471 0.5529 0.5529
0.7608 0.5451 0.5529
0.0863 0.7098 0.5529
0.2706 0.7098 0.5529
0.5137 0.7098 0.5608
0.6471 0.7098 0.5569
0.7608 0.7059 0.5490
0.0824 0.8745 0.5569
0.2784 0.8745 0.5529
0.5137 0.8745 0.5529
0.6471 0.8745 0.5490
0.7608 0.8706 0.5529
0.0824 0.0392 0.7843
0.2627 0.0392 0.7882
0.5137 0.0392 0.7882
0.6471 0.0392 0.7843
0.7608 0.0392 0.7843
0.0863 0.3333 0.7922
0.2824 0.3333 0.7843
0.5176 0.3333 0.7882
0.6471 0.3294 0.7922
0.7647 0.3333 0.7922
0.0863 0.5490 0.7922
0.2784 0.5451 0.7843
0.5137 0.5451 0.7882
0.6471 0.5529 0.7882
0.7569 0.5490 0.7843
0.0824 0.7137 0.7843
0.2784 0.7137 0.7922
0.5098 0.7098 0.7843
0.6431 0.7098 0.7882
0.7608 0.7059 0.7843
0.0863 0.8745 0.7922
0.2745 0.8745 0.7922
0.5137 0.8784 0.7843
0.6431 0.8784 0.7843
0.7608 0.8745 0.7882
0.0863 0.0353 0.9608
0.2667 0.0392 0.9569
0.5098 0.0392 0.9647
0.6431 0.0392 0.9608
0.7647 0.0392 0.9608
0.0863 0.3333 0.9608
0.2784 0.3333 0.9608
0.5137 0.3333 0.9608
0.6471 0.3333 0.9608
0.7647 0.3294 0.9608
0.0863 0.5490 0.9608
0.2784 0.5451 0.9608
0.5098 0.5451 0.9608
0.6471 0.5490 0.9647
0.7608 0.5451 0.9569
0.0863 0.7098 0.9608
0.2784 0.7098 0.9608
0.5137 0.7059 0.9608
0.6471 0.7098 0.9608
0.7529 0.7098 0.9569
0.0863 0.8745 0.9608
0.2745 0.8745 0.9608
0.5137 0.8706 0.9608
0.6471 0.8745 0.9608
0.7569 0.8745 0.9608
