code/data/lut/27幸福面包.cube
#Generated by Picture Instruments - Look Converter
LUT_3D_SIZE 5
0.0000 0.0000 0.0000
0.3843 0.0157 0.0039
0.7294 0.0588 0.0078
0.9373 0.1020 0.0157
0.9608 0.1255 0.0157
0.0078 0.3725 0.0078
0.3451 0.3843 0.0039
0.7098 0.4039 0.0000
0.9451 0.3765 0.0000
0.9922 0.3412 0.0000
0.0196 0.6784 0.0157
0.2902 0.6784 0.0000
0.6471 0.6941 0.0000
0.9137 0.6745 0.0235
0.9922 0.6196 0.1412
0.0235 0.8824 0.0235
0.2745 0.8863 0.0000
0.5804 0.8784 0.0000
0.8471 0.8784 0.0275
0.9882 0.8549 0.1765
0.1843 0.9765 0.1647
0.3216 0.9922 0.1608
0.5412 0.9922 0.1686
0.7686 0.9922 0.2078
0.9725 0.9882 0.2510
0.0275 0.0078 0.3569
0.3804 0.0039 0.3529
0.7294 0.0118 0.3294
0.9373 0.0196 0.2980
0.9647 0.1373 0.2902
0.0314 0.3647 0.3176
0.3333 0.3569 0.3216
0.6941 0.3608 0.3137
0.9373 0.3608 0.2941
0.9882 0.3608 0.2980
0.0314 0.6745 0.2706
0.2863 0.6784 0.2824
0.6510 0.6824 0.2863
0.9059 0.6667 0.3490
0.9922 0.6431 0.3647
0.0706 0.8784 0.2824
0.3059 0.8784 0.2980
0.5843 0.8784 0.3020
0.8431 0.8784 0.3412
0.9882 0.8549 0.3882
0.2627 0.9804 0.3490
0.3686 0.9882 0.3490
0.5686 0.9922 0.3608
0.7765 0.9882 0.3765
0.9765 0.9882 0.4118
0.0000 0.0039 0.6824
0.2706 0.0000 0.6784
0.6941 0.0000 0.6824
0.9373 0.0902 0.6431
0.9647 0.1882 0.5765
0.0000 0.3294 0.6196
0.1686 0.2980 0.6353
0.6588 0.3255 0.6510
0.9255 0.3569 0.6118
0.9647 0.3804 0.5765
0.0000 0.6549 0.6275
0.2157 0.6588 0.6275
0.6314 0.6627 0.6353
0.8745 0.6627 0.6353
0.9608 0.6549 0.6235
0.2471 0.8784 0.6196
0.3961 0.8784 0.6235
0.6314 0.8745 0.6353
0.8549 0.8745 0.6471
0.9686 0.8667 0.6745
0.3882 0.9804 0.6353
0.4784 0.9804 0.6314
0.6353 0.9765 0.6314
0.8196 0.9765 0.6392
0.9608 0.9725 0.6627
0.0275 0.0549 0.8667
0.0431 0.0471 0.8667
0.5451 0.0510 0.8745
0.8667 0.1255 0.8824
0.9725 0.2157 0.8392
0.0314 0.2706 0.8627
0.0431 0.2706 0.8627
0.5373 0.3059 0.8784
0.8745 0.3569 0.8706
0.9882 0.3961 0.8431
0.0314 0.5961 0.8431
0.0431 0.5961 0.8471
0.5255 0.6000 0.8588
0.8510 0.6392 0.8588
0.9922 0.6549 0.8431
0.0980 0.8667 0.8431
0.3098 0.8627 0.8510
0.6000 0.8588 0.8510
0.8471 0.8588 0.8588
0.9922 0.8627 0.8588
0.4510 0.9843 0.8314
0.5412 0.9922 0.8314
0.6902 0.9882 0.8392
0.8431 0.9882 0.8471
0.9843 0.9882 0.8588
0.0000 0.0902 0.9922
0.0471 0.0863 0.9843
0.4196 0.0980 0.9882
0.7569 0.1647 0.9882
0.9686 0.2549 0.9725
0.0000 0.2667 0.9882
0.0471 0.2706 0.9922
0.4157 0.2980 0.9882
0.7569 0.3490 0.9882
0.9725 0.4157 0.9804
0.0000 0.5804 0.9922
0.0627 0.5725 0.9922
0.4549 0.5725 0.9882
0.7686 0.6157 0.9882
0.9804 0.6510 0.9843
0.0000 0.8235 0.9882
0.1529 0.8157 0.9882
0.5216 0.8275 0.9882
0.7961 0.8314 0.9882
0.9882 0.8549 0.9843
0.4157 0.9804 0.9804
0.5059 0.9843 0.9804
0.6784 0.9882 0.9843
0.8549 0.9882 0.9922
0.9843 0.9922 0.9882
