code/data/lut/28野餐.cube
#Generated by Picture Instruments - Look Converter
LUT_3D_SIZE 5
0.0471 0.0235 0.0471
0.2039 0.0275 0.0275
0.5608 0.0588 0.0078
0.7529 0.0627 0.0078
0.8824 0.0667 0.0118
0.0353 0.1961 0.0549
0.1843 0.2235 0.0353
0.6196 0.2235 0.0157
0.8314 0.2078 0.0235
0.9569 0.1961 0.0353
0.0431 0.5059 0.0902
0.1059 0.5255 0.0627
0.6157 0.6196 0.0902
0.8745 0.6039 0.0471
0.9922 0.5843 0.0000
0.0667 0.7333 0.1294
0.1176 0.7412 0.1176
0.4941 0.7922 0.1412
0.8353 0.8314 0.1373
0.9922 0.8157 0.1020
0.1216 0.8824 0.1686
0.1647 0.8784 0.1608
0.3922 0.9098 0.1725
0.7451 0.9412 0.2000
0.9686 0.9608 0.1804
0.0431 0.0235 0.2784
0.2196 0.0078 0.2745
0.6039 0.0275 0.2353
0.7843 0.0431 0.2078
0.8980 0.0431 0.1922
0.0510 0.2275 0.2627
0.2000 0.2314 0.2667
0.6078 0.2314 0.2549
0.8275 0.2078 0.2314
0.9569 0.1922 0.2392
0.0549 0.5412 0.3059
0.1843 0.5529 0.3098
0.6314 0.6196 0.2980
0.8980 0.5882 0.2824
0.9922 0.5922 0.3020
0.0706 0.7608 0.3098
0.1686 0.7686 0.3098
0.5059 0.8039 0.3020
0.8549 0.8471 0.2941
0.9882 0.8196 0.2745
0.1255 0.8902 0.2902
0.1961 0.8941 0.2863
0.4314 0.9216 0.2902
0.7725 0.9569 0.3098
0.9843 0.9686 0.2941
0.0000 0.0510 0.5451
0.1922 0.0235 0.5765
0.6235 0.0196 0.5686
0.8118 0.0196 0.5451
0.9216 0.0275 0.5137
0.0118 0.2471 0.5608
0.1882 0.2314 0.5647
0.6353 0.2039 0.5843
0.8510 0.1843 0.5725
0.9529 0.1725 0.5451
0.0275 0.6039 0.6039
0.2353 0.5961 0.5922
0.6314 0.6196 0.6039
0.8471 0.6157 0.5922
0.9608 0.6118 0.5804
0.0431 0.7961 0.6157
0.2118 0.7961 0.6196
0.5843 0.8196 0.6314
0.8510 0.8353 0.6039
0.9647 0.8196 0.6275
0.0980 0.9176 0.6078
0.2118 0.9216 0.6078
0.5608 0.9373 0.6471
0.8157 0.9490 0.6078
0.9608 0.9569 0.6157
0.0314 0.0667 0.6745
0.0902 0.0588 0.7843
0.5804 0.0353 0.7608
0.7922 0.0353 0.7451
0.9255 0.0275 0.7294
0.0353 0.2471 0.7922
0.1333 0.2353 0.8157
0.6196 0.2078 0.8196
0.8667 0.1843 0.8078
0.9804 0.1647 0.7843
0.0392 0.6157 0.8118
0.2275 0.6000 0.8039
0.6275 0.6157 0.8157
0.8588 0.5961 0.8118
0.9843 0.5882 0.7961
0.0431 0.8235 0.8118
0.2353 0.8157 0.8078
0.6275 0.8235 0.8118
0.8431 0.8314 0.8118
0.9843 0.8235 0.7961
0.0824 0.9373 0.7961
0.2314 0.9333 0.8078
0.6039 0.9412 0.8314
0.8314 0.9490 0.8157
0.9882 0.9569 0.8235
0.0000 0.0706 0.7882
0.0471 0.0706 0.9255
0.5412 0.0392 0.9059
0.7765 0.0353 0.8941
0.9059 0.0314 0.8784
0.0000 0.2471 0.9490
0.0941 0.2510 0.9882
0.5922 0.2078 0.9686
0.8353 0.1843 0.9569
0.9608 0.1725 0.9333
0.0000 0.6196 0.9765
0.2157 0.6000 0.9608
0.6235 0.6078 0.9686
0.8471 0.6000 0.9686
0.9804 0.5961 0.9490
0.0157 0.8314 0.9686
0.2353 0.8196 0.9529
0.6353 0.8275 0.9490
0.8392 0.8314 0.9569
0.9804 0.8275 0.9529
0.0706 0.9490 0.9451
0.2314 0.9451 0.9451
0.6353 0.9490 0.9608
0.8510 0.9569 0.9647
0.9804 0.9686 0.9490
