code/data/lut/29云端.cube
#Generated by Picture Instruments - Look Converter
LUT_3D_SIZE 5
0.0863 0.0863 0.1255
0.4510 0.0863 0.1255
0.6902 0.0824 0.1255
0.8039 0.0863 0.1216
0.9843 0.0824 0.1255
0.0863 0.3804 0.1294
0.4549 0.3765 0.1216
0.6980 0.3922 0.1255
0.8039 0.4000 0.1216
0.9843 0.4078 0.1255
0.0863 0.6588 0.1294
0.4588 0.6745 0.1255
0.6980 0.6824 0.1216
0.8078 0.6941 0.1255
0.9804 0.6980 0.1255
0.0902 0.8078 0.1255
0.4784 0.8157 0.1294
0.7059 0.8196 0.1255
0.8078 0.8235 0.1255
0.9843 0.8275 0.1216
0.0863 0.9882 0.1255
0.4784 0.9882 0.1255
0.7020 0.9882 0.1216
0.8078 0.9882 0.1216
0.9804 0.9882 0.1255
0.0863 0.0824 0.3804
0.4745 0.0824 0.3647
0.6941 0.0863 0.3725
0.8000 0.0863 0.3725
0.9804 0.0863 0.3647
0.0824 0.4078 0.3843
0.4784 0.4039 0.3804
0.6980 0.4000 0.3765
0.8000 0.3922 0.3686
0.9804 0.3843 0.3647
0.0824 0.6941 0.3922
0.4863 0.6902 0.3922
0.7059 0.6941 0.3804
0.8000 0.6824 0.3804
0.9804 0.6745 0.3725
0.0863 0.8275 0.3922
0.4824 0.8235 0.4000
0.7059 0.8196 0.3843
0.8039 0.8196 0.3843
0.9804 0.8196 0.3725
0.0863 0.9882 0.3961
0.4902 0.9843 0.3922
0.7098 0.9882 0.3882
0.8078 0.9882 0.3843
0.9843 0.9882 0.3843
0.0902 0.0863 0.6627
0.5176 0.0824 0.6627
0.7216 0.0824 0.6588
0.8196 0.0824 0.6588
0.9804 0.0824 0.6510
0.0824 0.4353 0.6706
0.5137 0.4353 0.6667
0.7255 0.4235 0.6588
0.8196 0.4235 0.6588
0.9804 0.4157 0.6588
0.0824 0.7216 0.6706
0.5137 0.7176 0.6667
0.7294 0.7176 0.6627
0.8196 0.7137 0.6588
0.9804 0.7020 0.6549
0.0863 0.8392 0.6627
0.5059 0.8353 0.6706
0.7294 0.8353 0.6588
0.8235 0.8353 0.6588
0.9843 0.8314 0.6588
0.0824 0.9882 0.6667
0.5137 0.9882 0.6706
0.7333 0.9882 0.6627
0.8235 0.9882 0.6588
0.9804 0.9882 0.6549
0.0824 0.0863 0.7922
0.5176 0.0863 0.7922
0.7412 0.0863 0.7882
0.8235 0.0863 0.7882
0.9804 0.0824 0.7843
0.0902 0.4510 0.7961
0.5412 0.4510 0.7961
0.7451 0.4471 0.7922
0.8314 0.4431 0.7961
0.9804 0.4392 0.7882
0.0824 0.7373 0.7922
0.5294 0.7373 0.7922
0.7451 0.7373 0.7922
0.8275 0.7333 0.7882
0.9804 0.7294 0.7882
0.0824 0.8510 0.7882
0.5294 0.8471 0.7961
0.7451 0.8510 0.7961
0.8314 0.8471 0.7882
0.9843 0.8471 0.7922
0.0863 0.9843 0.7961
0.5294 0.9882 0.7922
0.7412 0.9882 0.7922
0.8275 0.9882 0.7922
0.9843 0.9843 0.7882
0.0824 0.0863 0.9725
0.5059 0.0824 0.9765
0.7294 0.0824 0.9725
0.8275 0.0863 0.9765
0.9843 0.0824 0.9765
0.0863 0.4196 0.9765
0.5137 0.4314 0.9765
0.7294 0.4353 0.9765
0.8235 0.4392 0.9765
0.9804 0.4392 0.9725
0.0824 0.7020 0.9725
0.5020 0.7098 0.9725
0.7294 0.7098 0.9725
0.8196 0.7216 0.9725
0.9804 0.7255 0.9725
0.0863 0.8196 0.9725
0.4902 0.8235 0.9725
0.7216 0.8314 0.9765
0.8196 0.8353 0.9765
0.9843 0.8353 0.9725
0.0824 0.9843 0.9765
0.4902 0.9843 0.9765
0.7176 0.9843 0.9725
0.8157 0.9882 0.9725
0.9804 0.9843 0.9725
