code/data/lut/31饱和蓝调2.cube
TITLE "LD - Dark Monochrome 2"
# Copyright (c) 2019 Lens Distortions, LLC. All Rights Reserved.
# LensDistortions.com
# ref-DM6
LUT_3D_SIZE 33
0.0290379 0.0352178 0.0408179
0.0319219 0.0361181 0.0421149
0.0373236 0.0374304 0.0443732
0.0489662 0.0392615 0.04654
0.064683 0.0412604 0.047837
0.0831311 0.0442817 0.0494698
0.104479 0.0478676 0.0512245
0.12929 0.05243 0.053666
0.156985 0.0577554 0.0567941
0.188769 0.0638743 0.0599832
0.224094 0.0703593 0.0634318
0.260319 0.0768902 0.0668956
0.2963 0.0834211 0.0698405
0.33109 0.0896162 0.0723278
0.364996 0.0955978 0.0746166
0.399008 0.10164 0.076585
0.432517 0.107851 0.0787671
0.465766 0.113909 0.0809644
0.499367 0.120363 0.0833753
0.533379 0.126986 0.0859846
0.567315 0.133593 0.0887007
0.602029 0.140749 0.0915389
0.636286 0.147692 0.0946059
0.670985 0.154925 0.0974289
0.705715 0.162585 0.100893
0.738476 0.170153 0.103792
0.769512 0.178027 0.106935
0.799069 0.186236 0.109957
0.821424 0.191775 0.111818
0.833402 0.192508 0.112001
0.844907 0.193011 0.112032
0.856153 0.193652 0.112169
0.867308 0.194324 0.112184
0.0339818 0.0433204 0.0463417
0.0364843 0.0441901 0.0474556
0.0413825 0.0460212 0.0491798
0.0505379 0.0485237 0.0509499
0.0661479 0.0502937 0.0517281
0.0852979 0.0529183 0.0526284
0.107378 0.0563363 0.0543374
0.132326 0.0607156 0.0563058
0.160235 0.0661784 0.0590677
0.191699 0.0723278 0.0619669
0.226017 0.0784924 0.0649271
0.261219 0.0847486 0.0679637
0.296681 0.0913558 0.0708324
0.330251 0.0973983 0.0729076
0.363546 0.103075 0.0749828
0.397513 0.10927 0.0770886
0.430869 0.11548 0.079469
0.464225 0.121691 0.0817731
0.49836 0.128359 0.0844739
0.532448 0.135103 0.0872511
0.56672 0.141985 0.0901961
0.600793 0.148989 0.0929732
0.635401 0.1561 0.0961776
0.67042 0.163714 0.0992599
0.70486 0.171572 0.102495
0.737987 0.179553 0.105608
0.769207 0.18793 0.108583
0.798688 0.196307 0.111849
0.82266 0.202777 0.113985
0.834638 0.203494 0.114122
0.846265 0.204028 0.114214
0.857588 0.204715 0.114336
0.868727 0.205737 0.114504
0.0408331 0.0529488 0.0547646
0.0434272 0.0536965 0.0556649
0.0476844 0.0551919 0.0573587
0.0539559 0.0584573 0.0605936
0.0672618 0.0616007 0.0573892
0.0871138 0.064332 0.057969
0.109773 0.0673533 0.059205
0.134478 0.0716716 0.0605936
0.161944 0.0768749 0.0632639
0.193484 0.0826886 0.0656291
0.226947 0.088716 0.0682231
0.261692 0.0949264 0.0705577
0.295644 0.100557 0.0726024
0.329473 0.106538 0.0747997
0.362737 0.112322 0.0764172
0.396429 0.118486 0.0786603
0.430228 0.124773 0.0810712
0.463493 0.131151 0.0835889
0.497734 0.137819 0.0862898
0.531991 0.144701 0.0893263
0.566613 0.151644 0.0922255
0.600916 0.158877 0.0953994
0.635386 0.166262 0.0982986
0.670176 0.174105 0.10164
0.704997 0.182513 0.104952
0.738231 0.190631 0.108263
0.769314 0.199023 0.111345
0.798962 0.207736 0.114443
0.824674 0.21503 0.117174
0.836378 0.215732 0.117174
0.847852 0.216358 0.117113
0.859403 0.217075 0.117205
0.870512 0.218555 0.117449
0.0483101 0.064683 0.0653544
0.0509499 0.0654612 0.0661479
0.0554055 0.0671244 0.0683299
0.0617227 0.0703593 0.0715801
0.0688029 0.0751507 0.0724651
0.0867628 0.0789044 0.0663157
0.111055 0.081651 0.0661631
0.13669 0.0855421 0.0669718
0.163821 0.0901808 0.068513
0.194293 0.0955215 0.0703593
0.227008 0.100771 0.0724346
0.260975 0.106233 0.0745861
0.294759 0.111574 0.0761883
0.328054 0.117144 0.0779431
0.361898 0.123064 0.0800946
0.395636 0.129107 0.0822766
0.429313 0.135149 0.084596
0.463508 0.141802 0.0869917
0.497688 0.148348 0.0895094
0.531929 0.154986 0.0920272
0.566476 0.162188 0.0949264
0.600839 0.169757 0.0980087
0.63566 0.17731 0.10135
0.670512 0.185245 0.104479
0.705333 0.193805 0.108003
0.738506 0.202472 0.111269
0.769924 0.211231 0.114519
0.799573 0.22002 0.117815
0.826734 0.228534 0.120943
0.838331 0.228977 0.120775
0.849928 0.229618 0.120745
0.861082 0.230152 0.120638
0.872557 0.231937 0.121096
0.057557 0.0793927 0.0785534
0.0602731 0.0803845 0.0797284
0.0645457 0.0820172 0.0817578
0.0714885 0.0852979 0.085069
0.0780804 0.0894331 0.0875868
0.0872053 0.0951858 0.0844434
0.108629 0.0995804 0.0771038
0.137118 0.102022 0.0755474
0.164553 0.105852 0.0755932
0.19498 0.110246 0.0766918
0.22707 0.114595 0.0782635
0.260563 0.119509 0.0797436
0.293843 0.124422 0.0814527
0.32755 0.129778 0.0832532
0.361334 0.135454 0.08542
0.395254 0.14139 0.0876478
0.429572 0.147494 0.0901808
0.463416 0.153689 0.0923018
0.497917 0.160601 0.0950332
0.531899 0.167285 0.0975509
0.566766 0.174472 0.100023
0.601282 0.182055 0.1028
0.636271 0.18999 0.105592
0.671427 0.198093 0.108461
0.706127 0.206561 0.11136
0.739345 0.215396 0.114672
0.770901 0.224384 0.118135
0.800534 0.233433 0.121431
0.828733 0.242542 0.124804
0.840696 0.243305 0.124956
0.852247 0.243763 0.124849
0.863584 0.244434 0.124804
0.874937 0.246296 0.125841
0.0685435 0.0970932 0.0942245
0.0714122 0.0981003 0.0954147
0.0756237 0.0996567 0.097261
0.0827802 0.102937 0.100481
0.0895705 0.106279 0.103166
0.0967727 0.111147 0.103258
0.108324 0.117449 0.0973678
0.131731 0.12163 0.0890516
0.162829 0.12398 0.0861677
0.195239 0.126619 0.0844282
0.227329 0.130358 0.0849622
0.260884 0.134768 0.0863813
0.294347 0.139239 0.0881361
0.32781 0.144594 0.0903029
0.361364 0.149767 0.092256
0.395468 0.155535 0.0945907
0.429343 0.161364 0.0968643
0.4636 0.167819 0.099321
0.498039 0.174502 0.101854
0.532387 0.181399 0.104097
0.567147 0.188678 0.106813
0.601785 0.196277 0.109407
0.636881 0.204257 0.111925
0.671916 0.212604 0.114824
0.706996 0.221241 0.117754
0.74052 0.230091 0.120729
0.771923 0.238972 0.1234
0.801846 0.247959 0.126619
0.830045 0.256977 0.129458
0.843427 0.258366 0.129656
0.855024 0.258869 0.129549
0.866392 0.259297 0.129519
0.876997 0.261601 0.13109
0.0818799 0.117098 0.111955
0.0843366 0.117708 0.112627
0.0888533 0.119005 0.114183
0.0953994 0.121508 0.116838
0.102266 0.124498 0.119173
0.109239 0.12874 0.120623
0.117556 0.134035 0.118898
0.131212 0.139925 0.110033
0.156435 0.143786 0.101411
0.190997 0.145876 0.097322
0.228504 0.14844 0.0946822
0.262501 0.152087 0.0951095
0.295186 0.156649 0.0964523
0.328679 0.161288 0.0981155
0.362325 0.166583 0.100237
0.396078 0.171923 0.102312
0.430106 0.177783 0.104326
0.464073 0.184146 0.106783
0.498802 0.190661 0.109361
0.533257 0.197467 0.111589
0.568002 0.204822 0.114214
0.602853 0.212726 0.116838
0.637858 0.220493 0.119631
0.67332 0.228962 0.122545
0.708095 0.237537 0.125383
0.741527 0.246296 0.128328
0.773327 0.255146 0.131289
0.803067 0.263828 0.134203
0.831296 0.272541 0.136828
0.846189 0.274784 0.137194
0.857343 0.274968 0.136904
0.868788 0.275288 0.136721
0.879408 0.277913 0.139391
0.0962539 0.137545 0.129976
0.0988632 0.138003 0.130632
0.103029 0.139071 0.131731
0.109102 0.140932 0.133669
0.115557 0.143191 0.135607
0.122484 0.1467 0.137194
0.129732 0.151461 0.137209
0.139376 0.157076 0.134432
0.155962 0.163928 0.123079
0.184283 0.168154 0.114504
0.221927 0.170352 0.109987
0.261585 0.172702 0.106844
0.297597 0.176333 0.105852
0.330617 0.180941 0.107454
0.363821 0.185779 0.109224
0.397223 0.191012 0.110842
0.431083 0.196719 0.112963
0.46537 0.202869 0.115206
0.499779 0.209354 0.11725
0.534646 0.216342 0.119844
0.569451 0.223438 0.122332
0.604227 0.231006 0.125032
0.639399 0.23888 0.127932
0.674739 0.24712 0.130617
0.709529 0.255329 0.133608
0.743236 0.264012 0.136614
0.774746 0.272343 0.13933
0.804471 0.280644 0.142077
0.832807 0.289357 0.145037
0.848997 0.291905 0.145754
0.860578 0.292454 0.145708
0.871489 0.2925 0.145327
0.882261 0.295644 0.148638
0.111254 0.158175 0.147433
0.113695 0.158556 0.147936
0.117525 0.159411 0.148913
0.123369 0.161196 0.150469
0.129747 0.163333 0.1523
0.136461 0.166354 0.154055
0.143725 0.171023 0.155352
0.151766 0.176822 0.154192
0.163485 0.183154 0.149844
0.183337 0.190387 0.13727
0.214801 0.195285 0.128954
0.254185 0.197879 0.124163
0.294484 0.200153 0.120592
0.332509 0.203174 0.117861
0.366613 0.208026 0.119097
0.399374 0.213092 0.120729
0.433082 0.218616 0.122576
0.467216 0.224414 0.124392
0.501976 0.230671 0.126635
0.536385 0.237049 0.128923
0.57116 0.24419 0.131289
0.60618 0.251423 0.133913
0.641413 0.259083 0.136522
0.676539 0.266575 0.139116
0.711421 0.274617 0.142107
0.744839 0.282765 0.145068
0.776242 0.290715 0.147677
0.806729 0.299184 0.150759
0.834638 0.307317 0.153475
0.852018 0.310338 0.154437
0.863691 0.310719 0.154345
0.874922 0.311208 0.154345
0.885054 0.314153 0.158206
0.127352 0.180972 0.165942
0.129763 0.181369 0.166491
0.133257 0.181827 0.167163
0.138994 0.183627 0.169131
0.144823 0.185687 0.170581
0.151598 0.188556 0.172473
0.158938 0.192752 0.174304
0.167025 0.19855 0.174945
0.176928 0.205173 0.172824
0.191135 0.21268 0.166125
0.21384 0.22005 0.152209
0.24686 0.225345 0.144717
0.286717 0.228183 0.13959
0.327123 0.230503 0.1355
0.366354 0.233097 0.13167
0.402838 0.237385 0.13196
0.435782 0.242618 0.132921
0.469886 0.248081 0.134691
0.504463 0.254047 0.136584
0.538689 0.260044 0.138781
0.573358 0.266636 0.141009
0.608454 0.273213 0.143206
0.643809 0.280385 0.145907
0.678782 0.287419 0.148501
0.714 0.295323 0.151446
0.747204 0.302647 0.154147
0.778408 0.310277 0.156756
0.808652 0.318486 0.15993
0.836789 0.326146 0.162661
0.855375 0.330083 0.163561
0.866789 0.330343 0.163485
0.878126 0.330617 0.163363
0.888136 0.333761 0.168688
0.144381 0.205768 0.186328
0.146548 0.206073 0.186801
0.150149 0.206836 0.18764
0.15555 0.208499 0.189197
0.161089 0.210101 0.190372
0.168231 0.212955 0.192508
0.175769 0.21706 0.194629
0.184283 0.222675 0.196521
0.19321 0.22916 0.195972
0.205417 0.236454 0.192813
0.22153 0.244572 0.183551
0.246571 0.251957 0.169162
0.27953 0.257298 0.161166
0.31928 0.260456 0.155642
0.360128 0.262806 0.15108
0.399924 0.264958 0.147005
0.438788 0.268269 0.145235
0.473304 0.273243 0.145892
0.506935 0.278279 0.147417
0.541726 0.284062 0.149004
0.576364 0.290288 0.151293
0.611017 0.296193 0.153399
0.64625 0.303029 0.155962
0.681346 0.309728 0.15848
0.71635 0.316823 0.161288
0.749523 0.324147 0.163836
0.780896 0.331304 0.166415
0.810697 0.339117 0.169574
0.838941 0.346624 0.172045
0.859312 0.350881 0.173709
0.870604 0.351049 0.173526
0.881819 0.351186 0.173266
0.891112 0.354559 0.17966
0.16173 0.232136 0.207568
0.164401 0.232593 0.208148
0.167681 0.233219 0.208896
0.173129 0.234806 0.210483
0.178759 0.236118 0.211841
0.185733 0.238926 0.213657
0.193469 0.242741 0.2159
0.202045 0.247791 0.218143
0.211337 0.254108 0.21915
0.221759 0.261265 0.217456
0.23595 0.268727 0.21384
0.253635 0.276997 0.201251
0.280034 0.284382 0.186938
0.312734 0.289418 0.178515
0.352087 0.292576 0.172427
0.39324 0.294881 0.167361
0.434043 0.297261 0.163088
0.474174 0.299809 0.159548
0.511009 0.303914 0.159136
0.545388 0.309377 0.160922
0.579309 0.314595 0.162448
0.614145 0.320684 0.164645
0.648646 0.326421 0.166705
0.684199 0.333272 0.169451
0.718776 0.339696 0.171649
0.752163 0.346761 0.174472
0.783581 0.353536 0.177218
0.813458 0.360784 0.179965
0.841337 0.367926 0.182589
0.862776 0.372808 0.184161
0.874296 0.372824 0.183963
0.885115 0.372961 0.183841
0.894652 0.376349 0.191592
0.18027 0.259266 0.230076
0.183093 0.259785 0.230701
0.186328 0.26038 0.231434
0.191669 0.261677 0.23267
0.197452 0.26331 0.234089
0.20444 0.265644 0.235889
0.212284 0.268925 0.237964
0.220752 0.273487 0.240299
0.229999 0.279454 0.24242
0.240009 0.286107 0.242115
0.252216 0.293645 0.239322
0.267369 0.300984 0.23447
0.286137 0.309392 0.219638
0.313527 0.316838 0.205112
0.346548 0.321935 0.196307
0.385397 0.325078 0.190051
0.426856 0.327428 0.184268
0.46836 0.329702 0.179858
0.509285 0.332189 0.175692
0.548501 0.335332 0.17351
0.583307 0.34052 0.174868
0.617594 0.345892 0.176638
0.652445 0.351644 0.178698
0.687251 0.357671 0.180911
0.721859 0.363836 0.183246
0.755016 0.370367 0.18584
0.78616 0.376684 0.188373
0.816083 0.383612 0.19118
0.843915 0.390387 0.1935
0.866987 0.395743 0.195392
0.878202 0.395789 0.19527
0.888899 0.395605 0.194919
0.898146 0.399329 0.204196
0.199557 0.28661 0.252964
0.202152 0.287144 0.253605
0.205554 0.287541 0.254063
0.21091 0.288792 0.255436
0.216754 0.290379 0.256855
0.223606 0.292287 0.258564
0.231327 0.295384 0.260471
0.240055 0.299458 0.263066
0.2495 0.304891 0.265278
0.259373 0.311345 0.266285
0.270115 0.318624 0.265034
0.283207 0.326146 0.261479
0.299031 0.33373 0.25478
0.319265 0.342275 0.238911
0.347387 0.349416 0.224063
0.380194 0.354711 0.215228
0.419074 0.358022 0.208789
0.461173 0.36022 0.202289
0.502953 0.362478 0.197253
0.543969 0.364858 0.192828
0.584985 0.367712 0.189578
0.621881 0.372045 0.189822
0.656245 0.377356 0.191562
0.691112 0.383062 0.193515
0.725032 0.388998 0.195605
0.757961 0.39498 0.197955
0.789349 0.401038 0.200397
0.818875 0.407691 0.20296
0.846632 0.413931 0.205417
0.871382 0.419883 0.207614
0.882216 0.419699 0.207248
0.892622 0.419379 0.20679
0.901503 0.423377 0.216739
0.219425 0.313954 0.276295
0.222202 0.314183 0.276524
0.225483 0.314809 0.27715
0.230976 0.316045 0.278492
0.236835 0.317235 0.279545
0.243488 0.318959 0.280949
0.251377 0.322118 0.283223
0.259983 0.325948 0.285588
0.269276 0.33109 0.288212
0.278691 0.336904 0.289723
0.289158 0.343862 0.289738
0.300755 0.351324 0.28751
0.314748 0.35877 0.28368
0.331365 0.366812 0.274937
0.352605 0.375235 0.258061
0.381323 0.382284 0.243427
0.41416 0.387427 0.234318
0.453193 0.39089 0.227741
0.495766 0.393347 0.220844
0.537758 0.395529 0.215351
0.579202 0.397894 0.211032
0.620584 0.400626 0.206775
0.659831 0.404257 0.205356
0.695064 0.409308 0.20708
0.728923 0.414878 0.208637
0.761471 0.420432 0.210727
0.792767 0.426413 0.213199
0.821851 0.432456 0.215473
0.849638 0.438422 0.217487
0.875471 0.444694 0.22005
0.886259 0.444266 0.219455
0.896498 0.444083 0.219135
0.905028 0.448096 0.23035
0.239857 0.341314 0.299275
0.242969 0.341787 0.299809
0.246464 0.342351 0.300374
0.251667 0.34345 0.301381
0.257298 0.344839 0.302663
0.263615 0.346273 0.303777
0.271321 0.348913 0.305852
0.27982 0.352789 0.308537
0.289219 0.357687 0.311208
0.298787 0.363226 0.313176
0.308736 0.369589 0.313924
0.319539 0.376883 0.313115
0.331945 0.384512 0.310201
0.346929 0.391974 0.306004
0.364111 0.400336 0.294926
0.386557 0.408576 0.277882
0.415808 0.415579 0.263676
0.448997 0.420722 0.254246
0.487419 0.424277 0.247623
0.530465 0.426749 0.240131
0.572824 0.428992 0.234348
0.614542 0.431388 0.22974
0.655955 0.433814 0.225025
0.697124 0.436927 0.221866
0.73344 0.441413 0.223133
0.765728 0.446921 0.224704
0.796155 0.452247 0.226368
0.825071 0.457954 0.228443
0.85275 0.463996 0.230732
0.878752 0.46978 0.232761
0.890013 0.469657 0.232303
0.900465 0.469505 0.231922
0.9084 0.473533 0.244526
0.26128 0.369207 0.322621
0.26389 0.369604 0.323156
0.267231 0.370245 0.323842
0.272389 0.371389 0.324773
0.277913 0.372335 0.325643
0.284276 0.373587 0.326833
0.291768 0.376349 0.328908
0.299992 0.37995 0.331334
0.309255 0.38439 0.334157
0.318868 0.389654 0.336706
0.328634 0.395834 0.337835
0.338918 0.40267 0.337865
0.350347 0.410117 0.33608
0.363439 0.417792 0.332723
0.379263 0.425315 0.327871
0.397223 0.433997 0.314672
0.420676 0.442039 0.297597
0.450584 0.448997 0.283497
0.48426 0.454398 0.274678
0.521752 0.458015 0.26807
0.56527 0.46038 0.260029
0.607828 0.462715 0.253941
0.650217 0.465187 0.248997
0.691539 0.467628 0.244434
0.732876 0.470192 0.239521
0.769039 0.474113 0.239445
0.800275 0.479088 0.240909
0.829068 0.48455 0.242649
0.856001 0.48986 0.244175
0.881666 0.495293 0.246143
0.894331 0.496178 0.246067
0.904204 0.495705 0.245319
0.912077 0.500084 0.259892
0.282536 0.397284 0.346426
0.285512 0.397757 0.347005
0.288396 0.398322 0.347631
0.293584 0.399283 0.348623
0.298619 0.400031 0.349233
0.305028 0.401724 0.350362
0.312245 0.404089 0.352102
0.320272 0.407172 0.354543
0.329152 0.411444 0.357275
0.338949 0.416526 0.359991
0.34902 0.422278 0.361868
0.358846 0.428794 0.362448
0.369543 0.436011 0.361791
0.381628 0.443671 0.359365
0.395468 0.451362 0.355337
0.411856 0.459068 0.349294
0.430671 0.467781 0.33463
0.455177 0.475807 0.317601
0.485405 0.482521 0.303563
0.519448 0.488075 0.294667
0.556878 0.492134 0.288685
0.60032 0.49424 0.280079
0.643 0.496605 0.273808
0.685466 0.499046 0.268711
0.727352 0.501671 0.264302
0.766171 0.504051 0.259663
0.801984 0.506981 0.256886
0.833005 0.511345 0.257862
0.859754 0.516579 0.259007
0.884916 0.52195 0.260731
0.898024 0.52282 0.260304
0.908003 0.522454 0.259556
0.915404 0.526787 0.276265
0.303838 0.425772 0.370245
0.306783 0.426169 0.370748
0.309834 0.426657 0.371298
0.314336 0.427298 0.371923
0.319814 0.428412 0.373068
0.32607 0.42974 0.374289
0.332998 0.4318 0.375616
0.34081 0.434867 0.377768
0.349432 0.438651 0.380438
0.359274 0.443641 0.383474
0.369177 0.44921 0.385702
0.37908 0.455451 0.38703
0.389532 0.462287 0.387137
0.400656 0.469749 0.385641
0.413458 0.477516 0.382696
0.428244 0.485191 0.378485
0.445136 0.493278 0.370748
0.464622 0.501869 0.354894
0.490028 0.509651 0.337713
0.520714 0.516243 0.323827
0.554726 0.521935 0.315038
0.592264 0.526268 0.309422
0.635538 0.528359 0.300404
0.678294 0.530526 0.293736
0.721004 0.532891 0.28835
0.760845 0.535378 0.284047
0.797955 0.537911 0.279728
0.832471 0.540475 0.275517
0.863066 0.543801 0.27451
0.888182 0.548623 0.275685
0.902068 0.549981 0.275303
0.911604 0.549661 0.274388
0.918791 0.554559 0.294072
0.325261 0.4542 0.394171
0.328069 0.454429 0.394522
0.331304 0.454994 0.39527
0.336019 0.45597 0.396338
0.341161 0.456916 0.397238
0.346899 0.457893 0.398032
0.353597 0.459724 0.399252
0.361532 0.462852 0.401465
0.370016 0.466361 0.404089
0.3794 0.471061 0.407111
0.389563 0.476249 0.409506
0.399786 0.482155 0.411337
0.409873 0.489143 0.412329
0.42092 0.496498 0.412039
0.432746 0.504128 0.41001
0.446006 0.511894 0.406348
0.461509 0.519493 0.402075
0.478737 0.52781 0.392248
0.49929 0.536416 0.375402
0.52491 0.543709 0.358099
0.556161 0.550347 0.344335
0.590249 0.555856 0.335409
0.627451 0.560052 0.329412
0.670832 0.562417 0.320745
0.714092 0.564691 0.313924
0.754864 0.566812 0.308339
0.79266 0.569116 0.304067
0.82771 0.571725 0.299825
0.860533 0.574289 0.296071
0.889723 0.576974 0.293065
0.905653 0.577737 0.291646
0.91545 0.577569 0.29041
0.921859 0.582528 0.312627
0.346914 0.482902 0.418509
0.349722 0.483162 0.418921
0.353109 0.483757 0.419654
0.357473 0.484703 0.420615
0.362402 0.485512 0.421317
0.368246 0.486473 0.422095
0.374731 0.48806 0.423331
0.382528 0.490883 0.42533
0.390967 0.494377 0.427863
0.400519 0.498939 0.431083
0.410239 0.504021 0.433661
0.420554 0.509728 0.436057
0.430732 0.515938 0.437339
0.441154 0.522942 0.437476
0.452354 0.530541 0.436484
0.464576 0.538201 0.43386
0.478614 0.545922 0.429709
0.49485 0.553475 0.425071
0.512306 0.56202 0.413245
0.533684 0.570581 0.396048
0.560037 0.577935 0.378698
0.59176 0.584497 0.365072
0.626017 0.589944 0.356313
0.662776 0.594064 0.349966
0.706081 0.596704 0.341482
0.74844 0.598962 0.334585
0.786954 0.601114 0.329
0.822629 0.603128 0.324224
0.856031 0.60557 0.320363
0.886305 0.608133 0.316564
0.907332 0.608621 0.312917
0.917967 0.606332 0.310094
0.924407 0.611353 0.332967
0.368872 0.51194 0.443122
0.371572 0.5122 0.443442
0.374838 0.512795 0.444083
0.378973 0.513664 0.444953
0.384009 0.514382 0.44564
0.389441 0.515068 0.446311
0.396033 0.516579 0.447562
0.403586 0.519417 0.449775
0.411719 0.522698 0.451911
0.421271 0.526955 0.455131
0.431174 0.531762 0.457969
0.441215 0.537072 0.460212
0.451606 0.543114 0.462119
0.462028 0.550011 0.463279
0.472709 0.557107 0.462852
0.484413 0.564645 0.461021
0.496986 0.57232 0.457816
0.511452 0.580041 0.453513
0.528115 0.587747 0.447532
0.54609 0.596231 0.434211
0.568383 0.604898 0.416526
0.595697 0.612299 0.399603
0.627085 0.618631 0.385626
0.661341 0.624018 0.376944
0.698177 0.628519 0.370901
0.740414 0.630884 0.362402
0.78056 0.633219 0.355367
0.817258 0.635508 0.349828
0.851408 0.637308 0.345068
0.881971 0.639551 0.340993
0.907423 0.641489 0.337636
0.91812 0.638911 0.33463
0.925414 0.64155 0.357412
0.390738 0.540856 0.467735
0.39408 0.541375 0.468437
0.396994 0.541863 0.468971
0.401068 0.542596 0.469749
0.405737 0.543206 0.470314
0.411032 0.543832 0.47068
0.417578 0.545357 0.471839
0.425238 0.548104 0.474128
0.433341 0.551019 0.476432
0.4421 0.55494 0.478874
0.452186 0.559548 0.482033
0.462028 0.564706 0.484779
0.472297 0.570352 0.48658
0.482719 0.576852 0.488289
0.493278 0.583688 0.488487
0.504173 0.591058 0.48748
0.516136 0.598657 0.485176
0.529412 0.606485 0.481498
0.544823 0.614008 0.476967
0.561578 0.621775 0.469688
0.580194 0.630655 0.455116
0.60322 0.6392 0.437263
0.631006 0.646433 0.420203
0.662684 0.652796 0.406729
0.697032 0.657969 0.397726
0.73254 0.662654 0.39202
0.772976 0.665232 0.383642
0.810727 0.667277 0.376394
0.845792 0.669413 0.370825
0.877653 0.671702 0.366125
0.905409 0.673899 0.362249
0.916655 0.672068 0.360571
0.924224 0.673548 0.381308
0.412787 0.570001 0.492668
0.415976 0.570474 0.493141
0.41915 0.570916 0.493584
0.422522 0.571267 0.494011
0.427482 0.571984 0.494667
0.432837 0.572824 0.495262
0.4392 0.574304 0.496422
0.446326 0.576318 0.498238
0.454444 0.579583 0.500725
0.46305 0.583078 0.502983
0.473075 0.587671 0.506111
0.483024 0.592538 0.509026
0.493263 0.59791 0.51136
0.503746 0.60412 0.513115
0.513817 0.610651 0.513802
0.52459 0.617731 0.513481
0.536004 0.625101 0.5122
0.548363 0.632959 0.509239
0.562234 0.640726 0.505241
0.578241 0.648234 0.50042
0.595468 0.656245 0.491569
0.614649 0.665232 0.476036
0.638148 0.673655 0.458061
0.666346 0.680598 0.44097
0.698344 0.686839 0.427466
0.732296 0.692302 0.418982
0.765698 0.696605 0.412711
0.803326 0.699413 0.404974
0.839597 0.701534 0.397742
0.872206 0.703517 0.391897
0.900938 0.705623 0.387335
0.914076 0.705699 0.38967
0.922011 0.705684 0.406378
0.434974 0.599176 0.517372
0.437949 0.599741 0.517998
0.441108 0.599939 0.518349
0.444678 0.600488 0.518914
0.449577 0.601221 0.519448
0.454871 0.602182 0.520165
0.461097 0.603128 0.520974
0.467872 0.604959 0.522423
0.475715 0.607889 0.524742
0.484459 0.611399 0.527443
0.494102 0.615671 0.530129
0.504082 0.620371 0.533288
0.513954 0.62565 0.535821
0.524697 0.631647 0.537804
0.535149 0.637949 0.539239
0.545419 0.644709 0.539406
0.556191 0.651926 0.538521
0.568032 0.659464 0.536675
0.580697 0.667155 0.533028
0.595254 0.674876 0.528908
0.611688 0.682292 0.523919
0.629191 0.690761 0.513298
0.64889 0.699687 0.49691
0.673075 0.707973 0.478691
0.701793 0.714992 0.461601
0.733547 0.721096 0.448737
0.766079 0.726238 0.44007
0.79765 0.730724 0.434012
0.832288 0.733471 0.426871
0.866148 0.735515 0.419547
0.894972 0.737881 0.416159
0.909911 0.738674 0.421134
0.919615 0.737804 0.432929
0.457038 0.627985 0.542123
0.460121 0.628275 0.542458
0.463371 0.628916 0.543053
0.466651 0.629404 0.543526
0.471321 0.630076 0.544106
0.47657 0.630823 0.544732
0.482536 0.63183 0.545403
0.489311 0.633646 0.546715
0.497261 0.636347 0.549172
0.505653 0.639643 0.551614
0.5149 0.643839 0.554223
0.525017 0.648295 0.557305
0.535286 0.653376 0.560235
0.545602 0.65919 0.5626
0.55584 0.665232 0.564034
0.566186 0.67155 0.564813
0.57673 0.678416 0.564416
0.588052 0.68571 0.563317
0.600076 0.693431 0.560723
0.613519 0.701228 0.556985
0.628519 0.709041 0.552514
0.645274 0.716655 0.546944
0.663188 0.725185 0.534493
0.68336 0.73373 0.517418
0.70811 0.741726 0.498955
0.736599 0.748348 0.481956
0.767163 0.754147 0.469444
0.798062 0.759045 0.460929
0.827893 0.763378 0.454765
0.859342 0.766247 0.44799
0.888884 0.768368 0.445518
0.905989 0.769528 0.452247
0.917205 0.768612 0.460426
0.478492 0.656077 0.56585
0.481453 0.656382 0.566217
0.484779 0.657099 0.566903
0.488045 0.657526 0.567315
0.492622 0.658305 0.567987
0.497749 0.658991 0.568597
0.503822 0.659831 0.569299
0.510292 0.66128 0.570443
0.51812 0.664164 0.572702
0.526162 0.667124 0.574945
0.535912 0.671336 0.57818
0.545464 0.675608 0.580697
0.555657 0.680446 0.58378
0.565927 0.686 0.586389
0.576196 0.691752 0.58819
0.586374 0.697826 0.589395
0.596872 0.704555 0.589654
0.60795 0.711955 0.589334
0.61941 0.71931 0.587289
0.631998 0.726955 0.58407
0.645747 0.734646 0.579919
0.661219 0.742123 0.575235
0.678172 0.749783 0.56817
0.696269 0.758221 0.554543
0.717815 0.766659 0.536614
0.742596 0.774105 0.518776
0.770336 0.780301 0.502419
