code/data/lut/31饱和蓝调2.cube
TITLE "LD - Dark Monochrome 2"
# Copyright (c) 2019 Lens Distortions, LLC. All Rights Reserved.
# LensDistortions.com
# ref-DM6
LUT_3D_SIZE 5
0.0290379 0.0352178 0.0408179
0.156985 0.0577554 0.0567941
0.432517 0.107851 0.0787671
0.705715 0.162585 0.100893
0.867308 0.194324 0.112184
0.111254 0.158175 0.147433
0.163485 0.183154 0.149844
0.433082 0.218616 0.122576
0.711421 0.274617 0.142107
0.885054 0.314153 0.158206
0.26128 0.369207 0.322621
0.309255 0.38439 0.334157
0.420676 0.442039 0.297597
0.732876 0.470192 0.239521
0.912077 0.500084 0.259892
0.434974 0.599176 0.517372
0.475715 0.607889 0.524742
0.556191 0.651926 0.538521
0.701793 0.714992 0.461601
0.919615 0.737804 0.432929
0.577203 0.784894 0.675303
0.617578 0.795743 0.685496
0.71014 0.832197 0.719448
0.801862 0.881117 0.720623
0.920745 0.921599 0.667323
0.0355993 0.0448157 0.110658
0.140154 0.0683146 0.158526
0.417105 0.111315 0.19968
0.697246 0.162325 0.216449
0.862943 0.194553 0.225757
0.0930953 0.173236 0.192126
0.164874 0.186847 0.204837
0.401038 0.222919 0.221561
0.67097 0.281392 0.245274
0.88191 0.315145 0.242741
0.254475 0.378759 0.351461
0.333333 0.388602 0.373922
0.421866 0.438773 0.381964
0.74229 0.465354 0.321492
0.909636 0.500755 0.328405
0.433066 0.606363 0.543633
0.50515 0.612863 0.56466
0.577081 0.64921 0.591913
0.70547 0.710597 0.538491
0.922499 0.736416 0.483284
0.57882 0.792767 0.7028
0.623224 0.802014 0.713878
0.722515 0.834852 0.752346
0.810208 0.882078 0.766537
0.922347 0.923232 0.71664
0.0538186 0.0694438 0.236881
0.14255 0.0898909 0.319219
0.371313 0.131289 0.3579
0.672251 0.179416 0.406668
0.849775 0.209812 0.414893
0.0970779 0.190646 0.321233
0.157839 0.205646 0.312444
0.372183 0.239719 0.377295
0.670497 0.290074 0.403616
0.873457 0.324651 0.428992
0.217136 0.40238 0.421149
0.290974 0.408148 0.45304
0.42678 0.445869 0.460151
0.670512 0.483268 0.464088
0.91252 0.499596 0.463478
0.412009 0.623148 0.585443
0.492638 0.626444 0.60029
0.60058 0.656092 0.634165
0.704311 0.712535 0.627497
0.927657 0.733898 0.576379
0.569497 0.806607 0.739452
0.619242 0.81323 0.748425
0.733715 0.841581 0.787121
0.824231 0.883589 0.818402
0.925002 0.925765 0.780194
0.0763409 0.100801 0.388739
0.158923 0.117876 0.46041
0.370108 0.153155 0.518303
0.62121 0.204578 0.562081
0.833692 0.228779 0.6094
0.114336 0.212757 0.451881
0.175479 0.233753 0.433371
0.318624 0.263828 0.54905
0.610636 0.318364 0.570504
0.857252 0.342473 0.626322
0.205951 0.424567 0.551766
0.273487 0.429129 0.556451
0.405463 0.462577 0.577768
0.659846 0.493645 0.639643
0.899718 0.509621 0.669276
0.367407 0.649134 0.664454
0.435035 0.651209 0.680537
0.561608 0.676677 0.718166
0.708232 0.718456 0.726192
0.924056 0.736919 0.726696
0.539666 0.828687 0.793561
0.591531 0.833707 0.798596
0.728008 0.856229 0.826703
0.84062 0.889021 0.86479
0.928908 0.929473 0.85774
0.0902724 0.118914 0.495048
0.17229 0.134752 0.558724
0.367849 0.167178 0.637705
0.608301 0.222034 0.666117
0.78703 0.256199 0.70782
0.126635 0.229267 0.552209
0.198306 0.235767 0.577295
0.370382 0.270359 0.673136
0.625177 0.32665 0.702617
0.816037 0.367514 0.743374
0.213474 0.436408 0.6607
0.28368 0.437888 0.674723
0.429709 0.464881 0.719326
0.669184 0.497719 0.781323
0.866987 0.529168 0.807202
0.347005 0.669276 0.764355
0.40206 0.671031 0.771435
0.52401 0.693324 0.802243
0.703075 0.723781 0.852049
0.903578 0.749157 0.873793
0.523674 0.850919 0.858839
0.573129 0.856321 0.864057
0.692729 0.876081 0.881682
0.820539 0.904265 0.907454
0.933013 0.933211 0.933623
