code/data/lut/31饱和蓝调1.cube
TITLE "LD - Dark Monochrome 1"
# Copyright (c) 2019 Lens Distortions, LLC. All Rights Reserved.
# LensDistortions.com
# ref-DM6
LUT_3D_SIZE 5
0.0147555 0.0211948 0.0270237
0.196841 0.04271 0.0417639
0.486412 0.0885939 0.0609598
0.75729 0.140124 0.0835431
0.937942 0.16907 0.0950332
0.0912032 0.194827 0.124346
0.198383 0.215824 0.125414
0.483635 0.244877 0.09897
0.756893 0.292699 0.116533
0.944839 0.325063 0.130007
0.216281 0.428153 0.268299
0.316747 0.43946 0.276768
0.4663 0.483284 0.243793
0.764645 0.504005 0.192447
0.957839 0.525887 0.208377
0.351202 0.660899 0.415854
0.443412 0.666773 0.420813
0.564553 0.69807 0.42948
0.733089 0.742885 0.366827
0.956161 0.758144 0.342153
0.455055 0.854124 0.529458
0.5458 0.861357 0.536309
0.674235 0.88629 0.55967
0.801068 0.920851 0.558465
0.9514 0.952209 0.516548
0.0211185 0.0307164 0.155505
0.180896 0.0525978 0.197543
0.473579 0.0911727 0.231281
0.750469 0.139254 0.247547
0.934051 0.16849 0.256245
0.0737926 0.207752 0.224399
0.199344 0.218753 0.23447
0.457527 0.247944 0.246784
0.72546 0.297185 0.26627
0.941863 0.325093 0.263523
0.210254 0.435737 0.352758
0.336385 0.442359 0.369696
0.466835 0.480339 0.374014
0.771038 0.49955 0.322377
0.955337 0.52578 0.326589
0.349355 0.666041 0.496605
0.465629 0.669886 0.511559
0.580163 0.695628 0.530709
0.735454 0.73933 0.487221
0.958343 0.756771 0.44242
0.45597 0.859648 0.610468
0.549767 0.86569 0.618006
0.683162 0.887953 0.644648
0.806958 0.921355 0.653178
0.952605 0.953353 0.613993
0.0386206 0.0541085 0.327321
0.18201 0.072282 0.395438
0.435706 0.108583 0.424796
0.730449 0.152972 0.4654
0.922866 0.17995 0.472297
0.0766613 0.222202 0.394476
0.192233 0.234287 0.386221
0.433265 0.261357 0.437446
0.72401 0.303288 0.457511
0.933974 0.331258 0.476753
0.178134 0.454826 0.469871
0.300679 0.458015 0.49369
0.470176 0.485374 0.496559
0.716243 0.512276 0.497246
0.956847 0.52398 0.495689
0.332403 0.67866 0.589242
0.455634 0.67982 0.599268
0.597513 0.700252 0.622934
0.734173 0.740322 0.61561
0.96228 0.754376 0.574792
0.448524 0.869581 0.698283
0.546395 0.873732 0.704189
0.691112 0.89247 0.7308
0.816953 0.922194 0.751919
0.954574 0.955215 0.721675
0.0595407 0.082887 0.513146
0.195758 0.0976272 0.56878
0.434318 0.127947 0.61207
0.690593 0.173342 0.64567
0.90985 0.194781 0.682231
0.092134 0.240696 0.560006
0.206989 0.257588 0.54432
0.388663 0.281483 0.632532
0.677211 0.325139 0.646723
0.920729 0.344411 0.688411
0.168185 0.472236 0.632197
0.285451 0.474434 0.634348
0.452628 0.498054 0.647944
0.707332 0.519478 0.692073
0.94551 0.530571 0.713115
0.296269 0.698314 0.709911
0.410208 0.698604 0.720592
0.567346 0.715404 0.746517
0.736507 0.744121 0.74992
0.958618 0.755962 0.748257
0.425223 0.885557 0.798856
0.525002 0.888426 0.801831
0.686442 0.902876 0.820371
0.828504 0.926009 0.846494
0.957519 0.958053 0.839246
0.0724041 0.0992905 0.657267
0.207279 0.112825 0.705272
0.432486 0.140444 0.763653
0.68014 0.18764 0.784497
0.873686 0.216175 0.814923
0.103273 0.254658 0.698268
0.227176 0.259525 0.716716
0.431174 0.286961 0.787121
0.687846 0.331624 0.806729
0.888945 0.363333 0.835294
0.174197 0.481239 0.775113
0.29366 0.480949 0.784298
0.471489 0.499352 0.814847
0.713893 0.522225 0.858228
0.919493 0.544686 0.875486
0.27924 0.713252 0.844892
0.383658 0.713329 0.848951
0.538079 0.727687 0.869398
0.732189 0.747692 0.90338
0.940871 0.764324 0.917372
0.412406 0.901427 0.907332
0.510369 0.90457 0.910338
0.659693 0.917525 0.921874
0.813428 0.938003 0.940597
0.960754 0.960937 0.961288
