code/data/lut/31饱和蓝调1.cube
TITLE "LD - Dark Monochrome 1"
# Copyright (c) 2019 Lens Distortions, LLC. All Rights Reserved.
# LensDistortions.com
# ref-DM6
LUT_3D_SIZE 33
0.0147555 0.0211948 0.0270237
0.0252689 0.0221256 0.0282597
0.0384985 0.0234226 0.0305791
0.0578164 0.0251316 0.0325933
0.0810254 0.0270695 0.0337987
0.106416 0.0300145 0.0352178
0.134157 0.0334478 0.0367895
0.164446 0.0377661 0.0390021
0.196841 0.04271 0.0417639
0.23212 0.0483253 0.0444495
0.269917 0.0542611 0.0474556
0.308141 0.0601968 0.05037
0.345815 0.0660105 0.0529183
0.382101 0.0717021 0.0550698
0.417273 0.0771801 0.057023
0.452201 0.0828412 0.0589609
0.486412 0.0885939 0.0609598
0.520211 0.094377 0.0631571
0.554055 0.100404 0.0655222
0.588067 0.106706 0.0683299
0.621927 0.113008 0.0711376
0.656001 0.119707 0.0740826
0.689769 0.126284 0.0772259
0.723613 0.133104 0.0802319
0.75729 0.140124 0.0835431
0.78941 0.147097 0.0865339
0.820081 0.154253 0.0895857
0.849454 0.161456 0.0923476
0.873518 0.166354 0.0941787
0.889998 0.167163 0.0945296
0.906142 0.167681 0.0946365
0.922133 0.168383 0.0949111
0.937942 0.16907 0.0950332
0.0196231 0.0369116 0.0324254
0.0297856 0.0377203 0.0334325
0.0423896 0.0395819 0.0351568
0.0591135 0.0419013 0.0367437
0.0822309 0.0435645 0.0374456
0.108202 0.046067 0.0381933
0.136522 0.0492561 0.0396735
0.166918 0.0533303 0.0412909
0.199405 0.0583352 0.0437018
0.234394 0.0638895 0.0461738
0.271244 0.0694743 0.0486305
0.308522 0.0750134 0.0510719
0.3458 0.0809644 0.0535744
0.381079 0.0863508 0.055314
0.415885 0.0916152 0.0571603
0.450767 0.0973373 0.059205
0.484886 0.10309 0.0614328
0.518807 0.108934 0.0637064
0.552987 0.11516 0.0663767
0.587106 0.121523 0.0692454
0.621103 0.127916 0.0722362
0.654856 0.134508 0.0751812
0.688807 0.141207 0.0784161
0.722805 0.148196 0.0814984
0.756359 0.155398 0.0847181
0.788708 0.162646 0.0878767
0.819486 0.170108 0.0907149
0.848783 0.177356 0.0936751
0.87396 0.182971 0.0956893
0.890486 0.183734 0.095964
0.906645 0.184268 0.0961166
0.922728 0.185031 0.096376
0.93846 0.185962 0.0966049
0.0263523 0.0539101 0.0405432
0.0365759 0.0546578 0.0414282
0.0485237 0.0560922 0.0430457
0.0622721 0.0591287 0.0461433
0.0829328 0.0621347 0.04271
0.109545 0.064622 0.043122
0.138293 0.0673991 0.0440528
0.168505 0.0713054 0.0452583
0.200473 0.0760052 0.0474861
0.235584 0.0811627 0.0494087
0.271656 0.0865339 0.051545
0.308568 0.0919509 0.0533455
0.344579 0.0970016 0.055024
0.380118 0.102296 0.0567941
0.414893 0.107576 0.0583047
0.449577 0.11313 0.0603647
0.484092 0.119005 0.0627146
0.517952 0.124895 0.0651255
0.55227 0.131106 0.0679026
0.586542 0.13756 0.0709544
0.620691 0.143969 0.0739147
0.654643 0.150698 0.0771191
0.688457 0.157565 0.0801709
0.722316 0.164645 0.0834058
0.7561 0.172213 0.0866865
0.788495 0.179477 0.0899062
0.819135 0.186862 0.0928054
0.848478 0.194278 0.0955825
0.874907 0.20058 0.0980545
0.891157 0.201236 0.098085
0.90724 0.201923 0.0981765
0.923415 0.202625 0.0983291
0.939101 0.203906 0.0985733
0.0337072 0.0728466 0.050721
0.0438849 0.0735637 0.0514687
0.0558022 0.0750744 0.0534524
0.0696422 0.0781262 0.0565194
0.0839399 0.0825513 0.057084
0.108721 0.0859693 0.0508888
0.139025 0.0883803 0.0505226
0.16997 0.0918135 0.0509651
0.201678 0.0958877 0.0522011
0.235859 0.100633 0.0536812
0.271244 0.105165 0.0552224
0.307637 0.109941 0.0569162
0.343526 0.114534 0.0581521
0.378637 0.119402 0.0595865
0.41384 0.124773 0.0615244
0.4486 0.130205 0.0634623
0.483116 0.135775 0.0657816
0.517678 0.141817 0.0681468
0.55198 0.147921 0.0706798
0.586221 0.154086 0.0733043
0.620325 0.160678 0.076173
0.654292 0.167636 0.0792554
0.688334 0.174548 0.0826734
0.722301 0.18172 0.0857404
0.755901 0.189258 0.0890516
0.788174 0.196857 0.0921035
0.819028 0.204425 0.095201
0.848386 0.211856 0.0981003
0.875761 0.219013 0.100893
0.891997 0.219486 0.100832
0.908141 0.220188 0.100938
0.923995 0.220676 0.100893
0.939956 0.222324 0.10132
0.0424811 0.0943008 0.0631266
0.0527657 0.0951553 0.0641642
0.0644083 0.0966354 0.06598
0.078645 0.0996262 0.0690471
0.0924849 0.103395 0.0712291
0.108659 0.108659 0.0680858
0.136217 0.112566 0.0607004
0.169848 0.114565 0.0589456
0.201846 0.117861 0.0585946
0.235904 0.121553 0.0593576
0.270832 0.125277 0.0604868
0.306813 0.129427 0.0615702
0.342306 0.133608 0.0628214
0.377844 0.138338 0.064332
0.413031 0.143313 0.0662852
0.448066 0.148684 0.0684062
0.482902 0.154162 0.0707408
0.517296 0.159869 0.0728618
0.551766 0.166125 0.0755474
0.585809 0.172274 0.0780804
0.620233 0.178882 0.0806897
0.654185 0.185657 0.0833448
0.688334 0.192798 0.0861067
0.722484 0.200015 0.0889906
0.7561 0.207431 0.091722
0.788296 0.214969 0.094789
0.819104 0.222644 0.0978256
0.848463 0.230304 0.100786
0.876493 0.237827 0.103593
0.893004 0.238621 0.103868
0.909148 0.239048 0.103822
0.925139 0.239765 0.103929
0.940902 0.241337 0.104753
0.0527199 0.118196 0.0774548
0.0630198 0.119081 0.0785077
0.0746319 0.120409 0.0802167
0.0890364 0.123369 0.0831311
0.102846 0.126314 0.085359
0.117189 0.130694 0.0853437
0.135409 0.136294 0.07953
0.16434 0.139925 0.0713359
0.199725 0.141772 0.0683299
0.235645 0.143832 0.0663157
0.270542 0.146899 0.0664378
0.306538 0.150515 0.0674754
0.342306 0.154345 0.0688487
0.377554 0.158923 0.070634
0.412711 0.1635 0.0724193
0.447761 0.168551 0.0745556
0.482383 0.173861 0.0767529
0.517006 0.179614 0.0790417
0.551507 0.185702 0.0816358
0.585733 0.191867 0.083772
0.620035 0.198444 0.0865034
0.654139 0.205234 0.0890822
0.688334 0.212314 0.0915541
0.72224 0.219486 0.094255
0.7561 0.226947 0.0969711
0.78854 0.234531 0.0996567
0.819272 0.242054 0.102083
0.848661 0.249516 0.104677
0.876783 0.256992 0.107073
0.894148 0.258183 0.107301
0.91043 0.258747 0.107332
0.926329 0.259174 0.107362
0.941756 0.261112 0.108812
0.0648966 0.14374 0.09337
0.0748455 0.144228 0.0939651
0.0866255 0.145327 0.0953689
0.100343 0.147585 0.0976577
0.11426 0.150134 0.0996109
0.128222 0.153903 0.100862
0.143404 0.158541 0.0990768
0.163333 0.163653 0.0906081
0.193378 0.166873 0.0822156
0.231327 0.16846 0.0780346
0.271015 0.170367 0.075227
0.307393 0.173281 0.0752117
0.342412 0.177035 0.0762036
0.377844 0.181048 0.0775921
0.412894 0.185565 0.0793927
0.447852 0.190295 0.0814527
0.482475 0.195453 0.0832532
0.51696 0.20116 0.0856031
0.551583 0.206928 0.0881208
0.585946 0.213001 0.0903029
0.620203 0.219547 0.0928511
0.654337 0.226368 0.0953536
0.68838 0.233143 0.0979782
0.722652 0.240467 0.10071
0.756237 0.247791 0.103273
0.788495 0.255131 0.105776
0.819409 0.262562 0.108324
0.848768 0.269795 0.110735
0.876844 0.276875 0.112779
0.895338 0.278828 0.113191
0.911192 0.279011 0.112963
0.92726 0.279454 0.112947
0.942519 0.281529 0.115236
0.0779278 0.169421 0.109361
0.0879988 0.169757 0.109895
0.099382 0.170657 0.110811
0.112535 0.172183 0.112413
0.126055 0.174166 0.114153
0.139864 0.177111 0.115358
0.153933 0.181262 0.11519
0.170169 0.186099 0.112474
0.192416 0.191928 0.101839
0.224781 0.195361 0.0934768
0.264698 0.196933 0.0890059
0.306004 0.198657 0.0856947
0.343877 0.201602 0.0844892
0.378927 0.205432 0.0858167
0.413565 0.209537 0.0873579
0.448188 0.214145 0.0888228
0.482719 0.219059 0.0907607
0.517464 0.224491 0.0929274
0.551797 0.230106 0.0948959
0.586419 0.23624 0.0973373
0.620691 0.242481 0.0997177
0.654704 0.248951 0.10219
0.688884 0.255741 0.104845
0.722957 0.262791 0.107317
0.756436 0.269673 0.10985
0.788876 0.276951 0.112352
0.819608 0.283879 0.114717
0.848936 0.290684 0.116915
0.877119 0.297749 0.119249
0.89659 0.299901 0.119905
0.912642 0.300374 0.119905
0.928283 0.300465 0.1196
0.943694 0.303044 0.122515
0.0912032 0.194827 0.124346
0.100999 0.195117 0.124773
0.112093 0.195789 0.125566
0.125093 0.197345 0.126925
0.138415 0.199054 0.128496
0.15201 0.201663 0.1299
0.165896 0.205554 0.130861
0.180591 0.210468 0.129595
0.198383 0.215824 0.125414
0.223239 0.22182 0.113741
0.257816 0.225681 0.105791
0.298848 0.227573 0.101045
0.340627 0.229328 0.0975357
0.379812 0.231739 0.0948806
0.415152 0.235782 0.0958419
0.449241 0.240162 0.0973068
0.483635 0.244877 0.09897
0.518181 0.249928 0.10074
0.552758 0.255314 0.102754
0.586999 0.260899 0.104891
0.62118 0.267079 0.107103
0.655329 0.273182 0.109407
0.689525 0.279713 0.111696
0.7234 0.286061 0.114061
0.756893 0.292699 0.116533
0.789151 0.299474 0.119005
0.819837 0.306035 0.121263
0.849622 0.312825 0.123659
0.877562 0.319417 0.125841
0.89781 0.32195 0.126619
0.913924 0.322301 0.126558
0.929793 0.322698 0.126558
0.944839 0.325063 0.130007
0.105287 0.221805 0.140169
0.115084 0.222095 0.140597
0.125765 0.222461 0.141131
0.138476 0.22388 0.142733
0.151324 0.22565 0.143984
0.164782 0.227985 0.145449
0.178836 0.231495 0.146944
0.193469 0.236332 0.147311
0.209537 0.24181 0.145129
0.229236 0.247929 0.138796
0.256245 0.254032 0.126116
0.29189 0.258152 0.119036
0.333165 0.260258 0.114061
0.374533 0.262135 0.110216
0.414267 0.264256 0.10663
0.451225 0.267857 0.106783
0.48513 0.272343 0.107774
0.519432 0.277012 0.1093
0.553964 0.28217 0.111009
0.587869 0.287251 0.112871
0.622019 0.292866 0.114961
0.656107 0.298375 0.116793
0.690379 0.304417 0.119127
0.724102 0.310323 0.121462
0.757824 0.316732 0.123857
0.789944 0.322789 0.126101
0.820432 0.329015 0.128298
0.850034 0.335546 0.130739
0.878157 0.341695 0.132921
0.899229 0.344808 0.133639
0.915282 0.345068 0.133639
0.931167 0.345327 0.133532
0.94612 0.347829 0.138079
0.119905 0.250141 0.157259
0.129473 0.25034 0.15761
0.1402 0.250935 0.158267
0.15256 0.252232 0.159518
0.165103 0.253574 0.160586
0.17882 0.255848 0.162173
0.192981 0.259251 0.163897
0.207797 0.263859 0.165255
0.222873 0.269154 0.164492
0.240711 0.275166 0.161517
0.261982 0.281804 0.153002
0.290822 0.287892 0.140124
0.326238 0.292073 0.132647
0.367041 0.294453 0.127413
0.40824 0.296407 0.123278
0.448081 0.298177 0.119524
0.486534 0.300984 0.117861
0.521263 0.305226 0.118517
0.554971 0.309438 0.119768
0.589303 0.314366 0.121263
0.623285 0.319478 0.12311
0.65716 0.324468 0.124987
0.691234 0.330007 0.127108
0.725078 0.335531 0.129274
0.758618 0.341314 0.131563
0.790616 0.347204 0.133623
0.821271 0.352987 0.13576
0.850568 0.359121 0.13817
0.878752 0.365087 0.140169
0.901091 0.36849 0.141482
0.916991 0.368627 0.141329
0.932876 0.36875 0.141115
0.947463 0.371359 0.146532
0.134646 0.2795 0.174807
0.144533 0.27985 0.17525
0.154971 0.280324 0.175845
0.1673 0.28159 0.177111
0.179782 0.282704 0.178164
0.193332 0.284916 0.179629
0.207553 0.28806 0.181415
0.222354 0.292165 0.183093
0.237659 0.297322 0.183658
0.254032 0.303166 0.181933
0.273487 0.30927 0.17847
0.296056 0.315999 0.167361
0.325826 0.321981 0.154604
0.360708 0.325902 0.146761
0.400671 0.328298 0.141222
0.441688 0.330175 0.13669
0.481758 0.332128 0.132784
0.520897 0.334264 0.129656
0.557183 0.337728 0.129351
0.591165 0.342168 0.130755
0.624598 0.346532 0.132036
0.658503 0.351415 0.133822
0.692088 0.35613 0.135653
0.726146 0.361563 0.137789
0.759396 0.366781 0.139574
0.791501 0.372351 0.141833
0.822187 0.377752 0.14403
0.851545 0.383398 0.146105
0.879469 0.389013 0.148241
0.902647 0.392813 0.149432
0.918654 0.392844 0.149279
0.934386 0.39295 0.149142
0.949111 0.395544 0.155749
0.150027 0.309468 0.19324
0.160006 0.309865 0.193729
0.170428 0.310292 0.194278
0.182696 0.311391 0.195331
0.195163 0.312673 0.196445
0.208652 0.314504 0.197803
0.222873 0.317189 0.199512
0.237583 0.320912 0.201328
0.252934 0.325643 0.202808
0.268849 0.331044 0.202289
0.286641 0.337133 0.199619
0.30695 0.343114 0.195178
0.330266 0.349874 0.182101
0.360586 0.355718 0.169146
0.395224 0.35967 0.161196
0.434333 0.362097 0.155581
0.475074 0.363912 0.150408
0.515251 0.365743 0.14638
0.554742 0.367727 0.142718
0.592538 0.370382 0.140856
0.626566 0.374502 0.141909
0.660136 0.378866 0.143328
0.693751 0.383398 0.144869
0.727443 0.388205 0.146731
0.760586 0.393027 0.148577
0.792721 0.398169 0.150622
0.823102 0.403067 0.152529
0.852491 0.408484 0.154803
0.880293 0.413703 0.156497
0.904662 0.417792 0.157961
0.920562 0.417823 0.157839
0.936339 0.417792 0.157671
0.950729 0.420508 0.165301
0.165957 0.339422 0.212039
0.175814 0.339864 0.212573
0.186282 0.3402 0.212955
0.198352 0.341161 0.213947
0.210895 0.342367 0.215015
0.224369 0.343908 0.216434
0.238422 0.346303 0.217945
0.25333 0.349599 0.219944
0.268803 0.353979 0.221592
0.284535 0.35906 0.222126
0.301091 0.364828 0.220783
0.319615 0.370855 0.217533
0.340337 0.376883 0.211505
0.364523 0.383642 0.197436
0.395117 0.389166 0.184268
0.429191 0.393194 0.176287
0.467933 0.395758 0.170596
0.508568 0.397406 0.164752
0.54873 0.399115 0.160357
0.587961 0.401038 0.156497
0.62678 0.403342 0.153613
0.662287 0.406699 0.153704
0.695705 0.41091 0.155047
0.729152 0.41532 0.156466
0.762036 0.419959 0.158145
0.793805 0.424521 0.15996
0.824399 0.429206 0.161807
0.853559 0.434318 0.163729
0.881224 0.439063 0.165515
0.906813 0.443534 0.167269
0.922606 0.443503 0.167071
0.938109 0.443275 0.166705
0.952453 0.446235 0.174975
0.182254 0.369253 0.231128
0.192172 0.36939 0.231281
0.202564 0.369848 0.231724
0.214786 0.370748 0.232731
0.227314 0.371679 0.23357
0.240482 0.373022 0.234577
0.254627 0.375418 0.236362
0.26949 0.378439 0.238224
0.284855 0.382498 0.240177
0.300221 0.387121 0.241215
0.316365 0.392554 0.240909
0.333501 0.398413 0.238743
0.352575 0.404242 0.235142
0.373709 0.410498 0.22739
0.398535 0.417029 0.21265
0.429206 0.422415 0.199695
0.463035 0.426322 0.191638
0.50132 0.428901 0.185702
0.542092 0.430671 0.179538
0.582025 0.432288 0.17467
0.621271 0.434211 0.17084
0.660243 0.436271 0.167117
0.697307 0.439033 0.165713
0.731151 0.442985 0.167102
0.76376 0.447181 0.168109
0.795422 0.451484 0.169818
0.825879 0.455985 0.171618
0.854658 0.460517 0.173342
0.88246 0.465126 0.174884
0.908843 0.469795 0.176761
0.92459 0.469459 0.176287
0.940124 0.469291 0.176013
0.954177 0.472251 0.185428
0.198962 0.398642 0.249699
0.20911 0.398978 0.250065
0.219593 0.39939 0.250431
0.231662 0.400275 0.251255
0.243977 0.401266 0.252186
0.25684 0.402304 0.252964
0.270939 0.404349 0.254673
0.285451 0.407279 0.256596
0.300847 0.411063 0.25864
0.316258 0.415396 0.260044
0.332021 0.420325 0.260426
0.348348 0.425986 0.259419
0.365988 0.431861 0.256672
0.385657 0.437583 0.252781
0.407019 0.443992 0.243168
0.432563 0.450294 0.22829
0.463325 0.455558 0.215747
0.497108 0.459464 0.207523
0.534524 0.462028 0.20148
0.575341 0.463783 0.194827
0.61532 0.465507 0.189776
0.654521 0.467262 0.185641
0.693248 0.469062 0.181445
0.731655 0.471427 0.178515
0.76611 0.47483 0.179553
0.797406 0.478935 0.180575
0.82739 0.482979 0.181888
0.856062 0.487251 0.183368
0.883741 0.491722 0.185
0.910246 0.49601 0.186511
0.926543 0.49601 0.186221
0.942214 0.495872 0.185885
0.955917 0.498772 0.196445
0.216281 0.428153 0.268299
0.2262 0.428504 0.268757
0.236545 0.428946 0.269261
0.248447 0.429755 0.269902
0.260655 0.430381 0.270497
0.273518 0.431388 0.271366
0.287297 0.433402 0.272877
0.301671 0.436118 0.274784
0.316747 0.43946 0.276768
0.332158 0.443503 0.278614
0.347662 0.448203 0.279438
0.363561 0.453437 0.279133
0.38024 0.459129 0.277333
0.398276 0.464958 0.27425
0.418448 0.470634 0.269856
0.440223 0.477226 0.258473
0.4663 0.483284 0.243793
0.497322 0.488518 0.231479
0.531121 0.4925 0.223636
0.567605 0.495048 0.217731
0.608423 0.496696 0.21059
0.648341 0.498466 0.205234
0.68777 0.500237 0.200793
0.726314 0.501976 0.196674
0.764645 0.504005 0.192447
0.798932 0.506859 0.192187
0.829343 0.510521 0.193133
0.857908 0.514519 0.1944
0.885161 0.518547 0.195514
0.911513 0.522545 0.196902
0.928801 0.52314 0.196735
0.944152 0.522789 0.196124
0.957839 0.525887 0.208377
0.233463 0.457588 0.287053
0.243549 0.457877 0.287449
0.253513 0.458259 0.287892
0.265415 0.4589 0.288563
0.277195 0.459495 0.289067
0.290059 0.460685 0.289845
0.303517 0.462379 0.291127
0.317662 0.464729 0.292943
0.332387 0.467842 0.294896
0.347906 0.471672 0.296818
0.363516 0.476036 0.298161
0.378927 0.480964 0.29839
0.395056 0.486397 0.297551
0.412116 0.49218 0.295247
0.430625 0.497932 0.291676
0.451041 0.503685 0.286351
0.47335 0.510216 0.273869
0.500023 0.516197 0.25922
0.531136 0.521233 0.247181
0.564797 0.525246 0.239307
0.600961 0.528084 0.23389
0.641566 0.52961 0.226368
0.681254 0.531258 0.220829
0.720623 0.532967 0.216236
0.759243 0.534844 0.212268
0.795666 0.53666 0.20824
0.829633 0.538781 0.205753
0.859815 0.541955 0.206287
0.886824 0.545754 0.207065
0.913008 0.549661 0.208225
0.930755 0.550362 0.207889
0.946303 0.550057 0.207233
0.959609 0.553109 0.221164
0.250492 0.4869 0.305547
0.260471 0.48716 0.305898
0.270604 0.487465 0.306249
0.281926 0.487984 0.306767
0.293935 0.488746 0.307485
0.306615 0.489647 0.308309
0.319905 0.491173 0.309361
0.333761 0.49337 0.310918
0.348257 0.496223 0.312856
0.363592 0.49984 0.314992
0.379019 0.504005 0.316609
0.394461 0.508659 0.317372
0.410224 0.513787 0.317189
0.426505 0.519356 0.315709
0.444022 0.525154 0.312932
0.463111 0.530831 0.309148
0.483772 0.536812 0.302495
0.506462 0.543191 0.289204
0.533623 0.548928 0.274708
0.564858 0.553796 0.262898
0.598337 0.557855 0.255177
0.634211 0.560906 0.25005
0.674556 0.562371 0.242329
0.714168 0.563821 0.236439
0.753429 0.565469 0.231571
0.790494 0.567269 0.227726
0.825483 0.5691 0.224018
0.858412 0.570947 0.220218
0.888258 0.573358 0.219165
0.914611 0.576806 0.219959
0.933013 0.577844 0.219547
0.948241 0.577585 0.218784
0.961395 0.580957 0.235111
0.26746 0.51606 0.323934
0.277302 0.516197 0.324178
0.28748 0.516564 0.324697
0.298894 0.517205 0.325429
0.310658 0.517815 0.326024
0.322911 0.518532 0.326589
0.335836 0.519844 0.327428
0.349676 0.522057 0.329
0.364096 0.524651 0.330953
0.379126 0.52813 0.333104
0.394553 0.531868 0.334722
0.410178 0.536233 0.335973
0.425635 0.541405 0.336461
0.441749 0.546853 0.335943
0.458488 0.552499 0.33402
0.476234 0.558221 0.330724
0.495735 0.56379 0.326925
0.516579 0.569879 0.318669
0.539864 0.576226 0.304707
0.567132 0.581643 0.290257
0.598474 0.586419 0.278492
0.63183 0.590295 0.270817
0.667414 0.593286 0.265507
0.707439 0.594873 0.25803
0.747204 0.596384 0.252003
0.784909 0.597818 0.247044
0.820417 0.599466 0.243397
0.853773 0.601328 0.239643
0.885267 0.603174 0.236286
0.914794 0.605081 0.233555
0.934859 0.605554 0.232258
0.950408 0.605447 0.231235
0.962905 0.608835 0.249592
0.284291 0.545113 0.342458
0.294179 0.545251 0.342687
0.304402 0.545663 0.343145
0.315496 0.546273 0.343771
0.327077 0.546914 0.344335
0.33933 0.547524 0.344823
0.352071 0.548577 0.345647
0.365896 0.550637 0.347204
0.380026 0.55314 0.348882
0.395132 0.556466 0.351247
0.410346 0.560189 0.353094
0.425803 0.564324 0.354604
0.441245 0.568841 0.355398
0.456901 0.573968 0.3552
0.47303 0.579568 0.354147
0.489967 0.585168 0.351736
0.508202 0.590814 0.348135
0.528161 0.596307 0.34406
0.549081 0.602533 0.33434
0.572976 0.608865 0.320211
0.600519 0.614176 0.305821
0.631998 0.61886 0.294286
0.665202 0.62269 0.286702
0.700374 0.625589 0.281254
0.740185 0.627344 0.273915
0.779034 0.628824 0.267918
0.815 0.630259 0.26302
0.848875 0.631693 0.2589
0.880827 0.633448 0.255528
0.911009 0.635233 0.252125
0.935149 0.635508 0.249012
0.951507 0.633829 0.246586
0.964187 0.637232 0.265431
0.301167 0.574228 0.360861
0.311009 0.574456 0.361151
0.321202 0.574838 0.361593
0.332067 0.575418 0.362173
0.343633 0.57586 0.362615
0.355535 0.576272 0.363012
0.368322 0.577371 0.363928
0.381811 0.579355 0.365469
0.395834 0.58175 0.367041
0.410712 0.584756 0.369192
0.42594 0.588266 0.371267
0.441367 0.592111 0.372793
0.456855 0.59649 0.373983
0.472267 0.601465 0.374517
0.488029 0.606622 0.373892
0.504448 0.612116 0.372183
0.521584 0.6177 0.369299
0.540185 0.623255 0.365698
0.560357 0.628824 0.360632
0.581521 0.635111 0.349767
0.605905 0.641367 0.335317
0.634028 0.646662 0.321355
0.665125 0.651133 0.309758
0.698329 0.654948 0.302296
0.733288 0.65803 0.297002
0.772045 0.659586 0.289738
0.809201 0.661112 0.283711
0.843732 0.662623 0.27892
0.876265 0.663905 0.274861
0.906569 0.665461 0.27129
0.934112 0.666728 0.26836
0.950515 0.664866 0.265827
0.964034 0.66656 0.284443
0.317922 0.603189 0.379232
0.328099 0.60351 0.379705
0.338018 0.6038 0.380041
0.348775 0.604288 0.380575
0.360067 0.604669 0.380926
0.371923 0.605097 0.381216
0.384543 0.606134 0.38204
0.397986 0.608042 0.383551
0.411917 0.610147 0.385214
0.426337 0.612894 0.386923
0.441611 0.61619 0.389136
0.456687 0.619944 0.391012
0.472145 0.624018 0.392218
0.487678 0.628717 0.39324
0.503166 0.633631 0.393072
0.518914 0.638941 0.391974
0.535515 0.64445 0.389914
0.553063 0.650065 0.386633
0.572244 0.655467 0.382818
0.592447 0.661143 0.376867
0.613947 0.667536 0.365072
0.638773 0.673671 0.3505
0.66714 0.678798 0.336568
0.698329 0.683284 0.325399
0.731441 0.686931 0.317906
0.765209 0.69012 0.312856
0.802563 0.691798 0.305791
0.837873 0.693111 0.299657
0.871031 0.694545 0.294835
0.90219 0.696071 0.290776
0.931441 0.697566 0.287465
0.948318 0.696315 0.286198
0.96199 0.697124 0.302831
0.3346 0.632013 0.397665
0.34461 0.632334 0.39794
0.354711 0.632639 0.398215
0.364981 0.632914 0.398535
0.376425 0.633356 0.398947
0.388144 0.633875 0.399344
0.400656 0.634852 0.400122
0.41384 0.636301 0.401465
0.427619 0.638544 0.403143
0.44181 0.641093 0.4047
0.456992 0.644297 0.406928
0.47219 0.647745 0.408881
0.487495 0.651637 0.410422
0.502953 0.656123 0.411597
0.518227 0.660777 0.411917
0.533852 0.665888 0.411399
0.549981 0.671199 0.410025
0.566796 0.676844 0.407462
0.58471 0.682383 0.403952
0.604257 0.687755 0.399969
0.624659 0.693477 0.39266
0.646479 0.699931 0.380179
0.671626 0.705913 0.365713
0.700099 0.710826 0.351827
0.731441 0.715282 0.34081
0.764141 0.719005 0.333654
0.796185 0.72192 0.328267
0.831403 0.723766 0.321736
0.865415 0.725155 0.315679
0.897017 0.726452 0.310719
0.926863 0.727855 0.306798
0.945159 0.727886 0.308629
0.959182 0.727657 0.322011
0.351202 0.660899 0.415854
0.361135 0.66125 0.416251
0.371145 0.661357 0.41648
0.381537 0.661677 0.416815
0.392859 0.662135 0.417182
0.404532 0.66273 0.41767
0.416983 0.663447 0.418189
0.42974 0.664668 0.419135
0.443412 0.666773 0.420813
0.457618 0.669169 0.422644
0.47248 0.672236 0.424552
0.487511 0.675502 0.426627
0.502647 0.67924 0.428351
0.518242 0.683543 0.429694
0.533623 0.688075 0.430503
0.548943 0.692897 0.430365
0.564553 0.69807 0.42948
0.580896 0.703471 0.427695
0.59791 0.708949 0.424613
0.616297 0.714443 0.421073
0.636057 0.719692 0.416846
0.65658 0.725734 0.408331
0.678782 0.732067 0.395239
0.704265 0.737942 0.380591
0.733089 0.742885 0.366827
0.764111 0.747204 0.356329
0.795514 0.750729 0.349081
0.826215 0.75375 0.343969
0.859052 0.755566 0.337972
0.891447 0.756878 0.331868
0.921111 0.758434 0.328984
0.940673 0.758923 0.332815
0.956161 0.758144 0.342153
0.367559 0.689296 0.433829
0.377539 0.689433 0.434028
0.38761 0.689845 0.434485
0.397665 0.69015 0.434806
0.408988 0.690654 0.435248
0.420615 0.691096 0.435615
0.432746 0.691722 0.436011
0.445457 0.692943 0.436866
0.459083 0.694896 0.43856
0.472984 0.697139 0.440192
0.487678 0.700084 0.4421
0.502861 0.703273 0.444205
0.518013 0.706798 0.446067
0.533425 0.710887 0.447745
0.548608 0.715221 0.448569
0.563836 0.719738 0.448905
0.579248 0.724636 0.448325
0.595209 0.729824 0.447211
0.611627 0.735348 0.444862
0.629145 0.740871 0.441718
0.647837 0.74638 0.437964
0.667796 0.751736 0.433356
0.688502 0.757794 0.423423
0.710979 0.763867 0.409796
0.736782 0.769482 0.395148
0.765454 0.774136 0.381659
0.795468 0.77818 0.371466
0.825605 0.781521 0.364401
0.854963 0.784436 0.359243
0.88542 0.786358 0.353552
0.915373 0.787701 0.351324
0.936492 0.788418 0.356542
0.953262 0.787594 0.362844
0.383413 0.717021 0.451041
0.39324 0.717205 0.45127
0.403433 0.717693 0.451743
0.413565 0.718029 0.452125
0.424674 0.718502 0.452567
0.436103 0.718929 0.452934
0.448264 0.719448 0.453285
0.460853 0.720485 0.454108
0.474327 0.722423 0.455604
0.488045 0.724529 0.457191
0.502831 0.727413 0.459403
0.517647 0.730434 0.461158
0.532876 0.733852 0.463233
0.547951 0.737697 0.464927
0.56321 0.741756 0.466102
0.578378 0.746075 0.466728
0.593668 0.750851 0.466682
0.609369 0.756115 0.466148
0.625422 0.761318 0.464302
0.642206 0.766751 0.461509
0.659907 0.772168 0.458076
0.678859 0.777432 0.454139
0.698878 0.782803 0.448402
0.719783 0.788754 0.437583
