code/data/lut/31饱和蓝调2.cube
TITLE "LD - Dark Monochrome 2"
# Copyright (c) 2019 Lens Distortions, LLC. All Rights Reserved.
# LensDistortions.com
# ref-DM6
LUT_3D_SIZE 9
0.0290379 0.0352178 0.0408179
0.064683 0.0412604 0.047837
0.156985 0.0577554 0.0567941
0.2963 0.0834211 0.0698405
0.432517 0.107851 0.0787671
0.567315 0.133593 0.0887007
0.705715 0.162585 0.100893
0.821424 0.191775 0.111818
0.867308 0.194324 0.112184
0.057557 0.0793927 0.0785534
0.0780804 0.0894331 0.0875868
0.164553 0.105852 0.0755932
0.293843 0.124422 0.0814527
0.429572 0.147494 0.0901808
0.566766 0.174472 0.100023
0.706127 0.206561 0.11136
0.828733 0.242542 0.124804
0.874937 0.246296 0.125841
0.111254 0.158175 0.147433
0.129747 0.163333 0.1523
0.163485 0.183154 0.149844
0.294484 0.200153 0.120592
0.433082 0.218616 0.122576
0.57116 0.24419 0.131289
0.711421 0.274617 0.142107
0.834638 0.307317 0.153475
0.885054 0.314153 0.158206
0.18027 0.259266 0.230076
0.197452 0.26331 0.234089
0.229999 0.279454 0.24242
0.286137 0.309392 0.219638
0.426856 0.327428 0.184268
0.583307 0.34052 0.174868
0.721859 0.363836 0.183246
0.843915 0.390387 0.1935
0.898146 0.399329 0.204196
0.26128 0.369207 0.322621
0.277913 0.372335 0.325643
0.309255 0.38439 0.334157
0.350347 0.410117 0.33608
0.420676 0.442039 0.297597
0.56527 0.46038 0.260029
0.732876 0.470192 0.239521
0.856001 0.48986 0.244175
0.912077 0.500084 0.259892
0.346914 0.482902 0.418509
0.362402 0.485512 0.421317
0.390967 0.494377 0.427863
0.430732 0.515938 0.437339
0.478614 0.545922 0.429709
0.560037 0.577935 0.378698
0.706081 0.596704 0.341482
0.856031 0.60557 0.320363
0.924407 0.611353 0.332967
0.434974 0.599176 0.517372
0.449577 0.601221 0.519448
0.475715 0.607889 0.524742
0.513954 0.62565 0.535821
0.556191 0.651926 0.538521
0.611688 0.682292 0.523919
0.701793 0.714992 0.461601
0.832288 0.733471 0.426871
0.919615 0.737804 0.432929
0.51957 0.710033 0.611902
0.533532 0.712428 0.614343
0.558343 0.717891 0.618616
0.594995 0.732891 0.629343
0.635813 0.755047 0.637339
0.681254 0.782986 0.632685
0.743374 0.811872 0.607904
0.831968 0.838773 0.540887
0.910384 0.850401 0.543145
0.577203 0.784894 0.675303
0.59266 0.78941 0.680095
0.617578 0.795743 0.685496
0.659709 0.811154 0.700847
0.71014 0.832197 0.719448
0.752209 0.855894 0.724849
0.801862 0.881117 0.720623
0.861128 0.904768 0.698604
0.920745 0.921599 0.667323
0.0305486 0.0379034 0.0680858
0.0602121 0.0446479 0.0848707
0.152026 0.0601816 0.105608
0.291096 0.0838483 0.120333
0.427192 0.107103 0.127474
0.56318 0.132753 0.133516
0.702266 0.16083 0.141772
0.82005 0.190295 0.149706
0.866041 0.192782 0.149569
0.0502632 0.085359 0.0988632
0.0750134 0.092958 0.107362
0.150393 0.107515 0.11986
0.266957 0.126284 0.128786
0.406973 0.149248 0.136294
0.551156 0.175753 0.142321
0.697658 0.206729 0.149477
0.824979 0.241688 0.157855
0.873549 0.245426 0.157946
0.106188 0.1626 0.159564
0.133547 0.164355 0.165972
0.167498 0.181491 0.17882
0.300786 0.196628 0.154086
0.431495 0.21651 0.158953
0.569238 0.242435 0.164096
0.711025 0.272679 0.172122
0.833524 0.305531 0.182422
0.884092 0.314 0.187961
0.178607 0.263081 0.242405
0.20737 0.262699 0.250553
0.238041 0.278096 0.264271
0.287419 0.306584 0.260273
0.458366 0.318685 0.202548
0.588769 0.337697 0.205951
0.726406 0.361196 0.212329
0.84538 0.388235 0.221683
0.897475 0.399573 0.231205
0.2607 0.37232 0.334676
0.284779 0.371939 0.34023
0.317876 0.384817 0.352361
0.357885 0.407965 0.364691
0.422019 0.44036 0.333043
0.582727 0.455421 0.280339
0.741176 0.466773 0.267628
0.859358 0.487175 0.27219
0.911315 0.500145 0.285267
0.346899 0.485863 0.430747
0.365591 0.486091 0.433875
0.397894 0.495857 0.44445
0.437797 0.515465 0.456748
0.48278 0.544533 0.457908
0.560159 0.576989 0.409659
0.71046 0.594705 0.364736
0.861051 0.602594 0.342718
0.924346 0.611399 0.355032
0.435386 0.601892 0.52932
0.450919 0.603647 0.532067
0.479271 0.609751 0.538247
0.519203 0.626093 0.551064
0.562646 0.651194 0.559823
0.614511 0.682155 0.548608
0.701381 0.714626 0.488533
0.833997 0.732265 0.449683
0.92079 0.737179 0.453864
0.520073 0.712886 0.623758
0.535149 0.714931 0.626703
0.560845 0.719539 0.631388
0.599313 0.733928 0.643442
0.642161 0.755047 0.655482
0.686427 0.782025 0.655558
0.745495 0.811063 0.635691
0.831418 0.838376 0.567193
0.911727 0.850294 0.564843
0.578836 0.788403 0.688533
0.59472 0.792508 0.693187
0.620539 0.798291 0.699031
0.664179 0.813245 0.715206
0.716014 0.832914 0.735592
0.758007 0.856092 0.744793
0.805447 0.881651 0.743053
0.862867 0.905226 0.724895
0.921599 0.922438 0.690776
0.0355993 0.0448157 0.110658
0.0615854 0.0512703 0.131395
0.140154 0.0683146 0.158526
0.281346 0.0893873 0.193713
0.417105 0.111315 0.19968
0.556481 0.135363 0.20679
0.697246 0.162325 0.216449
0.816617 0.192142 0.226307
0.862943 0.194553 0.225757
0.0517586 0.092195 0.145296
0.0729686 0.10071 0.146624
0.144015 0.112123 0.176074
0.267536 0.129244 0.186923
0.406958 0.150988 0.198337
0.550256 0.176287 0.209964
0.694423 0.207477 0.219699
0.82063 0.24271 0.228733
0.870588 0.246738 0.228901
0.0930953 0.173236 0.192126
0.118151 0.173022 0.2056
0.164874 0.186847 0.204837
0.264622 0.204135 0.212268
0.401038 0.222919 0.221561
0.527703 0.251347 0.233402
0.67097 0.281392 0.245274
0.806943 0.313649 0.255558
0.88191 0.315145 0.242741
0.168109 0.27126 0.263096
0.197681 0.270191 0.269368
0.244648 0.282811 0.281178
0.291981 0.307424 0.296193
0.439811 0.32166 0.261357
0.569818 0.340734 0.268254
0.708339 0.36437 0.277089
0.832914 0.391424 0.284672
0.895674 0.400458 0.279835
0.254475 0.378759 0.351461
0.283055 0.377295 0.355596
0.333333 0.388602 0.373922
0.367987 0.407919 0.39089
0.421866 0.438773 0.381964
0.623133 0.445212 0.315022
0.74229 0.465354 0.321492
0.857313 0.486473 0.326146
0.909636 0.500755 0.328405
0.343511 0.491081 0.446067
0.364141 0.490455 0.448463
0.425284 0.499702 0.471321
0.455833 0.516304 0.485512
0.491142 0.53962 0.501778
0.560525 0.573587 0.464775
0.795193 0.572915 0.373556
0.881651 0.593774 0.376822
0.923934 0.611521 0.388815
0.433066 0.606363 0.543633
0.449897 0.60763 0.545922
0.50515 0.612863 0.56466
0.539696 0.627985 0.578653
0.577081 0.64921 0.591913
0.6168 0.677501 0.59791
0.70547 0.710597 0.538491
0.894301 0.711757 0.462257
0.922499 0.736416 0.483284
0.51902 0.717174 0.638086
0.534585 0.718624 0.640208
0.581827 0.72372 0.655283
0.617716 0.737331 0.66862
0.656901 0.75584 0.681819
0.698177 0.780026 0.690669
0.746029 0.807889 0.685344
0.833478 0.835523 0.624262
0.91342 0.850355 0.59115
0.57882 0.792767 0.7028
0.595422 0.796704 0.707652
0.623224 0.802014 0.713878
0.668742 0.8159 0.73051
0.722515 0.834852 0.752346
0.764736 0.857008 0.764523
0.810208 0.882078 0.766537
0.864713 0.905425 0.752819
0.922347 0.923232 0.71664
0.0437781 0.0559396 0.167254
0.0708782 0.0618906 0.189532
0.143053 0.0780346 0.238361
0.253513 0.100481 0.260319
0.405539 0.118181 0.292561
0.542702 0.143343 0.300893
0.686381 0.169223 0.309316
0.811444 0.197559 0.318288
0.858579 0.199741 0.317327
0.0584726 0.102312 0.203311
0.0790417 0.111162 0.195285
0.129015 0.121828 0.240604
0.241062 0.139422 0.258061
0.393973 0.158206 0.286702
0.539345 0.183505 0.299229
0.686564 0.212543 0.31136
0.815976 0.24622 0.32166
0.867613 0.250446 0.321202
0.0907149 0.182544 0.254856
0.114656 0.182834 0.256413
0.158267 0.194171 0.261112
0.262852 0.208392 0.290623
0.399908 0.228031 0.292195
0.534295 0.253574 0.306676
0.676524 0.282567 0.319661
0.809476 0.315007 0.333989
0.879255 0.317922 0.334615
0.151247 0.284169 0.304356
0.174777 0.282765 0.313771
0.22388 0.293278 0.327245
0.290806 0.313039 0.329793
0.404105 0.330907 0.334401
0.536599 0.349874 0.340978
0.673915 0.37319 0.352026
0.797299 0.402808 0.365682
0.893294 0.402808 0.352636
0.237659 0.389334 0.37847
0.262852 0.387884 0.381018
0.315404 0.397711 0.399344
0.376425 0.413733 0.409232
0.426627 0.440726 0.422827
0.580987 0.454261 0.385595
0.715434 0.471611 0.39086
0.833432 0.49369 0.400198
0.90898 0.501701 0.389853
0.332753 0.49929 0.466682
0.356405 0.497612 0.467765
0.427466 0.50602 0.487617
0.465156 0.521401 0.502831
0.503334 0.543038 0.521584
0.561898 0.575402 0.504234
0.767727 0.57937 0.4392
0.867918 0.597803 0.442359
0.923018 0.612085 0.439231
0.426062 0.613092 0.56144
0.444907 0.613306 0.563195
0.505684 0.618051 0.579599
0.55761 0.632258 0.600092
0.590646 0.651255 0.615686
0.627375 0.676112 0.631861
0.702754 0.71043 0.586206
0.887968 0.710124 0.531518
0.924712 0.735454 0.524147
0.513954 0.722728 0.654108
0.53138 0.724163 0.656611
0.581994 0.728054 0.669657
0.651316 0.743267 0.698161
0.68011 0.758999 0.711009
0.71487 0.778805 0.727199
0.752239 0.803342 0.739239
0.832456 0.833509 0.681697
0.915648 0.849836 0.623423
0.576577 0.79881 0.719585
0.593576 0.802213 0.723857
0.623026 0.806546 0.729809
0.672145 0.819791 0.747158
0.728405 0.837354 0.768994
0.771832 0.858106 0.784634
0.816403 0.882719 0.792157
0.867628 0.906096 0.78378
0.923613 0.9243 0.746578
0.0538186 0.0694438 0.236881
0.082536 0.0752117 0.260441
0.14255 0.0898909 0.319219
0.253849 0.109941 0.338445
0.371313 0.131289 0.3579
0.531258 0.150408 0.394141
0.672251 0.179416 0.406668
0.801404 0.207645 0.415839
0.849775 0.209812 0.414893
0.067216 0.11519 0.271778
0.0902113 0.12314 0.264698
0.133806 0.131746 0.305425
0.226429 0.148074 0.347875
0.35964 0.171633 0.355505
0.527855 0.190997 0.394461
0.672038 0.223087 0.407385
0.805737 0.255207 0.418402
0.859556 0.2598 0.418112
0.0970779 0.190646 0.321233
0.120684 0.192844 0.313222
0.157839 0.205646 0.312444
0.232166 0.219287 0.366629
0.372183 0.239719 0.377295
0.52195 0.261692 0.398215
0.670497 0.290074 0.403616
0.805615 0.319997 0.419974
0.873457 0.324651 0.428992
0.144884 0.295811 0.366964
0.167086 0.294499 0.372
0.213931 0.301427 0.384512
0.28217 0.319814 0.391867
0.397787 0.335698 0.418143
0.540917 0.353811 0.411154
0.681819 0.375662 0.422065
0.805646 0.403357 0.438956
0.898833 0.399237 0.441886
0.217136 0.40238 0.421149
0.241367 0.401022 0.425467
0.290974 0.408148 0.45304
0.355383 0.424857 0.452674
0.42678 0.445869 0.460151
0.552316 0.461418 0.463691
0.670512 0.483268 0.464088
0.814054 0.500908 0.474998
0.91252 0.499596 0.463478
0.312871 0.511238 0.497276
0.334722 0.510216 0.498741
0.380118 0.517113 0.518456
0.442969 0.530816 0.532021
0.513085 0.548714 0.5411
0.566186 0.577447 0.548501
0.723445 0.589761 0.512306
0.845319 0.605081 0.51545
0.921004 0.613367 0.508385
0.412009 0.623148 0.585443
0.431403 0.62359 0.586709
0.492638 0.626444 0.60029
0.559777 0.638926 0.617823
0.60058 0.656092 0.634165
0.640894 0.679622 0.653559
0.704311 0.712535 0.627497
0.865064 0.717678 0.594324
0.927657 0.733898 0.576379
0.503929 0.731411 0.675105
0.522179 0.73228 0.67689
0.581521 0.73518 0.688609
0.655024 0.74873 0.713573
0.694011 0.76376 0.730236
0.730724 0.782513 0.747921
0.7673 0.805844 0.763836
0.831296 0.833783 0.729442
0.920043 0.849653 0.663493
0.569497 0.806607 0.739452
0.587533 0.809857 0.743297
0.619242 0.81323 0.748425
0.673106 0.825345 0.765408
0.733715 0.841581 0.787121
0.77995 0.860838 0.805005
0.824231 0.883589 0.818402
0.871534 0.907118 0.815595
0.925002 0.925765 0.780194
0.0648661 0.0847028 0.312306
0.0956588 0.0905928 0.335225
0.148943 0.103532 0.392218
0.25275 0.120577 0.424475
0.366567 0.143038 0.431052
0.49427 0.165499 0.458381
0.660716 0.186908 0.499092
0.790265 0.219333 0.51487
0.838956 0.222065 0.514687
0.077409 0.129564 0.343191
0.103227 0.133883 0.345602
0.14612 0.142397 0.377554
0.239261 0.157107 0.42948
0.362646 0.180407 0.438056
0.491234 0.207111 0.461784
0.662852 0.229999 0.50338
0.792813 0.266651 0.518044
0.84918 0.271763 0.518441
0.105028 0.200671 0.385779
0.12929 0.201694 0.38471
0.164462 0.218692 0.370169
0.215274 0.230594 0.426139
0.35172 0.249454 0.46717
0.489052 0.276814 0.471672
0.650462 0.300084 0.500877
0.792584 0.330602 0.512901
0.863462 0.334966 0.528252
0.147646 0.304311 0.435203
0.170306 0.304387 0.434958
0.21239 0.3131 0.432822
0.272587 0.331304 0.442084
0.370321 0.343572 0.504143
0.513664 0.364065 0.506615
0.665034 0.384024 0.520729
0.800855 0.41033 0.521569
0.890211 0.407294 0.543832
0.206897 0.414588 0.483177
0.229435 0.414054 0.487511
0.277073 0.417227 0.508949
0.342748 0.432029 0.516716
0.41944 0.451316 0.52755
0.532479 0.468864 0.550027
0.685023 0.484596 0.53962
0.820035 0.503807 0.541222
0.907805 0.503136 0.565927
0.291127 0.524376 0.541817
0.313344 0.523751 0.543725
0.362661 0.528786 0.567544
0.423713 0.541238 0.588968
0.491615 0.560296 0.58027
0.566629 0.581643 0.592798
0.702464 0.595102 0.596704
0.827573 0.612528 0.582193
0.918196 0.615 0.594247
0.390219 0.635538 0.619089
0.409995 0.635401 0.619547
0.450904 0.63856 0.634241
0.50454 0.65124 0.658671
0.57673 0.666087 0.665187
0.651835 0.685161 0.674281
0.7093 0.71516 0.67274
0.846571 0.725673 0.649485
0.927474 0.734951 0.640986
0.486641 0.742367 0.702098
0.505776 0.743099 0.703212
0.555566 0.744869 0.712154
0.631373 0.757382 0.736767
0.69868 0.77026 0.749447
0.742061 0.787427 0.766873
0.77995 0.809293 0.785794
0.832929 0.836271 0.768383
0.925093 0.848692 0.713237
0.557549 0.816831 0.763943
0.576257 0.81973 0.767163
0.609247 0.822614 0.770855
0.668101 0.833021 0.785672
0.734524 0.84741 0.805447
0.786145 0.864591 0.82472
0.833173 0.885451 0.84303
0.876387 0.908705 0.847898
0.926879 0.927565 0.817548
0.0763409 0.100801 0.388739
0.108995 0.106401 0.411429
0.158923 0.117876 0.46041
0.249668 0.132677 0.504662
0.370108 0.153155 0.518303
0.485161 0.178698 0.529534
0.62121 0.204578 0.562081
0.77818 0.228321 0.604028
0.833692 0.228779 0.6094
0.0884565 0.143938 0.415183
0.117113 0.145434 0.426474
0.162722 0.154223 0.45481
0.244282 0.168307 0.509575
0.371008 0.189914 0.528054
0.488609 0.218982 0.537881
0.62475 0.248539 0.56965
0.783108 0.273884 0.610224
0.844526 0.27866 0.61561
0.114336 0.212757 0.451881
0.138979 0.211765 0.457282
0.175479 0.233753 0.433371
0.2206 0.245136 0.483604
0.318624 0.263828 0.54905
0.469017 0.288808 0.552712
0.610636 0.318364 0.570504
0.776226 0.340566 0.608698
0.857252 0.342473 0.626322
0.154711 0.312795 0.503014
0.178408 0.312123 0.504982
0.219089 0.325109 0.49041
0.272877 0.343969 0.495811
0.338735 0.357122 0.557794
0.493599 0.372503 0.594736
0.634195 0.397498 0.601648
0.786084 0.418448 0.625742
0.881605 0.415244 0.646662
0.205951 0.424567 0.551766
0.228763 0.42414 0.554253
0.273487 0.429129 0.556451
0.335698 0.442542 0.567239
0.405463 0.462577 0.577768
0.516442 0.474434 0.636027
0.659846 0.493645 0.639643
0.802029 0.512001 0.647028
0.899718 0.509621 0.669276
0.278904 0.537652 0.603052
0.299779 0.537621 0.604715
0.345129 0.538521 0.6271
0.407813 0.548821 0.648264
0.478065 0.567575 0.6495
0.562631 0.586175 0.664256
0.667643 0.604883 0.683528
0.824811 0.615656 0.669871
0.912001 0.619242 0.694804
0.367407 0.649134 0.664454
0.387335 0.648981 0.664866
0.435035 0.651209 0.680537
0.494072 0.661173 0.711452
0.561608 0.676677 0.718166
0.630823 0.69688 0.70869
0.708232 0.718456 0.726192
0.832013 0.731731 0.719493
0.924056 0.736919 0.726696
0.463264 0.754772 0.737621
0.482444 0.755627 0.73843
0.523522 0.757107 0.747326
0.572305 0.768032 0.770596
0.661082 0.781491 0.787091
0.721187 0.796536 0.793057
0.789349 0.814435 0.804425
0.835203 0.839551 0.805005
0.930144 0.848005 0.775952
0.539666 0.828687 0.793561
0.558846 0.831174 0.796262
0.591531 0.833707 0.798596
0.655848 0.843488 0.81059
0.728008 0.856229 0.826703
0.785824 0.871183 0.844099
0.84062 0.889021 0.86479
0.884062 0.909957 0.879881
0.928908 0.929473 0.85774
0.0867018 0.114565 0.45745
0.12015 0.119844 0.479576
0.169085 0.130755 0.523522
0.248539 0.144274 0.577798
0.36878 0.164004 0.598367
0.488624 0.188846 0.606729
0.608972 0.218982 0.629252
0.740749 0.247822 0.66392
0.804288 0.24654 0.679576
0.0989395 0.157305 0.482017
0.128832 0.159121 0.493874
0.174746 0.167773 0.523293
0.245853 0.181445 0.582895
0.367559 0.202472 0.60911
0.493736 0.22887 0.620157
0.613352 0.262989 0.638849
0.745937 0.29337 0.672557
0.819471 0.294347 0.691402
0.123964 0.225803 0.517845
0.149142 0.22504 0.524575
0.188769 0.247288 0.507118
0.2336 0.25594 0.554421
0.324758 0.275013 0.615717
0.459205 0.298817 0.647623
0.598016 0.330632 0.647242
0.738705 0.359838 0.676051
0.838697 0.354925 0.709041
0.162264 0.32285 0.567102
0.186526 0.321706 0.570886
0.229526 0.335729 0.559136
0.279881 0.357351 0.556298
0.333135 0.373587 0.60473
0.447562 0.38616 0.682689
0.610285 0.409674 0.678141
0.751492 0.435691 0.69781
0.870314 0.423072 0.737697
0.211048 0.432532 0.619379
0.235492 0.43212 0.622889
0.278599 0.440269 0.612558
0.334813 0.454383 0.620478
0.399283 0.474968 0.630137
0.472877 0.488533 0.692317
0.639994 0.50161 0.723247
0.775021 0.524041 0.731777
0.892714 0.515282 0.764492
0.274907 0.54815 0.668452
0.296345 0.548012 0.670558
0.338109 0.549706 0.677821
0.397421 0.559609 0.693248
0.468803 0.576959 0.702312
0.533394 0.596933 0.72195
0.661082 0.60766 0.768078
0.801938 0.623407 0.771313
0.90634 0.623789 0.789731
0.354681 0.662211 0.721523
0.374136 0.662409 0.72253
0.415213 0.661952 0.735759
0.490562 0.669673 0.758541
0.563989 0.684398 0.76762
0.619852 0.703914 0.776928
0.693996 0.724407 0.79147
0.817746 0.73727 0.808042
0.917189 0.741054 0.818021
0.44155 0.766979 0.779034
0.460304 0.767956 0.779995
0.505882 0.76878 0.788632
0.612253 0.778759 0.807858
0.683284 0.790875 0.819226
0.731075 0.806363 0.827512
0.778851 0.824277 0.835721
0.838056 0.842466 0.846387
0.928786 0.849012 0.846464
0.519753 0.840375 0.827207
0.53817 0.843 0.829358
0.569253 0.845304 0.830976
0.638697 0.854994 0.840848
0.712245 0.866575 0.852888
0.773922 0.880308 0.866819
0.837217 0.895857 0.883452
0.891814 0.912566 0.901915
0.931228 0.931731 0.897276
0.0902724 0.118914 0.495048
0.123705 0.123949 0.516594
0.17229 0.134752 0.558724
0.24828 0.147768 0.616068
0.367849 0.167178 0.637705
0.490929 0.190951 0.649195
0.608301 0.222034 0.666117
0.730632 0.253559 0.695125
0.78703 0.256199 0.70782
0.102617 0.161395 0.517968
0.131914 0.162783 0.529259
0.177737 0.171313 0.55845
0.247944 0.184833 0.617319
0.366064 0.205783 0.648325
0.494469 0.231601 0.665705
0.613031 0.266377 0.679484
0.735622 0.299672 0.707485
0.799558 0.30544 0.722713
0.126635 0.229267 0.552209
0.152392 0.22887 0.560372
0.198306 0.235767 0.577295
0.267338 0.252201 0.620066
0.370382 0.270359 0.673136
0.50367 0.294224 0.692958
0.625177 0.32665 0.702617
0.744671 0.358785 0.726238
0.816037 0.367514 0.743374
0.164446 0.326345 0.603677
0.18941 0.325567 0.609094
0.234577 0.329549 0.622522
0.303944 0.343893 0.644877
0.387198 0.361196 0.699245
0.517525 0.378698 0.729259
0.645441 0.404608 0.73698
0.759396 0.434653 0.752361
0.845548 0.436118 0.776486
0.213474 0.436408 0.6607
0.23859 0.435325 0.664714
0.28368 0.437888 0.674723
0.347723 0.448951 0.693645
0.429709 0.464881 0.719326
0.529427 0.481651 0.768704
0.669184 0.497719 0.781323
0.782559 0.521859 0.789364
0.866987 0.529168 0.807202
0.272984 0.552956 0.712291
0.294987 0.552651 0.715526
0.335882 0.554437 0.723003
0.397131 0.56379 0.739879
0.475303 0.576608 0.761822
0.557595 0.591867 0.801862
0.683543 0.605859 0.826566
0.801785 0.625971 0.825864
0.88539 0.635752 0.8392
0.347005 0.669276 0.764355
0.366491 0.669841 0.766979
0.40206 0.671031 0.771435
0.456275 0.68014 0.784039
0.52401 0.693324 0.802243
0.606394 0.708476 0.825544
0.703075 0.723781 0.852049
0.822797 0.737377 0.867613
0.903578 0.749157 0.873793
0.429236 0.77641 0.816983
0.44741 0.777523 0.818967
0.480644 0.778668 0.821088
0.531456 0.786954 0.829938
0.602808 0.799329 0.842161
0.671534 0.814435 0.858167
0.7505 0.830884 0.87686
0.836881 0.844984 0.897856
0.919783 0.854002 0.905943
0.523674 0.850919 0.858839
0.542306 0.853758 0.861677
0.573129 0.856321 0.864057
0.636255 0.8645 0.871168
0.692729 0.876081 0.881682
0.75523 0.889525 0.893904
0.820539 0.904265 0.907454
0.883284 0.9196 0.921492
0.933013 0.933211 0.933623
