code/data/lut/31饱和蓝调1.cube
TITLE "LD - Dark Monochrome 1"
# Copyright (c) 2019 Lens Distortions, LLC. All Rights Reserved.
# LensDistortions.com
# ref-DM6
LUT_3D_SIZE 9
0.0147555 0.0211948 0.0270237
0.0810254 0.0270695 0.0337987
0.196841 0.04271 0.0417639
0.345815 0.0660105 0.0529183
0.486412 0.0885939 0.0609598
0.621927 0.113008 0.0711376
0.75729 0.140124 0.0835431
0.873518 0.166354 0.0941787
0.937942 0.16907 0.0950332
0.0424811 0.0943008 0.0631266
0.0924849 0.103395 0.0712291
0.201846 0.117861 0.0585946
0.342306 0.133608 0.0628214
0.482902 0.154162 0.0707408
0.620233 0.178882 0.0806897
0.7561 0.207431 0.091722
0.876493 0.237827 0.103593
0.940902 0.241337 0.104753
0.0912032 0.194827 0.124346
0.138415 0.199054 0.128496
0.198383 0.215824 0.125414
0.340627 0.229328 0.0975357
0.483635 0.244877 0.09897
0.62118 0.267079 0.107103
0.756893 0.292699 0.116533
0.877562 0.319417 0.125841
0.944839 0.325063 0.130007
0.150027 0.309468 0.19324
0.195163 0.312673 0.196445
0.252934 0.325643 0.202808
0.330266 0.349874 0.182101
0.475074 0.363912 0.150408
0.626566 0.374502 0.141909
0.760586 0.393027 0.148577
0.880293 0.413703 0.156497
0.950729 0.420508 0.165301
0.216281 0.428153 0.268299
0.260655 0.430381 0.270497
0.316747 0.43946 0.276768
0.38024 0.459129 0.277333
0.4663 0.483284 0.243793
0.608423 0.496696 0.21059
0.764645 0.504005 0.192447
0.885161 0.518547 0.195514
0.957839 0.525887 0.208377
0.284291 0.545113 0.342458
0.327077 0.546914 0.344335
0.380026 0.55314 0.348882
0.441245 0.568841 0.355398
0.508202 0.590814 0.348135
0.600519 0.614176 0.305821
0.740185 0.627344 0.273915
0.880827 0.633448 0.255528
0.964187 0.637232 0.265431
0.351202 0.660899 0.415854
0.392859 0.662135 0.417182
0.443412 0.666773 0.420813
0.502647 0.67924 0.428351
0.564553 0.69807 0.42948
0.636057 0.719692 0.416846
0.733089 0.742885 0.366827
0.859052 0.755566 0.337972
0.956161 0.758144 0.342153
0.413489 0.77084 0.484306
0.454398 0.77232 0.485832
0.50338 0.775952 0.48864
0.561013 0.786404 0.495979
0.621439 0.801862 0.501076
0.684764 0.821439 0.496315
0.760464 0.841611 0.476387
0.855436 0.860441 0.423941
0.945174 0.868116 0.42475
0.455055 0.854124 0.529458
0.49691 0.857191 0.532662
0.5458 0.861357 0.536309
0.607156 0.871916 0.546975
0.674235 0.88629 0.55967
0.735012 0.902815 0.562814
0.801068 0.920851 0.558465
0.874174 0.938827 0.540963
0.9514 0.952209 0.516548
0.0162051 0.0239109 0.0846876
0.0763561 0.0303044 0.10042
0.192081 0.0449226 0.119066
0.341253 0.0663005 0.13106
0.481987 0.0877241 0.136889
0.618524 0.112016 0.143084
0.754543 0.138399 0.151629
0.872465 0.16492 0.159243
0.936858 0.167544 0.159472
0.0349432 0.0998703 0.112749
0.0894484 0.106676 0.120256
0.189029 0.11928 0.130739
0.319371 0.135225 0.13756
0.464607 0.155383 0.143648
0.60795 0.179583 0.14963
0.749416 0.207248 0.15668
0.87364 0.236957 0.16379
0.939742 0.240345 0.164126
0.0863508 0.198581 0.16556
0.141726 0.199847 0.170993
0.201877 0.214221 0.181476
0.345892 0.226184 0.158343
0.482307 0.242969 0.162188
0.619623 0.265415 0.166888
0.756481 0.290929 0.173571
0.876554 0.3178 0.181704
0.943893 0.324651 0.186343
0.148531 0.312627 0.234104
0.203601 0.311955 0.240772
0.25977 0.324437 0.251881
0.331151 0.347372 0.247303
0.500069 0.356756 0.196841
0.630625 0.372061 0.199161
0.763851 0.390723 0.203983
0.881254 0.411765 0.211109
0.950027 0.420478 0.218799
0.215763 0.430655 0.308598
0.266423 0.429984 0.312871
0.323827 0.439658 0.322087
0.386221 0.457221 0.331044
0.467124 0.481743 0.303655
0.621714 0.492805 0.258259
0.770687 0.501122 0.246769
0.887373 0.516274 0.249744
0.95697 0.525658 0.260227
0.284062 0.547295 0.382406
0.329595 0.547204 0.384588
0.385489 0.554147 0.392279
0.446799 0.568383 0.401099
0.51133 0.589593 0.400702
0.600397 0.613275 0.361013
0.743252 0.625635 0.323354
0.884443 0.631022 0.304479
0.963943 0.637049 0.313893
0.3514 0.662806 0.455375
0.393851 0.663935 0.457176
0.445991 0.668009 0.461463
0.5066 0.67953 0.47042
0.569329 0.697353 0.475975
0.637995 0.719432 0.466178
0.732662 0.742535 0.418326
0.860197 0.754498 0.386389
0.957 0.757519 0.389029
0.413748 0.772808 0.523568
0.455589 0.774121 0.525597
0.505241 0.777142 0.528603
0.564141 0.787015 0.536889
0.626078 0.801678 0.54493
0.688624 0.820676 0.543908
0.762051 0.84094 0.527718
0.854963 0.860014 0.474449
0.94612 0.867887 0.471702
0.456153 0.856657 0.569604
0.498344 0.859327 0.572778
0.547875 0.863188 0.57673
0.610346 0.873243 0.587915
0.678584 0.886748 0.602014
0.739162 0.902785 0.607813
0.803616 0.921157 0.605478
0.875303 0.93904 0.590799
0.95201 0.952758 0.56434
0.0211185 0.0307164 0.155505
0.0775006 0.0367285 0.174197
0.180896 0.0525978 0.197543
0.33257 0.0712139 0.226902
0.473579 0.0911727 0.231281
0.612985 0.114031 0.238117
0.750469 0.139254 0.247547
0.869322 0.165881 0.256214
0.934051 0.16849 0.256245
0.0361028 0.106065 0.185657
0.0871138 0.11371 0.186435
0.183032 0.123323 0.211704
0.319539 0.137667 0.219623
0.464378 0.156695 0.228977
0.606958 0.179721 0.239429
0.746593 0.207355 0.248325
0.869841 0.237171 0.255497
0.937087 0.240864 0.255909
0.0737926 0.207752 0.224399
0.127382 0.207294 0.235874
0.199344 0.218753 0.23447
0.314961 0.232456 0.23946
0.457527 0.247944 0.246784
0.586847 0.271977 0.256474
0.72546 0.297185 0.26627
0.856001 0.323415 0.274113
0.941863 0.325093 0.263523
0.13901 0.319402 0.282078
0.195071 0.318257 0.28719
0.265171 0.328237 0.296452
0.334798 0.347799 0.307912
0.484977 0.35877 0.277256
0.615656 0.374014 0.282628
0.749798 0.39266 0.289326
0.871473 0.413672 0.294743
0.948211 0.420661 0.290364
0.210254 0.435737 0.352758
0.264668 0.434165 0.355703
0.336385 0.442359 0.369696
0.394217 0.456962 0.382483
0.466835 0.480339 0.374014
0.652308 0.484596 0.317937
0.771038 0.49955 0.322377
0.885435 0.515206 0.325261
0.955337 0.52578 0.326589
0.281239 0.551293 0.424872
0.328267 0.550408 0.426398
0.406943 0.556573 0.443336
0.460685 0.568689 0.453605
0.517815 0.585733 0.465293
0.600397 0.610437 0.434897
0.806439 0.609277 0.361227
0.89984 0.624231 0.362783
0.963378 0.636942 0.371801
0.349355 0.666041 0.496605
0.392859 0.666789 0.498131
0.465629 0.669886 0.511559
0.522087 0.680583 0.521599
0.580163 0.695628 0.530709
0.639658 0.715801 0.534127
0.735454 0.73933 0.487221
0.90573 0.739345 0.426841
0.958343 0.756771 0.44242
0.412711 0.77583 0.564492
0.454948 0.776715 0.565988
0.520912 0.779797 0.576608
0.577752 0.789181 0.58587
0.636896 0.80206 0.594965
0.697276 0.818906 0.600519
0.762234 0.838453 0.595376
0.856168 0.857664 0.548089
0.947433 0.86772 0.521965
0.45597 0.859648 0.610468
0.49868 0.862287 0.613794
0.549767 0.86569 0.618006
0.613657 0.875105 0.629541
0.683162 0.887953 0.644648
0.743969 0.903243 0.652689
0.806958 0.921355 0.653178
0.876554 0.939055 0.641871
0.952605 0.953353 0.613993
0.0291295 0.0414588 0.236942
0.0860151 0.0468147 0.256031
0.182986 0.0614328 0.297063
0.308293 0.0812238 0.314031
0.463874 0.0970932 0.340841
0.601816 0.120546 0.348318
0.74165 0.144671 0.356268
0.864866 0.169879 0.363989
0.930236 0.172152 0.363561
0.0423896 0.115129 0.267002
0.0924849 0.122911 0.25951
0.168933 0.131945 0.297658
0.296574 0.146593 0.311131
0.453407 0.162615 0.334661
0.598001 0.185473 0.345586
0.740139 0.211078 0.3561
0.865751 0.239338 0.363989
0.934127 0.243198 0.363775
0.0710918 0.21561 0.308537
0.123613 0.215549 0.309529
0.193118 0.224811 0.312901
0.312993 0.235782 0.33666
0.456245 0.251881 0.337194
0.591501 0.273503 0.348974
0.729244 0.297688 0.359319
0.857237 0.323857 0.370001
0.939101 0.326558 0.370886
0.123735 0.330144 0.347219
0.174823 0.328786 0.35491
0.247074 0.336828 0.365362
0.333562 0.352285 0.366232
0.456031 0.365927 0.36878
0.58941 0.380667 0.373342
0.723171 0.39884 0.381506
0.844144 0.421592 0.391485
0.945754 0.421897 0.381079
0.195789 0.444327 0.405112
0.247547 0.442756 0.406912
0.321248 0.449607 0.420508
0.400809 0.46128 0.427253
0.470329 0.481544 0.436912
0.619654 0.491096 0.405844
0.750454 0.503807 0.40911
0.867262 0.520073 0.415671
0.954314 0.525917 0.406958
0.272175 0.55761 0.471321
0.321859 0.555932 0.471839
0.408438 0.561273 0.486244
0.46772 0.572305 0.497185
0.526955 0.588037 0.510689
0.601267 0.611643 0.495979
0.78558 0.613626 0.443885
0.888899 0.626688 0.44535
0.962234 0.636957 0.442176
0.343709 0.671092 0.540551
0.388861 0.671016 0.541634
0.46598 0.673655 0.553277
0.535393 0.683406 0.567895
0.590173 0.69688 0.578927
0.647517 0.714611 0.590204
0.733242 0.738949 0.553979
0.900542 0.73785 0.511131
0.960006 0.755856 0.504402
0.408743 0.779904 0.606958
0.452186 0.780667 0.608515
0.52079 0.782834 0.617563
0.60264 0.793027 0.637842
0.65388 0.803998 0.646662
0.709514 0.817792 0.657908
0.766644 0.834928 0.665919
0.855177 0.85594 0.621561
0.949172 0.867231 0.576806
0.454124 0.863981 0.653254
0.497215 0.866209 0.656199
0.549462 0.868925 0.660136
0.615976 0.877714 0.672099
0.687465 0.889647 0.687327
0.749142 0.90396 0.697826
0.811322 0.921645 0.702296
0.87866 0.939483 0.695079
0.95349 0.954086 0.666499
0.0386206 0.0541085 0.327321
0.0965896 0.0591897 0.346853
0.18201 0.072282 0.395438
0.308186 0.0896925 0.40972
0.435706 0.108583 0.424796
0.592645 0.126497 0.454749
0.730449 0.152972 0.4654
0.856672 0.177615 0.472679
0.922866 0.17995 0.472297
0.05037 0.126528 0.355459
0.102495 0.133379 0.348928
0.172839 0.140597 0.382742
0.28365 0.154101 0.416556
0.425086 0.173999 0.421698
0.588724 0.191485 0.453635
0.728435 0.219196 0.463981
0.85742 0.246128 0.472099
0.927367 0.250172 0.471962
0.0766613 0.222202 0.394476
0.128832 0.223865 0.387549
0.192233 0.234287 0.386221
0.286519 0.245014 0.429938
0.433265 0.261357 0.437446
0.58143 0.279744 0.453773
0.72401 0.303288 0.457511
0.853788 0.327428 0.469596
0.933974 0.331258 0.476753
0.117769 0.339788 0.429114
0.167758 0.338399 0.433021
0.2383 0.343587 0.442466
0.325948 0.357763 0.447166
0.450629 0.369512 0.46688
0.592233 0.383474 0.460273
0.728679 0.400412 0.468193
0.849928 0.421622 0.48043
0.949783 0.418647 0.48307
0.178134 0.454826 0.469871
0.229053 0.453361 0.472877
0.300679 0.458015 0.49369
0.38349 0.469993 0.492073
0.470176 0.485374 0.496559
0.597314 0.49633 0.498192
0.716243 0.512276 0.497246
0.852354 0.525048 0.50486
0.956847 0.52398 0.495689
0.255634 0.566888 0.525643
0.303914 0.565744 0.526452
0.370596 0.570153 0.540795
0.450187 0.579538 0.550118
0.534234 0.59205 0.555871
0.604288 0.612863 0.560281
0.752163 0.621027 0.531075
0.871748 0.631693 0.532555
0.960235 0.637507 0.526543
0.332403 0.67866 0.589242
0.377935 0.678614 0.589807
0.455634 0.67982 0.599268
0.536736 0.688182 0.611444
0.597513 0.700252 0.622934
0.657359 0.716899 0.636484
0.734173 0.740322 0.61561
0.882506 0.743038 0.589258
0.96228 0.754376 0.574792
0.400778 0.786282 0.652964
0.444968 0.786603 0.653986
0.520211 0.78793 0.662013
0.605142 0.79678 0.679515
0.664057 0.807187 0.691157
0.72105 0.820233 0.703471
0.777584 0.8365 0.714305
0.85417 0.856001 0.687526
0.952682 0.866835 0.637171
0.448524 0.869581 0.698283
0.492332 0.871626 0.700786
0.546395 0.873732 0.704189
0.61648 0.881636 0.715801
0.691112 0.89247 0.7308
0.754894 0.905699 0.743023
0.816953 0.922194 0.751919
0.881392 0.940108 0.748745
0.954574 0.955215 0.721675
0.0488441 0.0681621 0.420874
0.108461 0.0733196 0.439368
0.187198 0.0847028 0.484825
0.306935 0.0993057 0.509331
0.431601 0.118868 0.513619
0.563394 0.139208 0.535363
0.721401 0.159091 0.567956
0.847654 0.186877 0.579767
0.914092 0.189425 0.579828
0.0596933 0.139101 0.444907
0.11429 0.142641 0.44651
0.183627 0.149828 0.471977
0.294347 0.161944 0.512413
0.427375 0.181567 0.518227
0.559609 0.204578 0.536614
0.721019 0.224643 0.569345
0.846922 0.254856 0.579446
0.918837 0.25922 0.579828
0.0838331 0.230579 0.477363
0.136416 0.231235 0.476326
0.197757 0.24509 0.463783
0.271778 0.254627 0.507942
0.416266 0.269429 0.53904
0.555138 0.291844 0.541604
0.708202 0.310903 0.56376
0.843397 0.335256 0.571923
0.925795 0.338781 0.583764
0.119982 0.3467 0.513985
0.170367 0.346532 0.513588
0.236698 0.353155 0.511269
0.317571 0.367056 0.517403
0.428199 0.375875 0.564752
0.570779 0.391318 0.565316
0.715373 0.406531 0.57525
0.845808 0.426642 0.574823
0.942458 0.424353 0.592126
0.169238 0.464561 0.54902
0.21854 0.463645 0.551965
0.288808 0.465232 0.567666
0.372915 0.475578 0.57229
0.464134 0.489418 0.579263
0.58172 0.501793 0.595209
0.72668 0.512917 0.585977
0.856367 0.52694 0.586236
0.95259 0.526116 0.605005
0.237324 0.577142 0.590555
0.286015 0.576242 0.591592
0.356207 0.579049 0.608835
0.434623 0.587427 0.623957
0.517281 0.600778 0.616068
0.604395 0.615793 0.624323
0.73611 0.624735 0.62594
0.858213 0.636912 0.613809
0.957443 0.638285 0.622568
0.314778 0.688029 0.645228
0.360739 0.687556 0.645182
0.423011 0.68925 0.655573
0.494301 0.697643 0.672862
0.579217 0.707713 0.676677
0.665324 0.720729 0.682231
0.737545 0.741939 0.679835
0.868559 0.748669 0.661112
0.961883 0.754864 0.654002
0.387137 0.794263 0.703502
0.432181 0.794568 0.704082
0.500298 0.795163 0.710048
0.587259 0.803235 0.727153
0.667308 0.811749 0.735515
0.729168 0.823606 0.747585
0.786709 0.838804 0.760678
0.8551 0.857527 0.746593
0.956786 0.86595 0.704784
0.439124 0.876921 0.74667
0.483604 0.878737 0.748806
0.538567 0.880385 0.750973
0.612497 0.887129 0.761059
0.691508 0.89659 0.774487
0.759197 0.90837 0.787732
0.82327 0.923384 0.800214
0.884962 0.941283 0.802686
0.955947 0.956542 0.779431
0.0595407 0.082887 0.513146
0.120455 0.0876936 0.530831
0.195758 0.0976272 0.56878
0.304158 0.110277 0.602335
0.434318 0.127947 0.61207
0.555917 0.150576 0.620645
0.690593 0.173342 0.64567
0.838209 0.193912 0.677684
0.90985 0.194781 0.682231
0.0697948 0.151705 0.532891
0.126909 0.152819 0.541711
0.198062 0.160098 0.563424
0.298512 0.171756 0.605234
0.434119 0.189837 0.618677
0.557321 0.21445 0.625711
0.691356 0.239399 0.649561
0.839323 0.260487 0.679774
0.914946 0.264576 0.683955
0.092134 0.240696 0.560006
0.145068 0.239658 0.564187
0.206989 0.257588 0.54432
0.275944 0.266773 0.583185
0.388663 0.281483 0.632532
0.539055 0.301472 0.634195
0.677211 0.325139 0.646723
0.830549 0.342718 0.674876
0.920729 0.344411 0.688411
0.126192 0.353674 0.59733
0.177279 0.352834 0.598566
0.242206 0.362829 0.586511
0.317464 0.377218 0.589548
0.402136 0.386877 0.636316
0.554894 0.397894 0.662989
0.691615 0.416785 0.667002
0.834333 0.432532 0.684199
0.935195 0.430014 0.70013
0.168185 0.472236 0.632197
0.217807 0.471489 0.633677
0.285451 0.474434 0.634348
0.366827 0.483665 0.641337
0.452628 0.498054 0.647944
0.569039 0.505943 0.690791
0.707332 0.519478 0.692073
0.842451 0.532692 0.696559
0.94551 0.530571 0.713115
0.22681 0.58735 0.667643
0.274372 0.586786 0.66836
0.341695 0.586557 0.684428
0.42179 0.593179 0.699199
0.506447 0.606149 0.698756
0.600961 0.618982 0.708461
0.709712 0.631846 0.721645
0.855833 0.638849 0.710277
0.951904 0.641032 0.728359
0.296269 0.698314 0.709911
0.342473 0.697749 0.709789
0.410208 0.698604 0.720592
0.485863 0.70486 0.742504
0.567346 0.715404 0.746517
0.64918 0.72932 0.738094
0.736507 0.744121 0.74992
0.857481 0.752865 0.743694
0.958618 0.755962 0.748257
0.368704 0.803525 0.760311
0.413901 0.803861 0.760616
0.475563 0.804273 0.766567
0.542535 0.811414 0.78291
0.639017 0.819974 0.793774
0.713405 0.830152 0.797253
0.793408 0.842298 0.804562
0.85658 0.859724 0.803922
0.960937 0.865064 0.781537
0.425223 0.885557 0.798856
0.470054 0.887098 0.800549
0.525002 0.888426 0.801831
0.603159 0.894621 0.809659
0.686442 0.902876 0.820371
0.75877 0.913146 0.832197
0.828504 0.926009 0.846494
0.890761 0.942153 0.857069
0.957519 0.958053 0.839246
0.0690471 0.0953384 0.597589
0.13048 0.0998398 0.614572
0.204517 0.109255 0.64799
0.30309 0.120668 0.688746
0.43328 0.137621 0.703609
0.558587 0.15938 0.709819
0.680781 0.185092 0.726482
0.809308 0.209247 0.75198
0.886992 0.208606 0.764126
0.0794842 0.163424 0.615625
0.137301 0.164752 0.624552
0.208438 0.171878 0.646708
0.299763 0.183215 0.691722
0.431159 0.200549 0.710643
0.560998 0.222797 0.718547
0.681987 0.250889 0.731563
0.810575 0.275578 0.75584
0.895399 0.276631 0.770199
0.100862 0.251621 0.641535
0.153933 0.250828 0.64651
0.218387 0.268956 0.632136
0.286915 0.275746 0.667964
0.393393 0.290791 0.71342
0.530907 0.30956 0.736233
0.666972 0.334707 0.7346
0.80177 0.357458 0.755047
0.906233 0.353796 0.77995
0.132769 0.361898 0.67689
0.184207 0.360571 0.679408
0.250797 0.371359 0.669581
0.323049 0.387778 0.666239
0.397009 0.399832 0.702007
0.51841 0.408606 0.759365
0.672969 0.426017 0.754513
0.807889 0.445365 0.76791
0.926253 0.435691 0.798093
0.172305 0.478355 0.713878
0.223224 0.477455 0.715923
0.289433 0.482918 0.70721
0.365774 0.492744 0.711894
0.447395 0.507485 0.717876
0.53489 0.516762 0.763317
0.692027 0.525353 0.784833
0.822019 0.541421 0.789883
0.939574 0.534508 0.814023
0.223102 0.595148 0.747219
0.271229 0.594598 0.748333
0.335668 0.594919 0.75285
0.413291 0.601251 0.76318
0.498955 0.613062 0.768444
0.578347 0.627054 0.781979
0.704524 0.633738 0.81471
0.838544 0.644297 0.815885
0.946975 0.644038 0.828946
0.285664 0.707973 0.782788
0.331518 0.707729 0.783139
0.394354 0.70663 0.792248
0.482872 0.711086 0.807752
0.568841 0.720806 0.813245
0.640604 0.73431 0.818967
0.725612 0.748348 0.828565
0.846601 0.756634 0.83946
0.952499 0.758618 0.846021
0.351553 0.812558 0.82153
0.39649 0.81297 0.821927
0.461784 0.812787 0.827527
0.572244 0.818524 0.84007
0.655085 0.826429 0.847303
0.72047 0.836988 0.852613
0.78526 0.84921 0.857588
0.858396 0.861692 0.864515
0.959548 0.865553 0.863691
0.409766 0.894118 0.854063
0.454139 0.895705 0.855375
0.507881 0.896925 0.855985
0.589914 0.902861 0.862074
0.674525 0.91046 0.869841
0.749798 0.920012 0.879255
0.825818 0.931289 0.891005
0.896651 0.944076 0.904814
0.959319 0.959762 0.900175
0.0724041 0.0992905 0.657267
0.133669 0.103517 0.673503
0.207279 0.112825 0.705272
0.302907 0.123888 0.74818
0.432486 0.140444 0.763653
0.560327 0.161242 0.772229
0.68014 0.18764 0.784497
0.801343 0.213748 0.80531
0.873686 0.216175 0.814923
0.0828107 0.166934 0.673716
0.140124 0.167971 0.6822
0.211093 0.175021 0.704128
0.301564 0.186252 0.748257
0.429862 0.203449 0.770718
0.561517 0.225055 0.783169
0.681666 0.253666 0.79234
0.802426 0.280415 0.811933
0.880095 0.285206 0.823194
0.103273 0.254658 0.698268
0.156741 0.254108 0.704311
0.227176 0.259525 0.716716
0.315908 0.272572 0.748272
0.431174 0.286961 0.787121
0.565957 0.305989 0.800916
0.687846 0.331624 0.806729
0.80618 0.356558 0.822904
0.888945 0.363333 0.835294
0.13463 0.364706 0.73489
0.186709 0.363745 0.738842
0.255344 0.366369 0.748363
0.343481 0.376852 0.763836
0.441169 0.389685 0.803372
0.573022 0.402533 0.824475
0.699687 0.422019 0.828931
0.813733 0.444556 0.838911
0.907485 0.445426 0.856596
0.174197 0.481239 0.775113
0.225696 0.479927 0.777737
0.29366 0.480949 0.784298
0.376303 0.488289 0.797116
0.471489 0.499352 0.814847
0.578561 0.511086 0.850172
0.713893 0.522225 0.858228
0.827451 0.539605 0.862882
0.919493 0.544686 0.875486
0.221363 0.598779 0.810208
0.270024 0.598032 0.812284
0.333654 0.598444 0.816907
0.412741 0.604257 0.828092
0.503914 0.612634 0.843
0.596689 0.62295 0.871305
0.721157 0.632151 0.888151
0.838102 0.64596 0.886213
0.929915 0.652689 0.895308
0.27924 0.713252 0.844892
0.325109 0.713176 0.846418
0.383658 0.713329 0.848951
0.456184 0.719097 0.857282
0.538079 0.727687 0.869398
0.63035 0.737652 0.885313
0.732189 0.747692 0.90338
0.850065 0.756436 0.913558
0.940871 0.764324 0.917372
0.341711 0.819455 0.879881
0.386084 0.819883 0.880919
0.442069 0.820127 0.88188
0.511116 0.825376 0.88751
0.594888 0.833295 0.895171
0.676051 0.843229 0.90576
0.764233 0.854109 0.918746
0.857267 0.863233 0.934096
0.951492 0.868986 0.939895
0.412406 0.901427 0.907332
0.456794 0.903197 0.909072
0.510369 0.90457 0.910338
0.587823 0.909728 0.914778
0.659693 0.917525 0.921874
0.735653 0.927047 0.930571
0.813428 0.938003 0.940597
0.889723 0.949874 0.951476
0.960754 0.960937 0.961288
