code/data/lut/32感性内敛2.cube
TITLE "LD - Cashmere 2"
# Copyright (c) 2019 Lens Distortions, LLC. All Rights Reserved.
# LensDistortions.com
# ref-CSH1
LUT_3D_SIZE 5
0.0212253 0.0210269 0.0219883
0.120867 0.0430152 0.0412146
0.34548 0.0756237 0.053254
0.534585 0.112291 0.0652476
0.651576 0.12369 0.0684977
0.0518502 0.148226 0.104936
0.16614 0.171695 0.0973373
0.37499 0.190585 0.08542
0.557382 0.228946 0.0948043
0.684611 0.240955 0.0996262
0.0897078 0.324849 0.203235
0.197818 0.33547 0.183246
0.406348 0.368032 0.181781
0.615717 0.386755 0.171572
0.749325 0.397604 0.17583
0.13492 0.503822 0.280354
0.252537 0.499336 0.269749
0.42211 0.539757 0.254902
0.632425 0.570855 0.257984
0.81294 0.593408 0.271931
0.153811 0.65156 0.320668
0.268345 0.650339 0.313191
0.441138 0.687694 0.308156
0.63798 0.727916 0.318013
0.821439 0.760006 0.330144
0.0372015 0.0549172 0.138094
0.185229 0.0816205 0.184451
0.40441 0.085832 0.184756
0.589105 0.101991 0.181659
0.702113 0.103319 0.174472
0.052842 0.204227 0.192935
0.206409 0.212955 0.209049
0.403571 0.216281 0.199786
0.591424 0.238254 0.197589
0.722988 0.230457 0.176562
0.0846265 0.380926 0.267262
0.256306 0.389151 0.2878
0.444205 0.403952 0.280018
0.648524 0.405158 0.249622
0.781918 0.407553 0.236042
0.125505 0.545113 0.338949
0.262547 0.557534 0.344198
0.451316 0.580346 0.336461
0.664118 0.60325 0.326696
0.844266 0.61323 0.326604
0.145876 0.679744 0.377539
0.271031 0.697383 0.378485
0.450935 0.737255 0.374746
0.656947 0.7729 0.362982
0.848463 0.791516 0.373373
0.0546426 0.134127 0.313924
0.19086 0.154009 0.341512
0.445533 0.169451 0.362295
0.650111 0.174563 0.363516
0.762615 0.169345 0.352651
0.0740063 0.257923 0.35172
0.20766 0.257847 0.345617
0.448676 0.278019 0.372061
0.658854 0.28864 0.372045
0.79353 0.263233 0.357733
0.0939345 0.433494 0.389425
0.262852 0.437644 0.405615
0.489799 0.455695 0.421561
0.679713 0.452522 0.405081
0.838727 0.429892 0.377111
0.139498 0.614893 0.452552
0.289082 0.622889 0.459342
0.517128 0.639017 0.480629
0.708064 0.649943 0.474403
0.892287 0.640574 0.430747
0.165759 0.762066 0.491997
0.290272 0.772976 0.492836
0.472267 0.801053 0.496056
0.680156 0.82945 0.481559
0.892714 0.845426 0.447791
0.0698253 0.214069 0.475654
0.211948 0.231098 0.493355
0.447333 0.249561 0.528115
0.685206 0.272358 0.563195
0.826276 0.268223 0.56556
0.0912947 0.313954 0.521996
0.232441 0.314961 0.505684
0.438987 0.338384 0.547738
0.692164 0.364294 0.574838
0.850248 0.36112 0.580713
0.12604 0.490822 0.578225
0.286641 0.487663 0.578698
0.481071 0.49453 0.579095
0.719478 0.512963 0.611597
0.89099 0.49929 0.608362
0.149981 0.661326 0.618235
0.288838 0.663813 0.624567
0.535439 0.676356 0.659159
0.74609 0.697963 0.659098
0.924605 0.677638 0.629313
0.1776 0.815946 0.648493
0.30518 0.825742 0.65211
0.48603 0.856229 0.666835
0.706264 0.880217 0.670832
0.927108 0.896117 0.623987
0.0749676 0.270466 0.607904
0.219867 0.285527 0.630625
0.450858 0.304372 0.671351
0.68748 0.328908 0.713924
0.837919 0.333043 0.729778
0.0982376 0.357778 0.665599
0.246937 0.359411 0.662913
0.460563 0.382818 0.704967
0.700801 0.409705 0.74493
0.865354 0.421714 0.764599
0.144274 0.52488 0.750835
0.300389 0.519478 0.752438
0.49836 0.526925 0.762448
0.725582 0.54609 0.800473
0.906264 0.559564 0.822507
0.162783 0.706004 0.818372
0.302358 0.705486 0.827863
0.52166 0.712352 0.844388
0.741222 0.723476 0.862791
0.933059 0.73547 0.875639
0.19472 0.853834 0.835035
0.321096 0.860685 0.843336
0.473747 0.881209 0.86807
0.710201 0.901595 0.891676
0.934783 0.920851 0.910979
