code/data/lut/32感性内敛1.cube
TITLE "LD - Cashmere 1"
# Copyright (c) 2019 Lens Distortions, LLC. All Rights Reserved.
# LensDistortions.com
# ref-CSH1
LUT_3D_SIZE 9
0.0169985 0.0180362 0.019379
0.0627451 0.0276646 0.0287938
0.156405 0.0519417 0.045304
0.267826 0.0695048 0.0480201
0.38526 0.0860609 0.0541543
0.496818 0.108309 0.065568
0.598932 0.132174 0.0775311
0.66772 0.141451 0.0816052
0.726482 0.148043 0.0837415
0.0367742 0.0850843 0.0652323
0.0865339 0.0966201 0.0646525
0.178149 0.10956 0.0638285
0.289509 0.124773 0.0633555
0.400671 0.144503 0.0708171
0.508064 0.168566 0.0809186
0.611582 0.193164 0.090486
0.684382 0.203159 0.0941939
0.742519 0.20798 0.0950027
0.0560159 0.173526 0.123522
0.102892 0.180179 0.112566
0.194049 0.200168 0.114549
0.32546 0.20763 0.102602
0.425956 0.222431 0.102007
0.525505 0.244434 0.105394
0.626184 0.266682 0.113191
0.703731 0.277714 0.118257
0.762524 0.282017 0.120272
0.0803388 0.270939 0.178958
0.129564 0.272404 0.173983
0.205951 0.29424 0.160586
0.330404 0.309773 0.16144
0.460212 0.321355 0.152163
0.557275 0.332052 0.147585
0.654765 0.348669 0.151827
0.734508 0.360662 0.155825
0.790845 0.366064 0.158556
0.105882 0.37084 0.23415
0.158114 0.370504 0.229892
0.22977 0.385092 0.213413
0.338201 0.404868 0.210864
0.460441 0.421744 0.211841
0.591424 0.434592 0.206012
0.688273 0.443427 0.200793
0.771984 0.452888 0.202487
0.82945 0.456397 0.206729
0.133959 0.471229 0.28426
0.189563 0.470054 0.280491
0.265568 0.474342 0.269871
0.358404 0.496376 0.256321
0.464332 0.517601 0.2598
0.585672 0.532876 0.256291
0.711162 0.546868 0.25565
0.805463 0.555444 0.254475
0.864958 0.557519 0.259297
0.158221 0.570809 0.324849
0.216648 0.569512 0.321401
0.289738 0.566171 0.312703
0.373907 0.587549 0.29865
0.477119 0.609461 0.29514
0.587396 0.627985 0.300862
0.704936 0.642756 0.298528
0.816892 0.656458 0.299031
0.89337 0.667796 0.315602
0.175647 0.665705 0.356863
0.234714 0.664652 0.353384
0.305028 0.657786 0.345251
0.38323 0.675608 0.332265
0.484749 0.697505 0.331044
0.593225 0.716091 0.333303
0.704417 0.732799 0.337255
0.812558 0.747189 0.339101
0.897215 0.759258 0.347295
0.182147 0.731258 0.37293
0.236728 0.733059 0.369131
0.308812 0.729076 0.36376
0.390631 0.739086 0.356283
0.499352 0.76733 0.357809
0.604425 0.788434 0.361639
0.711604 0.807797 0.368185
0.814771 0.82565 0.375067
0.901518 0.840085 0.382147
0.0250248 0.03299 0.080354
0.0855573 0.050248 0.102892
0.18761 0.0606088 0.114458
0.303105 0.0654307 0.110948
0.415259 0.0729992 0.106905
0.527047 0.0834516 0.104463
0.626993 0.102144 0.108019
0.693751 0.110521 0.10898
0.749035 0.118212 0.110491
0.041062 0.113054 0.115129
0.102953 0.118914 0.12726
0.196017 0.123262 0.128313
0.310613 0.127749 0.120974
0.418967 0.143465 0.121035
0.525475 0.164233 0.124651
0.627832 0.187366 0.131228
0.699641 0.197391 0.136019
0.756268 0.201984 0.138247
0.0527047 0.205386 0.158831
0.119142 0.21297 0.175555
0.217441 0.220508 0.172549
0.342794 0.219104 0.152041
0.440528 0.230579 0.145953
0.541131 0.247623 0.14612
0.641978 0.266621 0.151492
0.718624 0.277073 0.15642
0.776272 0.280797 0.158602
0.0687114 0.294591 0.207614
0.127443 0.305501 0.220417
0.226841 0.316457 0.211521
0.348745 0.32604 0.2094
0.471366 0.332296 0.194263
0.571359 0.339239 0.18471
0.667994 0.353338 0.185534
0.746487 0.364462 0.189029
0.804181 0.368231 0.19292
0.0924086 0.386938 0.259541
0.151461 0.396262 0.267002
0.25124 0.406836 0.264057
0.355779 0.422034 0.250965
0.474418 0.43624 0.252918
0.604089 0.446418 0.244556
0.701625 0.450126 0.230838
0.784253 0.458198 0.232959
0.841352 0.461357 0.23714
0.120394 0.484871 0.310079
0.182757 0.489738 0.312062
0.27039 0.499992 0.308614
0.37171 0.515908 0.295995
0.479362 0.533623 0.297063
0.600153 0.547539 0.292607
0.725399 0.558648 0.286854
0.817334 0.56257 0.282216
0.877729 0.56408 0.287953
0.14818 0.583825 0.351781
0.211353 0.58381 0.350484
0.28986 0.593088 0.346502
0.382437 0.608927 0.334142
0.488472 0.627649 0.331258
0.600092 0.644999 0.328649
0.717937 0.656413 0.324056
0.830503 0.667872 0.329381
0.906203 0.676753 0.34403
0.168475 0.67834 0.384451
0.232456 0.676829 0.381979
0.306081 0.682078 0.377676
0.396719 0.696773 0.372839
0.492607 0.717571 0.36379
0.602243 0.736004 0.356176
0.715404 0.74815 0.358953
0.823667 0.758831 0.360143
0.909407 0.770169 0.369711
0.177539 0.743389 0.400397
0.23624 0.744793 0.397772
0.309758 0.744091 0.393378
0.396246 0.761486 0.3906
0.504494 0.789899 0.388647
0.611353 0.811093 0.38587
0.720913 0.826535 0.390921
0.825681 0.841367 0.397772
0.913497 0.853819 0.404822
0.0368963 0.0724193 0.171038
0.0918593 0.0820478 0.186297
0.212192 0.0954604 0.211749
0.345098 0.0968795 0.213275
0.452323 0.098497 0.209888
0.557763 0.108248 0.210849
0.657908 0.121035 0.211734
0.723949 0.123751 0.208453
0.778958 0.124437 0.20528
0.0504311 0.140352 0.204501
0.105394 0.142351 0.205814
0.216739 0.154543 0.221286
0.349325 0.156191 0.220096
0.460075 0.161959 0.218891
0.567315 0.171756 0.216129
0.669535 0.180591 0.211292
0.742321 0.172122 0.200183
0.796887 0.171725 0.196597
0.0555123 0.234546 0.222049
0.123903 0.239353 0.235477
0.239231 0.247517 0.243885
0.353475 0.247028 0.237598
0.458335 0.252338 0.234028
0.56051 0.264439 0.233707
0.663355 0.277989 0.232822
0.747219 0.281514 0.225315
0.803479 0.271077 0.210208
0.073579 0.334035 0.256825
0.139086 0.341909 0.268193
0.264134 0.347692 0.28687
0.376684 0.352148 0.281773
0.492119 0.351537 0.264744
0.589853 0.3579 0.258976
0.687297 0.367269 0.253712
0.771038 0.370001 0.244373
0.829023 0.367529 0.236316
0.0990768 0.432486 0.307118
0.154559 0.439551 0.315267
0.293858 0.444816 0.333486
0.389303 0.452247 0.325719
0.501503 0.461311 0.324575
0.631189 0.458473 0.298711
0.722896 0.463233 0.290547
0.806363 0.464622 0.275669
0.862791 0.467506 0.276661
0.123445 0.523751 0.352148
0.182635 0.531075 0.358801
0.298528 0.538262 0.369162
0.406073 0.546792 0.364019
0.503197 0.558938 0.359075
0.623499 0.569207 0.35877
0.750103 0.573724 0.339086
0.839216 0.571405 0.318364
0.897429 0.573159 0.323369
0.147494 0.615305 0.391302
0.210208 0.622492 0.396017
0.301289 0.629282 0.397894
0.41001 0.639445 0.397192
0.508888 0.652842 0.388235
0.618647 0.666331 0.386374
0.738079 0.676951 0.377066
0.852094 0.68484 0.368444
0.924559 0.688838 0.37789
0.165621 0.702815 0.423575
0.231754 0.710277 0.426596
0.307927 0.716884 0.424262
0.403891 0.727871 0.420905
0.505455 0.743709 0.414374
0.617838 0.759625 0.408179
0.732876 0.773342 0.393805
0.841382 0.778592 0.393347
0.928985 0.787793 0.407904
0.173297 0.760708 0.43769
0.236881 0.76939 0.439597
0.31249 0.77879 0.438453
0.396338 0.794705 0.434058
0.510491 0.818555 0.433524
0.619211 0.837995 0.426749
0.732189 0.853254 0.419745
0.839338 0.86305 0.425299
0.928481 0.871595 0.431434
0.0479438 0.112886 0.268315
0.105394 0.12015 0.275517
0.217502 0.135805 0.304295
0.366796 0.143328 0.31635
0.489967 0.152956 0.321691
0.594827 0.153384 0.316732
0.693309 0.157443 0.315831
0.758114 0.158831 0.313375
0.811246 0.159136 0.309804
0.0598459 0.169802 0.296849
0.115297 0.17232 0.290379
0.210559 0.186297 0.308202
0.364569 0.195377 0.318441
0.491478 0.207828 0.326314
0.599603 0.212818 0.323293
0.701518 0.216663 0.321141
0.773388 0.204929 0.31223
0.826917 0.200855 0.306661
0.0712291 0.26688 0.313207
0.133028 0.269154 0.318135
0.235355 0.271595 0.319646
0.37467 0.280217 0.330114
0.492012 0.284337 0.330251
0.599756 0.288792 0.328481
0.705318 0.294377 0.326711
0.789395 0.290822 0.319844
0.846662 0.272587 0.306371
0.0798047 0.362371 0.328984
0.146395 0.367666 0.337758
0.270726 0.373083 0.354955
0.399161 0.381872 0.360311
0.501625 0.383139 0.354467
0.609262 0.383673 0.348745
0.707988 0.390341 0.347097
0.801999 0.391775 0.338949
0.860121 0.376257 0.321538
0.101472 0.463188 0.367514
0.163043 0.470405 0.374853
0.305989 0.474372 0.391806
0.423941 0.481773 0.400687
0.527596 0.488243 0.397925
0.643503 0.485725 0.382315
0.740414 0.487098 0.374426
0.831403 0.488624 0.364904
0.890242 0.478202 0.34493
0.130449 0.564141 0.40972
0.190982 0.571939 0.416739
0.321477 0.575372 0.427802
0.444114 0.580652 0.43978
0.534585 0.58851 0.436103
0.647898 0.595026 0.433936
0.778546 0.58909 0.406561
0.8636 0.589563 0.395453
0.924712 0.583535 0.371557
0.158694 0.660533 0.451362
0.220447 0.665904 0.454688
0.315831 0.667689 0.456504
0.464851 0.677821 0.474754
0.551766 0.686259 0.471138
0.6421 0.696284 0.470115
0.763439 0.702327 0.462867
0.893248 0.70277 0.444999
0.950454 0.702037 0.417105
0.175357 0.746075 0.481804
0.241352 0.751339 0.48394
0.316503 0.755627 0.482521
0.453468 0.769757 0.496391
0.549233 0.779553 0.494621
0.649607 0.790234 0.488746
0.751781 0.800793 0.481926
0.871763 0.809277 0.465537
0.95378 0.809216 0.451957
0.176104 0.802716 0.493324
0.244633 0.810147 0.495735
0.319432 0.817395 0.495186
0.40267 0.830686 0.492271
0.523583 0.849668 0.496162
0.63093 0.86659 0.488411
0.743816 0.883085 0.472129
0.855131 0.89102 0.459113
0.947051 0.893965 0.463478
0.0587015 0.156466 0.363058
0.119677 0.164034 0.369467
0.222248 0.180743 0.395895
0.367834 0.189075 0.40441
0.504524 0.199405 0.420203
0.629435 0.212772 0.429435
0.726833 0.207172 0.423438
0.792752 0.204227 0.417502
0.845365 0.203281 0.41355
0.0703746 0.206088 0.385199
0.129564 0.210224 0.381567
0.223499 0.222293 0.392554
0.364324 0.233799 0.408042
0.504784 0.247532 0.423316
0.630488 0.2636 0.433417
0.732036 0.264958 0.428717
0.805234 0.250858 0.420172
0.858671 0.239216 0.41294
0.0870375 0.29427 0.402899
0.147768 0.295781 0.407324
0.240742 0.297841 0.400214
0.360235 0.309239 0.418402
0.507103 0.32105 0.430381
0.627161 0.333028 0.435584
0.734768 0.334432 0.431708
0.819394 0.327886 0.427695
0.876173 0.308064 0.417975
0.0966201 0.396246 0.422385
0.162997 0.400305 0.430106
0.274662 0.401068 0.438529
0.395163 0.404868 0.436149
0.525429 0.415457 0.450141
0.639704 0.416327 0.446052
0.743694 0.417075 0.444205
0.838178 0.413931 0.438895
0.899092 0.394156 0.427329
0.109606 0.490898 0.445701
0.176287 0.495933 0.452461
0.300725 0.497993 0.466361
0.431968 0.504967 0.477699
0.551186 0.517708 0.483833
0.65333 0.516274 0.474815
0.755108 0.514794 0.466148
0.856382 0.509911 0.454139
0.920378 0.492241 0.437522
0.134203 0.591592 0.483284
0.195773 0.597696 0.488792
0.320043 0.597742 0.497505
0.455299 0.607141 0.515572
0.5682 0.61677 0.516381
0.672068 0.621683 0.514672
0.786435 0.617044 0.497276
0.879454 0.614084 0.486442
0.946761 0.601801 0.462028
0.16405 0.690913 0.519188
0.227893 0.696696 0.523323
0.330617 0.69926 0.526741
0.489158 0.709606 0.54667
0.580438 0.714763 0.548379
0.671702 0.721462 0.546044
0.784192 0.725689 0.541146
0.903059 0.725109 0.531258
0.971588 0.717296 0.494453
0.191028 0.784573 0.553277
0.257038 0.78967 0.556023
0.3337 0.794751 0.556115
0.472618 0.803449 0.568643
0.602197 0.811734 0.580285
0.68835 0.819013 0.577661
0.778454 0.82742 0.575982
0.88983 0.833021 0.566583
0.980667 0.831785 0.512795
0.198291 0.84744 0.566461
0.263966 0.85214 0.567636
0.335348 0.857084 0.566674
0.413382 0.868254 0.564935
0.534966 0.88336 0.568841
0.646052 0.896315 0.564752
0.75668 0.909377 0.551278
0.871885 0.922835 0.525567
0.971313 0.924666 0.514519
0.0709239 0.201389 0.454398
0.134279 0.209766 0.460243
0.231571 0.225086 0.482948
0.370565 0.233722 0.49546
0.5028 0.24741 0.508415
0.637858 0.258198 0.527199
0.757824 0.274205 0.539956
0.824781 0.256596 0.530343
0.877821 0.253407 0.523735
0.0816358 0.24625 0.472145
0.143267 0.251743 0.473121
0.239994 0.261997 0.478782
0.371344 0.273899 0.499779
0.505425 0.288548 0.512734
0.640162 0.30341 0.531472
0.760678 0.322133 0.544259
0.834379 0.310246 0.536263
0.888945 0.285481 0.524941
0.0972152 0.324926 0.494942
0.161273 0.326345 0.501396
0.252293 0.328298 0.48394
0.358755 0.339406 0.499825
0.495109 0.35462 0.52221
0.637766 0.368109 0.535149
0.761883 0.384527 0.548028
0.847837 0.377218 0.542214
0.904677 0.357198 0.533822
0.118364 0.427024 0.522881
0.185412 0.427893 0.52726
0.283772 0.424826 0.519905
0.39408 0.428107 0.520241
0.512184 0.44094 0.543374
0.655528 0.451499 0.55523
0.768811 0.461067 0.558328
0.865278 0.454246 0.548608
0.925887 0.436011 0.545678
0.126757 0.524269 0.543542
0.198749 0.527596 0.549645
0.310918 0.526177 0.557763
0.433234 0.531762 0.567895
0.547402 0.538598 0.564614
0.674098 0.547677 0.579828
0.782345 0.546639 0.567742
0.884688 0.538872 0.561639
0.950103 0.522759 0.556863
0.14316 0.617853 0.56968
0.204822 0.622019 0.574884
0.324758 0.6206 0.580758
0.459953 0.627726 0.602899
0.5776 0.636011 0.603693
0.694057 0.649546 0.60853
0.797467 0.645609 0.598138
0.897139 0.637766 0.58381
0.970321 0.622431 0.568521
0.169345 0.716655 0.602945
0.23299 0.720638 0.606531
0.329198 0.721447 0.609979
0.466316 0.727581 0.63122
0.591653 0.737606 0.641718
0.701122 0.746624 0.633753
0.805081 0.749874 0.631525
0.912032 0.745983 0.618097
0.989532 0.734203 0.589227
0.195361 0.810483 0.632456
0.26125 0.814481 0.634592
0.337423 0.817975 0.634485
0.476555 0.827695 0.650782
0.625315 0.837797 0.66482
0.715724 0.842847 0.663798
0.803952 0.848508 0.662272
0.904662 0.852644 0.658961
0.997543 0.850202 0.614298
0.208804 0.877241 0.644602
0.276707 0.882017 0.646586
0.349676 0.888533 0.647868
0.430625 0.901595 0.650553
0.549401 0.916533 0.65597
0.660746 0.925658 0.653437
0.768521 0.935729 0.64213
0.883284 0.945556 0.622614
0.993637 0.95555 0.577905
0.0813916 0.244572 0.540307
0.146136 0.253437 0.547997
0.245853 0.268223 0.563775
0.37261 0.278843 0.587427
0.506172 0.289464 0.601282
0.636637 0.305333 0.62005
0.763287 0.316899 0.640009
0.84741 0.322499 0.646433
0.910002 0.314504 0.644907
0.0909285 0.28809 0.560784
0.155749 0.293736 0.563409
0.254398 0.302174 0.569635
0.3738 0.315633 0.594202
0.508843 0.328023 0.607599
0.640223 0.344488 0.625742
0.768139 0.359564 0.646296
0.858396 0.368765 0.654429
0.919768 0.358511 0.65095
0.107164 0.358267 0.591394
0.173678 0.36054 0.592554
0.267887 0.361975 0.576516
0.370321 0.371984 0.588235
0.4963 0.388418 0.621393
0.636439 0.402655 0.633295
0.769436 0.418402 0.651377
0.873564 0.432807 0.664927
0.933013 0.417411 0.659831
0.13228 0.453696 0.619913
0.201038 0.453696 0.623529
0.299718 0.450324 0.615137
0.399908 0.454704 0.607767
0.501503 0.467948 0.629129
0.644984 0.479927 0.653269
0.778759 0.493233 0.665385
0.887556 0.50695 0.674784
0.95053 0.488243 0.672618
0.147829 0.556268 0.653391
0.224537 0.55761 0.657969
0.327092 0.55314 0.653849
0.433707 0.553948 0.653483
0.541222 0.560021 0.653727
0.662486 0.570489 0.679255
0.796536 0.580285 0.688182
0.903929 0.585107 0.688914
0.971878 0.567666 0.68716
0.160433 0.649622 0.674739
0.225895 0.65182 0.679942
0.339101 0.64831 0.683101
0.462013 0.65272 0.699535
0.579629 0.660349 0.703609
0.691646 0.667628 0.701564
0.809705 0.676341 0.714199
0.913817 0.671794 0.698817
0.987732 0.658763 0.698711
0.177035 0.741054 0.697963
0.240421 0.743862 0.701793
0.330968 0.742824 0.703975
0.473762 0.746273 0.723095
0.600488 0.753674 0.737316
0.708522 0.762875 0.730404
0.823285 0.775326 0.736522
0.920165 0.768856 0.719539
1 0.755383 0.706813
0.199451 0.834165 0.724071
0.266087 0.836591 0.726024
0.341802 0.838163 0.72694
0.453132 0.84509 0.743786
0.595941 0.851698 0.762844
0.723995 0.859983 0.764401
0.824399 0.868132 0.756848
0.917281 0.871214 0.75378
1 0.864866 0.723461
0.213382 0.90277 0.733913
0.281529 0.906111 0.735439
0.353521 0.910872 0.736233
0.433036 0.920745 0.739452
0.551415 0.938277 0.74931
0.677378 0.950317 0.75555
0.784176 0.958312 0.750561
0.892638 0.965286 0.734371
1 0.972244 0.701564
0.0854658 0.278355 0.612177
0.151247 0.287175 0.621149
0.251499 0.300191 0.637217
0.374258 0.312154 0.66183
0.507897 0.322499 0.678065
0.638788 0.337209 0.698466
0.765057 0.351034 0.721828
0.85153 0.356085 0.731807
0.918959 0.359075 0.737514
0.0956893 0.319036 0.634501
0.161486 0.324666 0.638346
0.260609 0.332464 0.645823
0.37734 0.347616 0.671122
0.511162 0.359472 0.689464
0.643656 0.374685 0.709651
0.770138 0.391348 0.732662
0.862776 0.399741 0.744915
0.930434 0.402975 0.750439
0.112856 0.385122 0.670619
0.181155 0.388052 0.671946
0.281605 0.391455 0.670054
0.387442 0.400534 0.678569
0.509636 0.41651 0.709331
0.644602 0.430701 0.726223
0.773739 0.448386 0.747799
0.878462 0.461448 0.763577
0.94583 0.462882 0.768688
0.139712 0.476478 0.708049
0.209613 0.476631 0.712215
0.311971 0.476036 0.714366
0.408682 0.484016 0.712489
0.507637 0.492882 0.720317
0.633555 0.5075 0.752956
0.771588 0.52108 0.766781
0.892485 0.535973 0.783123
0.965621 0.534646 0.792737
0.166018 0.578973 0.751751
0.240604 0.578302 0.754192
0.340581 0.574182 0.752453
0.438392 0.577203 0.74995
0.53669 0.583581 0.75845
0.646555 0.593606 0.773022
0.78613 0.603998 0.793271
0.910491 0.615305 0.808148
0.985962 0.616724 0.81738
0.171862 0.676936 0.785992
0.249485 0.677943 0.790646
0.355886 0.67454 0.790494
0.465919 0.677287 0.794598
0.570092 0.68127 0.800519
0.670405 0.68809 0.807126
0.798306 0.695186 0.822461
0.921706 0.703548 0.82884
0.999725 0.705455 0.833982
0.19057 0.769696 0.808865
0.254475 0.770748 0.812604
0.339971 0.768994 0.814847
0.485451 0.768048 0.825208
0.615991 0.773159 0.83122
0.714107 0.783078 0.838773
0.811963 0.79144 0.841123
0.928588 0.797513 0.84773
1 0.792493 0.845197
0.204257 0.855879 0.82414
0.27071 0.857053 0.825971
0.345769 0.857023 0.826719
0.463996 0.860945 0.841016
0.645502 0.862791 0.849119
0.746334 0.8701 0.854582
0.836484 0.879957 0.859205
0.929946 0.891402 0.863554
1 0.881621 0.849119
0.217823 0.92491 0.831449
0.286213 0.927169 0.832639
0.356863 0.930556 0.83418
0.435172 0.937667 0.838727
0.540612 0.952911 0.849058
0.673304 0.961837 0.855375
0.7944 0.971511 0.861692
0.904082 0.979965 0.861631
1 0.984085 0.838926
0.0884108 0.308721 0.681254
0.153811 0.317388 0.691173
0.25478 0.329549 0.708507
0.377386 0.34139 0.734279
0.510399 0.3514 0.750622
0.642542 0.364431 0.772869
0.765576 0.380087 0.79527
0.853483 0.384482 0.806683
0.921431 0.386999 0.813245
0.0985122 0.346487 0.705013
0.164279 0.351873 0.709697
0.264149 0.359091 0.717861
0.381949 0.37438 0.741009
0.513558 0.38529 0.762951
0.647044 0.399451 0.784863
0.770901 0.417044 0.807721
0.864881 0.42504 0.821027
0.93286 0.428 0.828061
0.115724 0.408331 0.742702
0.183963 0.411185 0.744213
0.284581 0.412619 0.742199
0.395911 0.42417 0.757671
0.520226 0.43827 0.784131
0.654627 0.451774 0.803281
0.778729 0.469062 0.825635
0.879835 0.480903 0.841337
0.947845 0.484276 0.847425
0.142138 0.495232 0.786892
0.212543 0.495415 0.791058
0.313237 0.492531 0.788052
0.422263 0.497353 0.7879
0.53373 0.511696 0.812284
0.664973 0.521996 0.830182
0.789807 0.5364 0.84892
0.896925 0.550637 0.86511
0.966598 0.553063 0.873869
0.169924 0.594659 0.832197
0.244312 0.593896 0.83447
0.343282 0.58854 0.83299
0.448631 0.58938 0.837797
0.560647 0.595666 0.841901
0.676249 0.606653 0.867674
0.803021 0.61651 0.879576
0.915984 0.628717 0.89691
0.986343 0.632624 0.903304
0.179644 0.696742 0.877119
0.26743 0.696483 0.879698
0.365866 0.691615 0.87718
0.469169 0.69073 0.880323
0.58233 0.692775 0.887633
0.691295 0.699351 0.904921
0.813016 0.706798 0.914046
0.92372 0.716487 0.922988
0.999924 0.721965 0.928573
0.194156 0.789227 0.902235
0.258228 0.78996 0.906966
0.34725 0.787137 0.909911
0.466484 0.787274 0.913512
0.586725 0.791913 0.923491
0.706172 0.797421 0.933318
0.818906 0.801907 0.940185
0.928038 0.809033 0.947219
1 0.81471 0.952819
0.209888 0.876829 0.920043
0.275868 0.877485 0.922988
0.349325 0.876966 0.926558
0.430045 0.879774 0.935256
0.567422 0.882506 0.941588
0.695644 0.887327 0.949691
0.819028 0.89485 0.959777
0.926421 0.901854 0.967849
1 0.907073 0.972656
0.234882 0.941497 0.922499
0.304601 0.943069 0.924605
0.373404 0.946059 0.928801
0.448951 0.951888 0.936385
0.539864 0.963211 0.950118
0.661402 0.971649 0.959884
0.788708 0.978302 0.968261
0.906615 0.986145 0.976806
1 0.994507 0.984771
