code/data/lut/32感性内敛3.cube
TITLE "LD - Cashmere 3"
# Copyright (c) 2019 Lens Distortions, LLC. All Rights Reserved.
# LensDistortions.com
# ref-CSH1
LUT_3D_SIZE 5
0.0255131 0.0259709 0.0271916
0.144625 0.0496681 0.046891
0.40235 0.0819409 0.057557
0.620783 0.133165 0.0780499
0.746899 0.153735 0.0857404
0.0573281 0.169436 0.114763
0.19501 0.201694 0.108324
0.442939 0.228672 0.0972915
0.644175 0.279515 0.110201
0.777432 0.297932 0.11873
0.102037 0.38822 0.242283
0.234852 0.401053 0.216785
0.476753 0.43798 0.214511
0.702174 0.461219 0.202991
0.838453 0.475151 0.210208
0.157763 0.591363 0.342947
0.300298 0.583688 0.327001
0.494148 0.624079 0.306477
0.717647 0.655833 0.309728
0.898253 0.679988 0.327901
0.185336 0.747906 0.394888
0.321477 0.742275 0.38204
0.516762 0.776028 0.373205
0.723751 0.813703 0.383139
0.905425 0.844526 0.397467
0.0424201 0.0640879 0.16733
0.21648 0.0897993 0.216587
0.47274 0.0959182 0.218585
0.679744 0.122789 0.225071
0.799268 0.129229 0.220874
0.0578012 0.238148 0.224567
0.244236 0.253803 0.250462
0.475242 0.260716 0.241093
0.679713 0.291051 0.242283
0.816938 0.286244 0.219318
0.0966354 0.452842 0.323445
0.303365 0.461616 0.347753
0.517525 0.477333 0.337514
0.73489 0.480461 0.30219
0.869871 0.485679 0.287694
0.14696 0.635721 0.41352
0.312657 0.645289 0.416449
0.525612 0.665492 0.404196
0.749065 0.688243 0.392294
0.927825 0.699718 0.393011
0.175204 0.776577 0.461601
0.325124 0.789807 0.458442
0.527428 0.824674 0.450401
0.743053 0.856977 0.43563
0.931014 0.874571 0.447318
0.0604105 0.150591 0.37702
0.226703 0.18024 0.412634
0.523873 0.204288 0.439567
0.744564 0.216907 0.446937
0.860731 0.214847 0.439628
0.0832685 0.306828 0.421103
0.246113 0.308553 0.416388
0.523919 0.333913 0.447211
0.747951 0.35021 0.450828
0.886061 0.324773 0.439719
0.107927 0.512612 0.467475
0.310826 0.515297 0.483635
0.566812 0.533196 0.499275
0.765164 0.530877 0.482399
0.924498 0.509438 0.454765
0.164675 0.709133 0.541863
0.343587 0.712596 0.544762
0.596124 0.724437 0.562814
0.792859 0.734539 0.555474
0.972778 0.726436 0.509773
0.202625 0.858991 0.587533
0.348638 0.864271 0.583749
0.551064 0.886336 0.582528
0.765774 0.910719 0.564599
0.97203 0.925689 0.528969
0.0789349 0.253574 0.557198
0.252781 0.277745 0.5785
0.524468 0.301595 0.615091
0.776989 0.33315 0.65481
0.919509 0.332128 0.661448
0.104189 0.376089 0.607706
0.276005 0.377066 0.590539
0.512993 0.403967 0.63299
0.780346 0.435874 0.663157
0.938369 0.435767 0.672419
0.146731 0.577569 0.66981
0.339132 0.570214 0.665888
0.557168 0.57496 0.663752
0.804761 0.594797 0.69691
0.97351 0.582696 0.696162
0.178958 0.757427 0.714351
0.344091 0.754681 0.715663
0.615763 0.761608 0.744198
0.830167 0.781994 0.743099
1 0.762631 0.714321
0.218875 0.911513 0.747356
0.367163 0.915434 0.745541
0.566705 0.93904 0.754833
0.791516 0.958267 0.755413
1 0.972305 0.708507
0.0863661 0.324559 0.694377
0.262974 0.34406 0.718135
0.528237 0.366674 0.758022
0.777768 0.397787 0.802609
0.928267 0.405692 0.821057
0.113649 0.429114 0.754345
0.294423 0.430076 0.750408
0.536995 0.454902 0.789471
0.788708 0.486381 0.830289
0.95137 0.501778 0.851789
0.170581 0.615183 0.8421
0.356481 0.60502 0.83859
0.576532 0.609735 0.845075
0.810819 0.629709 0.881605
0.987015 0.645029 0.904509
0.198154 0.803082 0.911284
0.361105 0.79675 0.914534
0.602152 0.798093 0.924758
0.825711 0.807233 0.94081
1 0.819272 0.952987
0.241962 0.947707 0.928634
0.387411 0.948608 0.931273
0.554833 0.963043 0.949874
0.795361 0.977798 0.967712
1 0.994537 0.984802
