code/data/lut/32感性内敛3.cube
TITLE "LD - Cashmere 3"
# Copyright (c) 2019 Lens Distortions, LLC. All Rights Reserved.
# LensDistortions.com
# ref-CSH1
LUT_3D_SIZE 9
0.0255131 0.0259709 0.0271916
0.0562295 0.0345617 0.0357671
0.144625 0.0496681 0.046891
0.275288 0.064271 0.0518807
0.40235 0.0819409 0.057557
0.518029 0.106371 0.0671397
0.620783 0.133165 0.0780499
0.689021 0.144915 0.0827955
0.746899 0.153735 0.0857404
0.0423133 0.0749523 0.0606699
0.0799268 0.0897383 0.0643473
0.177508 0.102525 0.0649424
0.299489 0.118608 0.0641794
0.417655 0.141543 0.0699474
0.528115 0.170901 0.0790723
0.63154 0.200336 0.0890974
0.703334 0.212818 0.0936751
0.760311 0.219272 0.0952468
0.0573281 0.169436 0.114763
0.0966964 0.179507 0.106508
0.19501 0.201694 0.108324
0.337484 0.211124 0.0971237
0.442939 0.228672 0.0972915
0.544259 0.254063 0.101503
0.644175 0.279515 0.110201
0.720104 0.292439 0.11606
0.777432 0.297932 0.11873
0.0761578 0.281071 0.178576
0.123888 0.281865 0.171878
0.208423 0.305013 0.155932
0.342229 0.32163 0.157153
0.477028 0.33463 0.147478
0.574655 0.346853 0.143359
0.670665 0.365194 0.148699
0.748196 0.378454 0.153613
0.802747 0.384619 0.157076
0.102037 0.38822 0.242283
0.155489 0.386587 0.236118
0.234852 0.401053 0.216785
0.350469 0.42089 0.213565
0.476753 0.43798 0.214511
0.607523 0.451606 0.208392
0.702174 0.461219 0.202991
0.783078 0.471305 0.205249
0.838453 0.475151 0.210208
0.131334 0.491691 0.298299
0.191363 0.489067 0.292683
0.273838 0.492226 0.280034
0.372 0.513512 0.264515
0.480827 0.533989 0.267796
0.601678 0.54902 0.263859
0.723735 0.563104 0.263386
0.81445 0.571878 0.262242
0.871534 0.574029 0.267567
0.157763 0.591363 0.342947
0.222034 0.588434 0.337606
0.300298 0.583688 0.327001
0.388678 0.603616 0.311086
0.494148 0.624079 0.306477
0.603525 0.641566 0.312291
0.717647 0.655833 0.309728
0.825086 0.669169 0.310323
0.898253 0.679988 0.327901
0.177676 0.684367 0.3776
0.242344 0.681544 0.372198
0.317128 0.673259 0.362188
0.39881 0.689265 0.347448
0.502113 0.709163 0.345113
0.6094 0.726329 0.346914
0.717113 0.742077 0.350912
0.820722 0.755856 0.35285
0.901717 0.76733 0.361349
0.185336 0.747906 0.394888
0.244923 0.747906 0.389258
0.321477 0.742275 0.38204
0.406638 0.750332 0.3729
0.516762 0.776028 0.373205
0.620233 0.795483 0.376577
0.723751 0.813703 0.383139
0.822431 0.830732 0.390219
0.905425 0.844526 0.397467
0.0328985 0.0376287 0.0730907
0.0751354 0.049958 0.0920272
0.183917 0.0572213 0.102602
0.313832 0.061738 0.103929
0.434516 0.0703593 0.103792
0.549737 0.0828412 0.103975
0.649973 0.103655 0.109575
0.71606 0.113649 0.111833
0.770352 0.122652 0.114336
0.0459907 0.101457 0.103746
0.0963912 0.112215 0.120607
0.197864 0.116793 0.121904
0.322606 0.122423 0.115557
0.436927 0.140871 0.11696
0.545739 0.166262 0.122057
0.647639 0.194034 0.130098
0.718273 0.206546 0.136233
0.773693 0.212711 0.139513
0.0553292 0.205112 0.151385
0.112825 0.216175 0.173342
0.220569 0.224186 0.169436
0.355535 0.223651 0.147051
0.457603 0.237415 0.141405
0.559609 0.257389 0.142779
0.659449 0.279332 0.149874
0.73434 0.291615 0.156344
0.790478 0.296452 0.159579
0.0675364 0.306172 0.211002
0.122057 0.317769 0.225345
0.231128 0.328496 0.214313
0.361257 0.338598 0.211994
0.487968 0.34583 0.195453
0.588281 0.354116 0.185412
0.683253 0.369818 0.18706
0.759441 0.382116 0.191638
0.815274 0.386572 0.196506
0.0894484 0.405478 0.271138
0.148287 0.413703 0.27776
0.257877 0.423224 0.273198
0.368719 0.438193 0.25832
0.490623 0.452415 0.260304
0.619654 0.463218 0.251453
0.714824 0.467704 0.236789
0.794583 0.476341 0.23949
0.849561 0.479805 0.244327
0.118242 0.506035 0.326955
0.183902 0.509133 0.327184
0.279026 0.517922 0.322148
0.385748 0.532692 0.307729
0.495811 0.549569 0.308309
0.615641 0.563165 0.30341
0.737209 0.574395 0.297383
0.825589 0.578576 0.292531
0.883558 0.580163 0.298756
0.147356 0.604593 0.371939
0.216205 0.60264 0.368612
0.300511 0.610147 0.363058
0.397436 0.624292 0.348959
0.505409 0.641474 0.345022
0.615824 0.657832 0.341894
0.730007 0.668818 0.336965
0.837888 0.679911 0.342641
0.910384 0.68835 0.3579
0.16968 0.69688 0.406683
0.239841 0.693355 0.40209
0.318227 0.696727 0.396139
0.412589 0.709316 0.389761
0.509834 0.728237 0.3794
0.618112 0.745266 0.370901
0.727535 0.756634 0.373602
0.831189 0.766857 0.374838
0.913252 0.777615 0.384634
0.180041 0.759747 0.423453
0.244282 0.759152 0.418891
0.322393 0.756603 0.41268
0.412238 0.771634 0.408362
0.521706 0.797436 0.405035
0.626795 0.817014 0.401511
0.732494 0.83151 0.406485
0.83267 0.84567 0.413443
0.916777 0.857588 0.420554
0.0424201 0.0640879 0.16733
0.0853742 0.0762798 0.188022
0.21648 0.0897993 0.216587
0.360265 0.0925154 0.220203
0.47274 0.0959182 0.218585
0.580026 0.107774 0.222019
0.679744 0.122789 0.225071
0.745007 0.127169 0.223041
0.799268 0.129229 0.220874
0.0534066 0.130831 0.203738
0.09897 0.136522 0.208576
0.220203 0.14995 0.225818
0.36318 0.153475 0.225925
0.478813 0.161898 0.226352
0.587427 0.175036 0.225223
0.688823 0.187106 0.221714
0.760922 0.179644 0.211292
0.814572 0.180453 0.208469
0.0578012 0.238148 0.224567
0.117739 0.245396 0.241627
0.244236 0.253803 0.250462
0.366384 0.253895 0.244099
0.475242 0.260716 0.241093
0.578241 0.27509 0.241962
0.679713 0.291051 0.242283
0.761685 0.296162 0.235142
0.816938 0.286244 0.219318
0.0720531 0.34902 0.267033
0.134401 0.356527 0.278614
0.271244 0.361257 0.297673
0.390173 0.365713 0.291981
0.508507 0.365621 0.273945
0.605951 0.373068 0.268421
0.701381 0.383749 0.263447
0.782727 0.387533 0.253925
0.838987 0.385702 0.245579
0.0966354 0.452842 0.323445
0.152026 0.458488 0.33051
0.303365 0.461616 0.347753
0.403372 0.468437 0.338964
0.517525 0.477333 0.337514
0.645808 0.475059 0.310475
0.73489 0.480461 0.30219
0.815488 0.48249 0.286473
0.869871 0.485679 0.287694
0.121859 0.545312 0.372137
0.184009 0.550774 0.377203
0.30898 0.555611 0.38587
0.421103 0.562737 0.379416
0.519493 0.57409 0.373754
0.638132 0.584009 0.373312
0.760616 0.588785 0.353002
0.846296 0.586938 0.331304
0.902205 0.588724 0.336568
0.14696 0.635721 0.41352
0.215167 0.640742 0.416373
0.312657 0.645289 0.416449
0.425711 0.653437 0.414176
0.525612 0.665492 0.404196
0.633677 0.67805 0.401907
0.749065 0.688243 0.392294
0.858335 0.695949 0.383413
0.927825 0.699718 0.393011
0.166613 0.720745 0.447074
0.239109 0.725765 0.44799
0.32018 0.730251 0.443931
0.419837 0.739025 0.438926
0.522469 0.753002 0.431174
0.633051 0.767575 0.424247
0.744091 0.78056 0.409476
0.847913 0.78558 0.408988
0.931868 0.794263 0.423682
0.175204 0.776577 0.461601
0.244846 0.782757 0.461387
0.325124 0.789807 0.458442
0.412161 0.803388 0.452461
0.527428 0.824674 0.450401
0.63415 0.842573 0.442893
0.743053 0.856977 0.43563
0.845518 0.866377 0.441215
0.931014 0.874571 0.447318
0.0516976 0.102892 0.275364
0.0993515 0.114015 0.286793
0.221714 0.130144 0.317494
0.38233 0.139773 0.331731
0.509957 0.152544 0.339284
0.615793 0.155352 0.336385
0.713314 0.162158 0.337636
0.777066 0.165209 0.336583
0.829252 0.16672 0.334066
0.0607309 0.165652 0.307164
0.109133 0.170367 0.302052
0.21323 0.185962 0.320867
0.378759 0.197467 0.332662
0.509957 0.212924 0.342473
0.618479 0.220295 0.3411
0.718975 0.226413 0.340719
0.789883 0.21529 0.333303
0.842481 0.211948 0.328649
0.0694133 0.276005 0.326879
0.127382 0.278141 0.331853
0.24007 0.280064 0.332708
0.388373 0.289708 0.343984
0.508995 0.295064 0.345022
0.616632 0.301122 0.344427
0.720165 0.308492 0.343938
0.802197 0.306035 0.338094
0.858656 0.287907 0.325307
0.0778821 0.379492 0.345495
0.142336 0.383673 0.353414
0.278294 0.387793 0.369879
0.413352 0.396445 0.374975
0.517723 0.397986 0.369162
0.624567 0.399268 0.363943
0.720867 0.406958 0.363012
0.811902 0.409339 0.355352
0.868513 0.394263 0.337896
0.0995499 0.484443 0.387625
0.161501 0.48986 0.393301
0.316243 0.491417 0.408347
0.438911 0.497841 0.416495
0.54342 0.504067 0.413458
0.657465 0.501884 0.397833
0.751308 0.503761 0.390204
0.838941 0.505791 0.380789
0.895827 0.495888 0.360342
0.12932 0.585565 0.432013
0.193469 0.591287 0.437186
0.333303 0.591943 0.445777
0.459937 0.595575 0.456367
0.550637 0.602716 0.452201
0.661677 0.608896 0.449897
0.78764 0.603464 0.422522
0.869245 0.604135 0.411353
0.928176 0.598489 0.386831
0.158846 0.679713 0.474647
0.226459 0.682872 0.475959
0.328038 0.682338 0.475654
0.481376 0.689815 0.4916
0.567987 0.697261 0.487388
0.656275 0.706554 0.486091
0.773098 0.712291 0.478828
0.897444 0.712795 0.461051
0.95259 0.712108 0.432914
0.177249 0.762264 0.505364
0.249424 0.765118 0.505302
0.329122 0.76733 0.502113
0.470161 0.778393 0.513405
0.565637 0.786801 0.510719
0.663584 0.796551 0.504479
0.761868 0.806516 0.497642
0.876677 0.814679 0.481437
0.955596 0.814557 0.467842
0.178195 0.816907 0.517082
0.25304 0.821653 0.517082
0.332235 0.826642 0.514656
0.418448 0.837644 0.510094
0.540124 0.8542 0.512261
0.645182 0.86978 0.503914
0.753796 0.885481 0.487633
0.860334 0.893217 0.474815
0.948745 0.896056 0.479118
0.0604105 0.150591 0.37702
0.114015 0.161349 0.385794
0.226703 0.18024 0.412634
0.382818 0.190921 0.421988
0.523873 0.204288 0.439567
0.648508 0.221042 0.450706
0.744564 0.216907 0.446937
0.809201 0.214954 0.442481
0.860731 0.214847 0.439628
0.068986 0.208652 0.401373
0.123949 0.213443 0.398062
0.227558 0.226459 0.408835
0.378317 0.239872 0.424842
0.522896 0.256229 0.441444
0.647898 0.275166 0.45301
0.747372 0.278187 0.449973
0.819272 0.264485 0.443214
0.871916 0.253056 0.437369
0.0832685 0.306828 0.421103
0.14345 0.307195 0.424491
0.246113 0.308553 0.416388
0.373281 0.320699 0.434546
0.523919 0.333913 0.447211
0.642969 0.347539 0.453422
0.747951 0.35021 0.450828
0.830243 0.344488 0.448081
0.886061 0.324773 0.439719
0.0938582 0.415335 0.442374
0.16083 0.4177 0.448386
0.282673 0.416968 0.455253
0.409247 0.420157 0.45211
0.541405 0.431022 0.466102
0.654108 0.432502 0.462654
0.755047 0.434043 0.461631
0.846311 0.431632 0.45716
0.905715 0.412222 0.446479
0.107927 0.512612 0.467475
0.17641 0.515511 0.472084
0.310826 0.515297 0.483635
0.447166 0.520943 0.493553
0.566812 0.533196 0.499275
0.666865 0.531945 0.490562
0.765164 0.530877 0.482399
0.862562 0.526543 0.470924
0.924498 0.509438 0.454765
0.133425 0.612787 0.50605
0.198871 0.616663 0.509407
0.331853 0.613947 0.515267
0.471305 0.621317 0.531243
0.583825 0.629999 0.531395
0.685023 0.634607 0.529625
0.794995 0.630274 0.512749
0.884169 0.627558 0.502205
0.949065 0.615778 0.478111
0.164675 0.709133 0.541863
0.234623 0.712596 0.543816
0.343587 0.712596 0.544762
0.505821 0.72015 0.561807
0.596124 0.724437 0.562814
0.68484 0.730556 0.560281
0.792859 0.734539 0.555474
0.906661 0.733989 0.545846
0.972778 0.726436 0.509773
0.194659 0.798795 0.574945
0.266224 0.801541 0.575494
0.347036 0.804517 0.573724
0.489311 0.810391 0.583413
0.617395 0.817212 0.5935
0.700786 0.823926 0.590692
0.787182 0.831907 0.588998
0.893797 0.837308 0.579934
0.981506 0.836011 0.527642
0.202625 0.858991 0.587533
0.273548 0.861341 0.586511
0.348638 0.864271 0.583749
0.42916 0.873396 0.580438
0.551064 0.886336 0.582528
0.659495 0.898207 0.577844
0.765774 0.910719 0.564599
0.876005 0.923888 0.539712
0.97203 0.925689 0.528969
0.0700236 0.203922 0.471443
0.129427 0.213504 0.477699
0.237018 0.230182 0.499641
0.385458 0.24036 0.512078
0.521431 0.256474 0.525811
0.655848 0.269947 0.545785
0.772702 0.288563 0.559625
0.83859 0.271077 0.552148
0.890455 0.268437 0.546777
0.078584 0.25481 0.490135
0.138888 0.259846 0.490425
0.245838 0.270405 0.495262
0.385687 0.283604 0.51577
0.523171 0.30013 0.529137
0.656794 0.317311 0.548653
0.773831 0.338155 0.562173
0.845716 0.326757 0.55581
0.899779 0.301808 0.546593
0.0937362 0.340215 0.513375
0.158953 0.340276 0.518471
0.2589 0.341299 0.500191
0.371832 0.352743 0.515297
0.511757 0.368917 0.537331
0.653056 0.383825 0.550805
0.773419 0.401617 0.564218
0.856641 0.394949 0.559579
0.912337 0.375128 0.55259
0.115587 0.44712 0.542
0.186221 0.446159 0.544488
0.292653 0.44155 0.535729
0.40827 0.444053 0.535134
0.528237 0.456855 0.557397
0.669398 0.467933 0.56936
0.778866 0.47808 0.572946
0.87187 0.471824 0.564218
0.9308 0.454032 0.562051
0.125277 0.545998 0.563912
0.201556 0.547036 0.56759
0.321843 0.543496 0.573266
0.448646 0.547646 0.581674
0.563149 0.553841 0.577996
0.686976 0.562783 0.592721
0.791196 0.562051 0.581369
0.889525 0.554772 0.575845
0.952819 0.539162 0.571466
0.142641 0.638529 0.59057
0.208942 0.640467 0.5935
0.336965 0.636347 0.596399
0.476127 0.641367 0.615854
0.593133 0.648615 0.615885
0.706279 0.661463 0.620371
0.805508 0.65774 0.610437
0.90103 0.650263 0.596719
0.971633 0.635447 0.581949
0.170413 0.734035 0.623163
0.240177 0.735698 0.624475
0.342138 0.734066 0.625422
0.482902 0.737682 0.643549
0.607141 0.746258 0.652598
0.713176 0.754574 0.644648
0.812802 0.757656 0.642481
0.915236 0.753902 0.629572
0.990082 0.742443 0.601633
0.199344 0.82359 0.651194
0.270665 0.825269 0.651087
0.350866 0.826688 0.649058
0.493187 0.833555 0.662196
0.639765 0.842069 0.674418
0.726986 0.846708 0.673213
0.811475 0.85214 0.671702
0.907973 0.856153 0.668544
0.997864 0.853635 0.625574
0.213993 0.88719 0.66215
0.286885 0.889647 0.661875
0.363333 0.894072 0.661219
0.446448 0.905058 0.662058
0.564981 0.918105 0.66566
0.67335 0.926452 0.662608
0.776791 0.936233 0.651637
0.886732 0.946014 0.63299
0.993667 0.955779 0.58999
0.0789349 0.253574 0.557198
0.14258 0.262303 0.564034
0.252781 0.277745 0.5785
0.387549 0.289433 0.601099
0.524468 0.301595 0.615091
0.653773 0.319646 0.634256
0.776989 0.33315 0.65481
0.858351 0.339773 0.661845
0.919509 0.332128 0.661448
0.087892 0.301274 0.577539
0.153155 0.305943 0.578973
0.261799 0.314137 0.583978
0.388327 0.328359 0.607217
0.52639 0.341878 0.620478
0.656306 0.360037 0.638788
0.780407 0.376715 0.659602
0.867414 0.386755 0.668055
0.927306 0.376822 0.665629
0.104189 0.376089 0.607706
0.173404 0.376806 0.60737
0.276005 0.377066 0.590539
0.384115 0.386999 0.601144
0.512993 0.403967 0.63299
0.65156 0.41912 0.645014
0.780346 0.435874 0.663157
0.880461 0.450828 0.676616
0.938369 0.435767 0.672419
0.129946 0.474525 0.636133
0.203906 0.472679 0.637797
0.309926 0.467704 0.628016
0.414527 0.471168 0.619928
0.517662 0.484138 0.640116
0.659129 0.4963 0.663462
0.788266 0.509957 0.675578
0.892699 0.523766 0.684871
0.953826 0.505547 0.683207
0.146731 0.577569 0.66981
0.230106 0.576593 0.671931
0.339132 0.570214 0.665888
0.449317 0.569665 0.664164
0.557168 0.57496 0.663752
0.675807 0.585077 0.688121
0.804761 0.594797 0.69691
0.907744 0.599603 0.697734
0.97351 0.582696 0.696162
0.160586 0.66923 0.691539
0.232181 0.669184 0.694362
0.352209 0.663188 0.694743
0.47837 0.665629 0.70869
0.595224 0.672145 0.711788
0.704005 0.678874 0.70956
0.817212 0.687251 0.721706
0.916976 0.682887 0.706966
0.988388 0.670237 0.706706
0.178958 0.757427 0.714351
0.248249 0.757961 0.715862
0.344091 0.754681 0.715663
0.49044 0.755566 0.731579
0.615763 0.761608 0.744198
0.720256 0.770123 0.73727
0.830167 0.781994 0.743099
0.923033 0.775769 0.726757
1 0.762631 0.714321
0.203876 0.846189 0.738857
0.275792 0.846357 0.738567
0.355367 0.84596 0.73753
0.469566 0.850507 0.751568
0.611093 0.855512 0.768505
0.734844 0.863127 0.769635
0.83093 0.871031 0.762371
0.920058 0.874052 0.759441
1 0.86775 0.730175
0.218875 0.911513 0.747356
0.291859 0.912612 0.746654
0.367163 0.915434 0.745541
0.448722 0.923415 0.74696
0.566705 0.93904 0.754833
0.689067 0.950317 0.76022
0.791516 0.958267 0.755413
0.895582 0.965393 0.740017
1 0.972305 0.708507
0.0831006 0.291234 0.627359
0.148653 0.299443 0.635035
0.259174 0.31252 0.649409
0.389273 0.325124 0.672511
0.525933 0.336507 0.688487
0.65539 0.35288 0.708934
0.777905 0.368261 0.732464
0.861402 0.374136 0.74284
0.926726 0.377584 0.748837
0.09308 0.335073 0.649195
0.160067 0.339467 0.651576
0.268788 0.346685 0.657542
0.392096 0.362203 0.681147
0.528603 0.374716 0.698894
0.659358 0.391135 0.718929
0.781781 0.409003 0.741863
0.870985 0.418036 0.754223
0.936416 0.421561 0.759884
0.110338 0.404639 0.684489
0.182086 0.40589 0.684138
0.29102 0.408026 0.680766
0.402106 0.416632 0.68809
0.526406 0.432792 0.717418
0.659403 0.447547 0.73402
0.784161 0.465873 0.755337
0.884749 0.479255 0.770886
0.949859 0.480797 0.776013
0.137804 0.497887 0.721172
0.213703 0.496147 0.723308
0.323201 0.493858 0.723537
0.423835 0.500816 0.720699
0.52398 0.509133 0.727733
0.64799 0.523598 0.759075
0.781231 0.537285 0.772732
0.897169 0.552071 0.788663
0.967819 0.55079 0.798016
0.166125 0.599725 0.764202
0.247745 0.596902 0.764385
0.353491 0.59089 0.760632
0.454292 0.592554 0.756909
0.552834 0.598093 0.764431
0.66041 0.607569 0.778241
0.794736 0.617716 0.797864
0.913893 0.628656 0.812284
0.986816 0.629877 0.821042
0.173068 0.695567 0.798474
0.257816 0.694041 0.800473
0.369848 0.688365 0.797909
0.482414 0.689342 0.800214
0.585916 0.692317 0.805112
0.683528 0.698512 0.81117
0.806271 0.705257 0.825971
0.924483 0.713207 0.83209
0.999939 0.714809 0.83682
0.19411 0.784558 0.820676
0.263447 0.783459 0.822202
0.353536 0.779614 0.822248
0.502174 0.776242 0.829831
0.630808 0.780148 0.834669
0.725567 0.78938 0.841764
0.819242 0.79736 0.844007
0.931075 0.803128 0.850401
1 0.798093 0.8477
0.20911 0.866804 0.834943
0.280659 0.865797 0.834577
0.359457 0.863874 0.833432
0.480415 0.865476 0.845121
0.659129 0.865888 0.851652
0.756115 0.872816 0.85684
0.842374 0.882414 0.861387
0.932174 0.893538 0.86566
1 0.883955 0.851484
0.223651 0.932509 0.840833
0.296681 0.932616 0.839872
0.370474 0.934203 0.839597
0.450706 0.939605 0.842466
0.55584 0.953201 0.851087
0.684916 0.961501 0.856703
0.801068 0.971222 0.862989
0.906493 0.979919 0.863218
1 0.984146 0.841184
0.0863661 0.324559 0.694377
0.151919 0.33228 0.702739
0.262974 0.34406 0.718135
0.392554 0.356069 0.742168
0.528237 0.366674 0.758022
0.658701 0.380941 0.780179
0.777768 0.397787 0.802609
0.862547 0.402853 0.814313
0.928267 0.405692 0.821057
0.0963149 0.364691 0.717525
0.163622 0.368658 0.720623
0.272831 0.374945 0.727047
0.396933 0.390173 0.748409
0.530907 0.401358 0.769482
0.662409 0.416388 0.791135
0.782071 0.434852 0.81384
0.87248 0.443305 0.827176
0.938125 0.446464 0.834257
0.113649 0.429114 0.754345
0.185534 0.430121 0.753994
0.294423 0.430076 0.750408
0.411048 0.440925 0.764294
0.536995 0.454902 0.789471
0.669062 0.468711 0.808255
0.788708 0.486381 0.830289
0.88574 0.49839 0.845792
0.95137 0.501778 0.851789
0.140627 0.517067 0.797589
0.217212 0.515221 0.799588
0.324758 0.510582 0.794781
0.437873 0.514153 0.793378
0.550011 0.52781 0.816419
0.678492 0.537926 0.833768
0.798611 0.552285 0.852171
0.901259 0.566278 0.867994
0.96849 0.568566 0.876463
0.170581 0.615183 0.8421
0.251957 0.612253 0.842115
0.356481 0.60502 0.83859
0.46479 0.604395 0.84184
0.576532 0.609735 0.845075
0.689113 0.620142 0.869917
0.810819 0.629709 0.881605
0.919036 0.641459 0.898482
0.987015 0.645029 0.904509
0.181842 0.714488 0.886748
0.277134 0.711498 0.886534
0.380285 0.704631 0.88191
0.485695 0.70219 0.883421
0.597894 0.703227 0.889662
0.703578 0.709163 0.906264
0.820203 0.716258 0.91516
0.926284 0.72546 0.923842
1 0.730465 0.929046
0.198154 0.803082 0.911284
0.267506 0.801678 0.913817
0.361105 0.79675 0.914534
0.48307 0.794766 0.916014
0.602152 0.798093 0.924758
0.717769 0.80296 0.934066
0.825711 0.807233 0.94081
0.930388 0.814038 0.947723
1 0.819272 0.952987
0.215213 0.886534 0.927871
0.286061 0.885069 0.928695
0.363012 0.88275 0.930434
0.445914 0.883879 0.937438
0.582818 0.885023 0.942245
0.707179 0.889265 0.949859
0.825406 0.896635 0.959945
0.928588 0.903578 0.968093
1 0.908568 0.972747
0.241962 0.947707 0.928634
0.315877 0.94728 0.928725
0.387411 0.948608 0.931273
0.464408 0.952987 0.937377
0.554833 0.963043 0.949874
0.673121 0.970932 0.959121
0.795361 0.977798 0.967712
0.908766 0.986023 0.976669
1 0.994537 0.984802
