code/data/lut/32感性内敛1.cube
TITLE "LD - Cashmere 1"
# Copyright (c) 2019 Lens Distortions, LLC. All Rights Reserved.
# LensDistortions.com
# ref-CSH1
LUT_3D_SIZE 33
0.0169985 0.0180362 0.019379
0.0227359 0.0201419 0.0220645
0.0313268 0.0213016 0.0230716
0.0466011 0.0237888 0.0254978
0.0627451 0.0276646 0.0287938
0.0811017 0.0329137 0.0327916
0.104158 0.0388037 0.0371557
0.12987 0.0454108 0.0413825
0.156405 0.0519417 0.045304
0.182712 0.0574807 0.0470436
0.209186 0.0617533 0.0474556
0.238392 0.0654917 0.0476997
0.267826 0.0695048 0.0480201
0.298253 0.0732433 0.0490578
0.327642 0.0768902 0.0502022
0.35642 0.0812085 0.0519265
0.38526 0.0860609 0.0541543
0.41416 0.0911269 0.0565805
0.441901 0.0964828 0.0594644
0.469612 0.102129 0.0622873
0.496818 0.108309 0.065568
0.523751 0.114656 0.0691844
0.550256 0.120882 0.072282
0.575555 0.126925 0.0751659
0.598932 0.132174 0.0775311
0.617426 0.135012 0.0788891
0.63444 0.137179 0.0796521
0.65156 0.1393 0.080766
0.66772 0.141451 0.0816052
0.682383 0.142885 0.0822766
0.697337 0.144732 0.0826429
0.711727 0.146227 0.0831769
0.726482 0.148043 0.0837415
0.0221866 0.0294652 0.0267948
0.0279698 0.031754 0.029572
0.0391546 0.0346838 0.0308537
0.054078 0.0361334 0.0318151
0.0699474 0.0406043 0.0345159
0.0889754 0.0466011 0.0381476
0.110613 0.053193 0.0418708
0.1337 0.0592966 0.0445106
0.157565 0.0642863 0.0461433
0.183337 0.0688945 0.0474708
0.211444 0.0730907 0.0482032
0.241413 0.0767376 0.0486305
0.27219 0.0802014 0.0497902
0.302602 0.0836652 0.0507362
0.331731 0.0879683 0.0521401
0.360815 0.0928206 0.0539254
0.389227 0.0979171 0.0563516
0.417304 0.103258 0.0591745
0.444617 0.109071 0.0617227
0.471901 0.115221 0.0652781
0.499199 0.121447 0.0688334
0.525979 0.127749 0.0714885
0.552041 0.133867 0.0749065
0.578012 0.140185 0.0777447
0.601801 0.145357 0.0800793
0.620493 0.148135 0.0815137
0.637903 0.150423 0.0827649
0.654734 0.152438 0.0835584
0.671504 0.154559 0.0847791
0.685939 0.15613 0.0850996
0.700542 0.157931 0.0855421
0.715114 0.159197 0.085893
0.730037 0.16083 0.0864271
0.0263218 0.0438544 0.0349584
0.0317082 0.0468757 0.0373236
0.0433814 0.0517128 0.0386969
0.0630655 0.0557717 0.0408942
0.0787671 0.0592508 0.0424506
0.0962844 0.0643015 0.0445106
0.115511 0.0687877 0.0461585
0.136629 0.0736706 0.0475013
0.161074 0.0779736 0.0488899
0.187808 0.0818647 0.0502785
0.216602 0.0854963 0.0512245
0.246738 0.0892195 0.0520485
0.277485 0.0927138 0.0530556
0.30724 0.096849 0.0535439
0.336889 0.101259 0.0554055
0.365103 0.106294 0.0571908
0.393057 0.111864 0.0597086
0.420539 0.117723 0.0624247
0.447623 0.123873 0.0653391
0.474632 0.129961 0.0687266
0.501457 0.136294 0.0712291
0.528496 0.142504 0.0746624
0.554665 0.148806 0.0777295
0.580713 0.155169 0.0804761
0.605234 0.160571 0.0830091
0.624613 0.163958 0.0845808
0.641443 0.165927 0.0853437
0.658686 0.16788 0.0863355
0.675319 0.169909 0.0874037
0.690196 0.171466 0.0877241
0.704753 0.172732 0.0881971
0.71928 0.174228 0.0887465
0.733577 0.175463 0.0890211
0.0313268 0.0637522 0.0469673
0.0367132 0.0657206 0.0484627
0.0486915 0.0702678 0.0491798
0.0655985 0.0746319 0.0506752
0.0857862 0.0781872 0.0525673
0.104173 0.0819409 0.0534524
0.123598 0.0849165 0.0539712
0.145129 0.0888685 0.0545052
0.168673 0.0925154 0.0549325
0.194934 0.0966354 0.055024
0.223148 0.100496 0.0557717
0.252705 0.10399 0.0565805
0.283024 0.107576 0.057435
0.312825 0.111635 0.0582132
0.341741 0.116625 0.0598611
0.369772 0.121981 0.0623331
0.39704 0.127886 0.0645762
0.423667 0.133669 0.0671397
0.450736 0.139574 0.0702068
0.47776 0.145785 0.0729076
0.504616 0.15201 0.076051
0.531472 0.158434 0.0785992
0.557855 0.164706 0.0814069
0.583261 0.170794 0.0838178
0.608225 0.176532 0.0861372
0.629267 0.18056 0.0877241
0.646174 0.182452 0.0883803
0.663081 0.184085 0.089189
0.680217 0.186526 0.0902113
0.694499 0.187655 0.090486
0.709316 0.188983 0.0911116
0.723766 0.190173 0.0915389
0.73817 0.191546 0.092195
0.0367742 0.0850843 0.0652323
0.0430762 0.0853742 0.0650797
0.0537728 0.0877852 0.0628824
0.0704814 0.0919051 0.0616464
0.0865339 0.0966201 0.0646525
0.109911 0.100267 0.06598
0.133028 0.104082 0.0660868
0.15462 0.107027 0.0645914
0.178149 0.10956 0.0638285
0.204227 0.112978 0.0631418
0.231739 0.11664 0.0633097
0.259922 0.120684 0.0629587
0.289509 0.124773 0.0633555
0.318746 0.129229 0.0643778
0.346899 0.134005 0.0658732
0.373846 0.139147 0.0685588
0.400671 0.144503 0.0708171
0.427466 0.150347 0.0730755
0.454368 0.156268 0.0757153
0.48101 0.162371 0.078172
0.508064 0.168566 0.0809186
0.534417 0.174716 0.0832532
0.5608 0.181018 0.0859693
0.586496 0.187152 0.0882429
0.611582 0.193164 0.090486
0.633783 0.197635 0.0923629
0.650401 0.199313 0.0926375
0.667506 0.201236 0.0933089
0.684382 0.203159 0.0941939
0.69929 0.204578 0.0944991
0.713497 0.205768 0.094377
0.72813 0.206973 0.094789
0.742519 0.20798 0.0950027
0.041474 0.105669 0.0817121
0.0484627 0.105425 0.0808576
0.0608377 0.105425 0.0786908
0.0746777 0.110842 0.0753033
0.0897383 0.116243 0.0770886
0.109361 0.121431 0.0793774
0.138811 0.124178 0.0791791
0.164691 0.128267 0.0782635
0.187915 0.130327 0.0758373
0.21442 0.132555 0.0742046
0.241627 0.13521 0.0727703
0.270314 0.138415 0.0722667
0.298329 0.142596 0.071931
0.325399 0.147219 0.0724346
0.35227 0.152102 0.0738079
0.378042 0.157794 0.0755016
0.404883 0.163088 0.0775311
0.431342 0.168246 0.0794232
0.458045 0.174136 0.0814679
0.484886 0.179934 0.0840925
0.511482 0.186023 0.086244
0.537942 0.192264 0.0883803
0.564233 0.198459 0.0906844
0.589731 0.204379 0.0929427
0.614923 0.210224 0.0950942
0.637842 0.215351 0.0970321
0.655131 0.217334 0.0977035
0.67187 0.218708 0.0982071
0.688975 0.220829 0.0992905
0.703731 0.222095 0.0992447
0.718547 0.223362 0.0994888
0.73283 0.224247 0.0995956
0.747082 0.225605 0.0996567
0.0462806 0.127962 0.0957198
0.0542458 0.12755 0.094667
0.0670176 0.126741 0.0924086
0.0801099 0.130724 0.0894331
0.0936599 0.137179 0.0878004
0.111574 0.142702 0.0907149
0.135103 0.147311 0.0919966
0.168353 0.149416 0.0911727
0.198642 0.152407 0.0889601
0.223865 0.154971 0.0862135
0.252308 0.156237 0.0840314
0.280034 0.158846 0.0825513
0.307393 0.161959 0.0820172
0.333776 0.16611 0.082063
0.359701 0.170809 0.0822766
0.385092 0.176333 0.0834058
0.410468 0.181979 0.0846265
0.436332 0.187716 0.0863355
0.462303 0.193469 0.0879683
0.488441 0.198886 0.0897078
0.515007 0.204746 0.0919509
0.541527 0.210681 0.0943465
0.567529 0.2168 0.0961318
0.59321 0.222629 0.0985275
0.618219 0.228382 0.100832
0.642359 0.233829 0.102617
0.6598 0.235691 0.103166
0.676829 0.237232 0.103822
0.693446 0.239017 0.104524
0.708736 0.240391 0.104921
0.723125 0.241489 0.105119
0.73756 0.242679 0.105409
0.751705 0.243503 0.105226
0.051133 0.150607 0.109712
0.0600443 0.150042 0.107942
0.0720226 0.149416 0.105608
0.084947 0.152285 0.1028
0.0985733 0.158389 0.0996719
0.115663 0.164263 0.0999924
0.135653 0.169528 0.104067
0.163363 0.173465 0.10312
0.200732 0.175021 0.101335
0.235218 0.17731 0.0987259
0.262303 0.179538 0.0957809
0.289387 0.181369 0.0931716
0.31664 0.183825 0.0917983
0.342916 0.187106 0.09131
0.367849 0.191196 0.091371
0.392889 0.196063 0.0919814
0.41767 0.201251 0.0925917
0.442832 0.207034 0.0937362
0.468177 0.212924 0.0948959
0.49398 0.218738 0.0964065
0.519326 0.224613 0.0979934
0.54551 0.230274 0.100084
0.57142 0.235904 0.102235
0.596902 0.241611 0.104372
0.621912 0.247135 0.106798
0.646296 0.252705 0.10898
0.665003 0.254887 0.109834
0.681804 0.256321 0.110506
0.698436 0.257969 0.111177
0.714031 0.259709 0.112139
0.728222 0.260487 0.112169
0.742794 0.261433 0.11223
0.756863 0.262364 0.112306
0.0560159 0.173526 0.123522
0.0654307 0.17322 0.121874
0.0766766 0.173098 0.119356
0.0907301 0.174029 0.117601
0.102892 0.180179 0.112566
0.120089 0.186069 0.111269
0.139986 0.191546 0.11284
0.162829 0.196796 0.115724
0.194049 0.200168 0.114549
0.236332 0.200351 0.112245
0.272312 0.203143 0.108675
0.300038 0.205753 0.105653
0.32546 0.20763 0.102602
0.351431 0.210376 0.101396
0.376349 0.213672 0.101198
0.400931 0.218021 0.101289
0.425956 0.222431 0.102007
0.450736 0.22742 0.102342
0.475807 0.232837 0.10312
0.500755 0.238499 0.104143
0.525505 0.244434 0.105394
0.550561 0.250385 0.10724
0.575875 0.255741 0.109148
0.601022 0.261479 0.110887
0.626184 0.266682 0.113191
0.650752 0.272023 0.115618
0.670634 0.275151 0.117037
0.687175 0.276341 0.11754
0.703731 0.277714 0.118257
0.719707 0.279637 0.119722
0.734005 0.280308 0.119677
0.748165 0.281193 0.119936
0.762524 0.282017 0.120272
0.0619821 0.197345 0.137652
0.071519 0.197345 0.136248
0.0819409 0.197086 0.133959
0.096025 0.197543 0.132799
0.110063 0.202289 0.128405
0.124727 0.208515 0.124285
0.14493 0.214191 0.123033
0.166354 0.219715 0.12607
0.192599 0.22414 0.128664
0.226902 0.227268 0.125978
0.270726 0.227588 0.123232
0.308782 0.229374 0.119203
0.33608 0.233295 0.116793
0.359472 0.235309 0.11339
0.384604 0.238056 0.112078
0.409232 0.241382 0.111513
0.434226 0.245228 0.111559
0.458869 0.249531 0.111711
0.483558 0.254108 0.112474
0.508217 0.259266 0.113298
0.533074 0.26453 0.114549
0.557855 0.27013 0.115831
0.582879 0.275685 0.117357
0.607202 0.281422 0.119036
0.631205 0.286793 0.120729
0.655207 0.292119 0.122759
0.676371 0.29572 0.124559
0.693111 0.296864 0.125078
0.709743 0.298329 0.125963
0.726116 0.299992 0.128161
0.740505 0.300893 0.128542
0.754482 0.301381 0.128511
0.768948 0.302144 0.128862
0.0682231 0.221775 0.15172
0.0773022 0.22182 0.150439
0.0876326 0.222049 0.148959
0.101015 0.221683 0.14728
0.11725 0.225299 0.145113
0.130709 0.231724 0.138552
0.149615 0.237324 0.136507
0.171618 0.242954 0.136385
0.195209 0.247944 0.139513
0.225315 0.252018 0.141161
0.261769 0.254643 0.137514
0.305333 0.254963 0.134752
0.343648 0.256535 0.131411
0.370092 0.261234 0.128527
0.392493 0.264134 0.125811
0.417136 0.266224 0.123644
0.442023 0.269169 0.122637
0.466804 0.272984 0.122759
0.491325 0.276997 0.122972
0.51606 0.28127 0.12372
0.540993 0.285924 0.124346
0.566033 0.290883 0.125719
0.590249 0.296178 0.126986
0.614649 0.301335 0.128725
0.638361 0.306676 0.130129
0.662181 0.311986 0.132174
0.683253 0.316091 0.133516
0.700267 0.317662 0.134005
0.716564 0.318944 0.1346
0.732876 0.321096 0.13727
0.747112 0.321843 0.137545
0.761303 0.322286 0.137514
0.775418 0.323049 0.137881
0.074342 0.24596 0.165103
0.0825666 0.246693 0.164309
0.0925917 0.247456 0.163272
0.106172 0.246693 0.161517
0.123247 0.249073 0.159838
0.137224 0.254704 0.153384
0.154223 0.260533 0.150134
0.176654 0.266041 0.148531
0.200168 0.271504 0.149096
0.226688 0.275975 0.152987
0.259144 0.279744 0.152865
0.29662 0.282078 0.149218
0.339086 0.282628 0.14757
0.375692 0.284764 0.14374
0.402991 0.289586 0.141497
0.426688 0.292607 0.138827
0.449592 0.294942 0.136034
0.474754 0.297429 0.134783
0.499519 0.300603 0.134813
0.524224 0.304601 0.135073
0.549218 0.308476 0.135836
0.573724 0.312978 0.136614
0.598489 0.317433 0.137972
0.622431 0.322332 0.139178
0.646555 0.327047 0.140948
0.670024 0.332174 0.142321
0.69189 0.336309 0.14403
0.708995 0.338369 0.144183
0.724651 0.339879 0.14435
0.740795 0.342214 0.147219
0.755032 0.343191 0.147402
0.768841 0.343679 0.147585
0.78291 0.34435 0.148043
0.0803388 0.270939 0.178958
0.0881361 0.271687 0.178271
0.0984817 0.272587 0.177325
0.11281 0.272038 0.175921
0.129564 0.272404 0.173983
0.146838 0.27715 0.17116
0.159472 0.283787 0.163088
0.181567 0.289158 0.162097
0.205951 0.29424 0.160586
0.231373 0.299336 0.16199
0.260304 0.303609 0.165637
0.294194 0.307164 0.164279
0.330404 0.309773 0.16144
0.371237 0.310903 0.159869
0.407523 0.31284 0.156344
0.435599 0.317403 0.154284
0.460212 0.321355 0.152163
0.483345 0.3234 0.14931
0.508232 0.325551 0.14789
0.532815 0.328588 0.147463
0.557275 0.332052 0.147585
0.582132 0.335805 0.148486
0.6065 0.340032 0.149248
0.630915 0.344137 0.150576
0.654765 0.348669 0.151827
0.678477 0.353094 0.153735
0.700526 0.357351 0.155001
0.718807 0.359442 0.155581
0.734508 0.360662 0.155825
0.750423 0.363134 0.158556
0.764401 0.364248 0.158724
0.777462 0.365042 0.15845
0.790845 0.366064 0.158556
0.0859083 0.295933 0.19295
0.0940566 0.29688 0.192432
0.104952 0.297719 0.191501
0.119448 0.296956 0.190051
0.135805 0.296193 0.188159
0.154131 0.29984 0.186389
0.168322 0.306157 0.179171
0.187243 0.311971 0.175296
0.211414 0.317418 0.173938
0.237659 0.322377 0.172122
0.265263 0.326894 0.175326
0.295369 0.331075 0.178256
0.329168 0.334264 0.176532
0.363684 0.337484 0.173907
0.40264 0.338918 0.17232
0.439597 0.341024 0.169589
0.468086 0.345571 0.167514
0.493935 0.349538 0.165652
0.517174 0.351995 0.163577
0.541451 0.353872 0.161288
0.566186 0.356512 0.160723
0.590799 0.359701 0.161181
0.615015 0.363195 0.161578
0.639231 0.366949 0.162417
0.663249 0.370901 0.163912
0.686458 0.375174 0.165042
0.709422 0.37911 0.166583
0.72842 0.381674 0.167071
0.743893 0.382681 0.167056
0.759655 0.384833 0.16936
0.774105 0.386023 0.17026
0.787381 0.386557 0.170031
0.800778 0.387411 0.170077
0.0921035 0.320867 0.206699
0.100725 0.321889 0.20621
0.112123 0.322499 0.205524
0.126711 0.32192 0.204196
0.142901 0.320974 0.20264
0.161059 0.322927 0.20058
0.176745 0.32842 0.194476
0.192782 0.334997 0.188708
0.217334 0.340063 0.187167
0.243519 0.345113 0.184939
0.270787 0.349828 0.184695
0.29929 0.35407 0.188113
0.329732 0.358267 0.19089
0.362387 0.362158 0.188876
0.395651 0.36553 0.186618
0.43447 0.367269 0.185702
0.471351 0.369268 0.182956
0.50045 0.373587 0.180545
0.527535 0.377951 0.179477
0.550454 0.380392 0.177111
0.574304 0.382559 0.175006
0.599588 0.384497 0.174411
0.624094 0.387396 0.17438
0.647745 0.390707 0.174731
0.671656 0.394049 0.175677
0.694774 0.39794 0.176562
0.717769 0.401877 0.17789
0.738277 0.404562 0.178958
0.753399 0.405127 0.178653
0.769284 0.407065 0.181155
0.783703 0.408255 0.182116
0.797009 0.409064 0.182116
0.810285 0.409888 0.182116
0.0987411 0.345922 0.22063
0.107637 0.346868 0.219898
0.120134 0.34725 0.219425
0.134585 0.346792 0.218631
0.149935 0.345785 0.216281
0.168231 0.34641 0.214252
0.187945 0.350454 0.211841
0.200763 0.357214 0.202197
0.223178 0.362753 0.200153
0.249393 0.367559 0.198169
0.277089 0.372442 0.196353
0.304814 0.377157 0.19765
0.332967 0.381781 0.201404
0.363455 0.38613 0.203708
0.394858 0.390372 0.20148
0.428397 0.393622 0.199435
0.466392 0.395483 0.19881
0.50248 0.39765 0.196002
0.532174 0.401801 0.194095
0.559792 0.40647 0.192844
0.583612 0.408881 0.190539
0.607385 0.410529 0.188983
0.632517 0.41268 0.187823
0.656474 0.415412 0.187716
0.679713 0.418448 0.188083
0.703197 0.421561 0.189044
0.725795 0.424903 0.189868
0.747341 0.428229 0.191165
0.762753 0.428534 0.190768
0.778851 0.430213 0.192874
0.79353 0.431617 0.194354
0.80679 0.432242 0.1944
0.819791 0.432609 0.194171
0.105882 0.37084 0.23415
0.114687 0.371878 0.233783
0.128466 0.372396 0.233463
0.142809 0.371618 0.231952
0.158114 0.370504 0.229892
0.175845 0.369589 0.227909
0.196048 0.373434 0.226276
0.211505 0.379065 0.218509
0.22977 0.385092 0.213413
0.255299 0.390036 0.211887
0.283055 0.394888 0.209842
0.31075 0.399817 0.208194
0.338201 0.404868 0.210864
0.365805 0.409842 0.214328
0.395804 0.414313 0.216007
0.426947 0.418494 0.21323
0.460441 0.421744 0.211841
0.497414 0.423743 0.211017
0.533227 0.426093 0.208713
0.563745 0.429999 0.206943
0.591424 0.434592 0.206012
0.616968 0.437644 0.20502
0.639826 0.43917 0.20264
0.663935 0.440818 0.200839
0.688273 0.443427 0.200793
0.711727 0.445991 0.201389
0.73402 0.449012 0.201923
0.755688 0.452079 0.202533
0.771984 0.452888 0.202487
0.787549 0.453941 0.203754
0.803235 0.455695 0.207279
0.816373 0.456031 0.206989
0.82945 0.456397 0.206729
0.112734 0.395926 0.247318
0.122332 0.396979 0.247044
0.136507 0.39707 0.24625
0.15082 0.396445 0.245167
0.166049 0.395438 0.243809
0.183566 0.394308 0.241337
0.203616 0.396384 0.239506
0.221592 0.401205 0.234012
0.236133 0.40763 0.225681
0.26125 0.412573 0.224308
0.288258 0.417594 0.222553
0.316197 0.422629 0.220478
0.343664 0.427771 0.220218
0.370352 0.432929 0.223301
0.398047 0.437766 0.227115
0.427741 0.442329 0.227573
0.459236 0.446281 0.225315
0.492027 0.449775 0.223453
0.528466 0.451972 0.222705
0.563943 0.454459 0.221607
0.594491 0.458335 0.219654
0.62269 0.462699 0.21912
0.649012 0.466545 0.218372
0.672068 0.467933 0.216327
0.695247 0.469368 0.214725
0.719295 0.471199 0.214252
0.742061 0.473732 0.214755
0.764141 0.476478 0.215183
0.781231 0.477501 0.214984
0.796628 0.478111 0.215671
0.811978 0.480354 0.219272
0.825208 0.48072 0.219272
0.838453 0.481041 0.219226
0.119982 0.421118 0.260044
0.130419 0.42182 0.259632
0.144427 0.421912 0.259236
0.158923 0.421317 0.258244
0.174044 0.420371 0.256626
0.190738 0.418692 0.254032
0.210422 0.419593 0.252338
0.232013 0.42359 0.24976
0.245747 0.429755 0.240406
0.26717 0.435218 0.236698
0.294102 0.440253 0.235462
0.321523 0.445335 0.233356
0.348531 0.450782 0.231098
0.375296 0.456062 0.233066
0.401785 0.461204 0.236301
0.429572 0.466087 0.239246
0.459907 0.47039 0.238407
0.49102 0.474266 0.236286
0.523629 0.477653 0.234577
0.559533 0.479988 0.234943
0.594202 0.482567 0.233005
0.624018 0.486473 0.23154
0.652705 0.490684 0.231571
0.680079 0.495033 0.231632
0.703548 0.496406 0.230426
0.726207 0.49781 0.228687
0.749538 0.499092 0.227314
0.77203 0.501457 0.227543
0.789944 0.502525 0.227222
0.805508 0.502983 0.227329
0.821332 0.505776 0.232883
0.834577 0.505959 0.232609
0.847379 0.505882 0.232105
0.126802 0.446067 0.272328
0.13843 0.446784 0.27187
0.152255 0.446967 0.271489
0.166766 0.446418 0.270665
0.181796 0.444999 0.269017
0.198398 0.443549 0.26656
0.217456 0.443107 0.264149
0.239078 0.446525 0.262379
0.256794 0.451865 0.255894
0.273884 0.457893 0.24889
0.299382 0.462974 0.247181
0.32668 0.468299 0.245792
0.353628 0.473503 0.244099
0.37966 0.479088 0.242969
0.405936 0.484489 0.245502
0.433188 0.489509 0.248157
0.461158 0.494179 0.250599
0.492302 0.498161 0.249439
0.522408 0.502205 0.247028
0.555184 0.505135 0.245914
0.589502 0.50779 0.245609
0.623499 0.510689 0.24448
0.654047 0.514473 0.243931
0.682414 0.518807 0.24361
0.710109 0.523018 0.244602
0.733944 0.525139 0.243732
0.756146 0.526375 0.242527
0.778454 0.527428 0.241077
0.79826 0.528206 0.240284
0.813794 0.528023 0.239292
0.830274 0.531441 0.246067
0.843259 0.531487 0.245655
0.856397 0.531609 0.245441
0.133959 0.471229 0.28426
0.145876 0.471901 0.283894
0.159625 0.471839 0.283284
0.174472 0.471092 0.282155
0.189563 0.470054 0.280491
0.205646 0.46862 0.278676
0.224079 0.467063 0.275944
0.245579 0.46978 0.274144
0.265568 0.474342 0.269871
0.280125 0.480613 0.2607
0.304738 0.485893 0.259007
0.331685 0.490959 0.257877
0.358404 0.496376 0.256321
0.384329 0.502022 0.25449
0.410483 0.507546 0.254734
0.43682 0.512886 0.256718
0.464332 0.517601 0.2598
0.493217 0.521737 0.261189
0.523156 0.525811 0.259571
0.553674 0.529671 0.257328
0.585672 0.532876 0.256291
0.619028 0.535805 0.256062
0.652384 0.538781 0.255741
0.682948 0.542458 0.25539
0.711162 0.546868 0.25565
0.738506 0.551019 0.257206
0.762768 0.553613 0.257176
0.785138 0.554925 0.255955
0.805463 0.555444 0.254475
0.822095 0.554711 0.253117
0.839094 0.557595 0.259709
0.852354 0.557794 0.259892
0.864958 0.557519 0.259297
0.140551 0.496361 0.295399
0.152667 0.496986 0.29485
0.167163 0.496605 0.29427
0.181811 0.496071 0.293523
0.196933 0.495018 0.29189
0.212818 0.493324 0.289586
0.230777 0.491478 0.286656
0.251728 0.492851 0.28513
0.274968 0.496742 0.283345
0.28893 0.503059 0.274632
0.310414 0.508553 0.269886
0.335897 0.513802 0.269108
0.362097 0.519295 0.267826
0.388556 0.524865 0.266346
0.414633 0.53048 0.264729
0.440803 0.53579 0.265934
0.467796 0.540475 0.26833
0.495293 0.545296 0.270481
0.524361 0.549447 0.271534
0.554345 0.553384 0.269566
0.584848 0.557137 0.267689
0.616053 0.560632 0.266606
0.648646 0.563516 0.266712
0.681025 0.566705 0.26627
0.710964 0.57052 0.266102
0.739223 0.574502 0.267216
0.766018 0.57879 0.268681
0.791669 0.582269 0.270542
0.812848 0.582834 0.269276
0.830106 0.582773 0.268101
0.846601 0.584421 0.273518
0.86038 0.58471 0.274495
0.873701 0.584436 0.274098
0.147082 0.521401 0.305776
0.159014 0.521645 0.305165
0.173587 0.52166 0.304799
0.188663 0.521187 0.303929
0.203876 0.5196 0.302358
0.219654 0.518318 0.300252
0.2374 0.516365 0.297795
0.257038 0.516381 0.295171
0.280339 0.520104 0.293889
0.299184 0.525139 0.288655
0.31516 0.531395 0.280766
0.340673 0.536599 0.279438
0.366415 0.542062 0.278904
0.391867 0.547829 0.277729
0.418021 0.553368 0.276158
0.444739 0.558724 0.275532
0.471046 0.563684 0.27686
0.498314 0.56846 0.279057
0.526207 0.573037 0.280797
0.555596 0.577218 0.281056
0.585626 0.581003 0.280064
0.615183 0.584863 0.27834
0.646174 0.588174 0.277409
0.678096 0.591196 0.277806
0.708751 0.594629 0.277241
0.738674 0.597955 0.276997
0.765911 0.601923 0.277821
0.792493 0.606165 0.279988
0.818647 0.610269 0.283268
0.837674 0.610834 0.28307
0.853559 0.612131 0.286687
0.867384 0.612421 0.288457
0.880262 0.612192 0.288258
0.152987 0.546075 0.315435
0.165057 0.5467 0.314992
0.180331 0.546548 0.314458
0.195178 0.5458 0.313527
0.210132 0.544762 0.312047
0.226184 0.543282 0.310414
0.243977 0.541421 0.307942
0.263142 0.540185 0.305272
0.285008 0.542992 0.303456
0.305959 0.547845 0.300328
0.321233 0.553994 0.292027
0.34519 0.559228 0.289708
0.370245 0.564736 0.288884
0.395407 0.570657 0.288029
0.421363 0.576303 0.287327
0.44744 0.581643 0.285344
0.473991 0.586648 0.285634
0.501198 0.59147 0.287861
0.528649 0.596292 0.289158
0.556985 0.60058 0.291341
0.586358 0.604669 0.290745
0.616007 0.608515 0.289754
0.645243 0.61239 0.288624
0.675807 0.615579 0.288563
0.706722 0.618753 0.288502
0.736065 0.622232 0.288243
0.76527 0.625437 0.288106
0.791836 0.629297 0.288396
0.818372 0.633143 0.290913
0.841978 0.63714 0.294667
0.860136 0.639979 0.299931
0.874281 0.640497 0.302266
0.886732 0.639948 0.301747
0.158221 0.570809 0.324849
0.17116 0.571344 0.324407
0.185702 0.570993 0.323644
0.200992 0.570535 0.32285
0.216648 0.569512 0.321401
0.232547 0.568109 0.319997
0.24947 0.566049 0.317586
0.268238 0.564187 0.314809
0.289738 0.566171 0.312703
0.312886 0.570245 0.311177
0.327901 0.576455 0.304021
0.34847 0.582238 0.299199
0.373907 0.587549 0.29865
0.398978 0.593362 0.298085
0.424445 0.598901 0.296941
0.45037 0.604501 0.295842
0.477119 0.609461 0.29514
0.503685 0.614466 0.296025
0.531273 0.619089 0.297658
0.559243 0.623529 0.29955
0.587396 0.627985 0.300862
0.61677 0.631907 0.30074
0.645945 0.635737 0.299596
0.674769 0.639536 0.298314
0.704936 0.642756 0.298528
0.734234 0.646235 0.298894
0.76321 0.64947 0.299199
0.790829 0.652949 0.299077
0.816892 0.656458 0.299031
0.841917 0.660212 0.301869
0.862028 0.66424 0.308415
0.879362 0.666758 0.314488
0.89337 0.667796 0.315602
0.16318 0.595209 0.33341
0.175753 0.595819 0.332876
0.191119 0.595285 0.331991
0.206226 0.594949 0.331502
0.221973 0.593805 0.33019
0.238193 0.592126 0.328405
0.25507 0.590509 0.326482
0.273686 0.588357 0.323857
0.294041 0.589136 0.321431
0.317006 0.59295 0.32015
0.337011 0.598108 0.31664
0.352178 0.604562 0.308904
0.377371 0.609918 0.308125
0.401755 0.615839 0.307362
0.427039 0.621546 0.306477
0.453178 0.626749 0.305562
0.479622 0.631952 0.305058
0.506294 0.636912 0.304906
0.533654 0.641611 0.306172
0.560967 0.64625 0.30753
0.589212 0.650645 0.309346
0.61709 0.654902 0.31017
0.64651 0.658701 0.310094
0.675288 0.662531 0.309224
0.704067 0.666224 0.308766
0.733074 0.669505 0.308721
0.761288 0.672999 0.309102
0.789227 0.676432 0.309926
0.815702 0.679866 0.310124
0.841154 0.683528 0.312032
0.862455 0.687053 0.31519
0.880018 0.689693 0.320043
0.895659 0.691615 0.323308
0.1682 0.619013 0.34168
0.179614 0.619501 0.340795
0.195544 0.61941 0.340368
0.211231 0.618906 0.339712
0.22707 0.617792 0.338506
0.242939 0.616342 0.336919
0.260029 0.614694 0.334874
0.27866 0.612573 0.332525
0.298482 0.611933 0.329885
0.319921 0.615457 0.328023
0.341268 0.620157 0.326024
0.357794 0.626291 0.319631
0.37998 0.632136 0.316701
0.404562 0.637858 0.316258
0.429526 0.643488 0.315511
0.455283 0.649195 0.314244
0.481559 0.6542 0.31371
0.508476 0.65893 0.313726
0.535363 0.66389 0.314122
0.562982 0.668376 0.315831
0.590326 0.672923 0.317006
0.618372 0.677165 0.31873
0.646693 0.681315 0.319432
