code/data/lut/32感性内敛3.cube
TITLE "LD - Cashmere 3"
# Copyright (c) 2019 Lens Distortions, LLC. All Rights Reserved.
# LensDistortions.com
# ref-CSH1
LUT_3D_SIZE 33
0.0255131 0.0259709 0.0271916
0.029633 0.027985 0.0295415
0.0349737 0.0292058 0.0307164
0.0441291 0.0316014 0.0331579
0.0562295 0.0345617 0.0357671
0.0716106 0.0381018 0.0385901
0.0914931 0.0417639 0.0413825
0.115877 0.0456397 0.0440833
0.144625 0.0496681 0.046891
0.175708 0.0538643 0.0487984
0.207523 0.0573892 0.0500496
0.24155 0.0605478 0.0510567
0.275288 0.064271 0.0518807
0.309102 0.0680552 0.0531014
0.340963 0.0719768 0.0542153
0.37174 0.0766766 0.0556802
0.40235 0.0819409 0.057557
0.432746 0.0874952 0.059678
0.461631 0.09337 0.0620432
0.490196 0.0995804 0.0643626
0.518029 0.106371 0.0671397
0.545403 0.113329 0.0702525
0.572106 0.120195 0.0730449
0.597467 0.127047 0.0757153
0.620783 0.133165 0.0780499
0.639246 0.136645 0.0795453
0.656107 0.139422 0.0804913
0.67303 0.142153 0.0817731
0.689021 0.144915 0.0827955
0.703502 0.146868 0.0836652
0.718242 0.149294 0.0842451
0.732387 0.151339 0.0849928
0.746899 0.153735 0.0857404
0.0305791 0.0349432 0.0338293
0.0347906 0.0369421 0.0363012
0.0418555 0.0395056 0.0377813
0.0505837 0.0409552 0.0388647
0.0627146 0.0438544 0.0407568
0.0785992 0.0474556 0.0430915
0.0979019 0.0513619 0.0456092
0.122026 0.0554208 0.0477607
0.150622 0.0593576 0.0497292
0.181445 0.0633249 0.0514839
0.213901 0.0671092 0.0524758
0.247395 0.0707256 0.0529946
0.281102 0.074403 0.0539712
0.314046 0.0781567 0.0547494
0.345373 0.0827955 0.055848
0.376379 0.0880446 0.0573434
0.406409 0.0936141 0.0593729
0.435813 0.0994736 0.0616464
0.464103 0.105821 0.0636912
0.49221 0.112551 0.0666514
0.520119 0.119463 0.069688
0.547295 0.126558 0.0719921
0.573556 0.133684 0.0750744
0.599542 0.141161 0.07776
0.62324 0.147448 0.0801251
0.641779 0.151003 0.0816815
0.659083 0.153994 0.0831159
0.675715 0.156695 0.0841077
0.692287 0.159472 0.0855268
0.706508 0.161593 0.0860456
0.720882 0.163943 0.0867018
0.735195 0.165698 0.0872511
0.749874 0.167834 0.0879835
0.0346532 0.045182 0.0408637
0.0386053 0.0474556 0.0429084
0.0460975 0.0510872 0.0444343
0.0583047 0.0542 0.0464179
0.0710765 0.05626 0.0473487
0.0870069 0.0596323 0.0489815
0.106126 0.0631266 0.0505684
0.129656 0.0674449 0.0521248
0.157885 0.0714275 0.0534371
0.18819 0.075227 0.0546273
0.220249 0.0789654 0.0553445
0.253452 0.0829023 0.0559396
0.286931 0.0866865 0.0567025
0.319005 0.0910964 0.0569467
0.350744 0.0959029 0.0583505
0.380682 0.101381 0.0598459
0.410117 0.107424 0.0618296
0.438834 0.113771 0.0640116
0.466911 0.120623 0.066453
0.494713 0.127565 0.0692912
0.522057 0.134905 0.0714122
0.549462 0.142336 0.074464
0.575769 0.150011 0.0773022
0.601785 0.157778 0.0799573
0.626184 0.164385 0.0825513
0.645411 0.168627 0.0842756
0.662058 0.171237 0.0852522
0.679133 0.1738 0.0864576
0.695521 0.17644 0.0877089
0.71017 0.1785 0.0882429
0.724453 0.18024 0.0889143
0.738735 0.182208 0.089662
0.752758 0.183917 0.0901503
0.03888 0.0585336 0.0496071
0.0425269 0.0601358 0.0508278
0.0501106 0.0639658 0.0518807
0.0608377 0.0684825 0.053727
0.0787366 0.0718395 0.0556802
0.0964828 0.0753338 0.056611
0.116014 0.0780957 0.0572976
0.139773 0.0818647 0.057908
0.166659 0.0854963 0.05832
0.196246 0.0896925 0.0584573
0.227573 0.0937362 0.0590219
0.259922 0.0974899 0.0594492
0.292729 0.101381 0.0599527
0.324742 0.105776 0.0603952
0.355612 0.111162 0.0616464
0.385336 0.117021 0.0635233
0.414023 0.123598 0.0653849
0.44184 0.130266 0.0675212
0.469871 0.137224 0.0700847
0.497566 0.144656 0.0723735
0.524926 0.1523 0.0751659
0.552087 0.160174 0.0775464
0.578576 0.167773 0.0802625
0.603906 0.175113 0.0827497
0.628702 0.182055 0.0852216
0.649531 0.186984 0.0869764
0.666224 0.189456 0.0878462
0.682887 0.191608 0.0888685
0.699763 0.194675 0.0900893
0.713802 0.196246 0.0905623
0.728374 0.198047 0.0914015
0.742535 0.19968 0.0920272
0.756664 0.20148 0.0928664
0.0423133 0.0749523 0.0606699
0.0467689 0.0760357 0.0613107
0.0538186 0.0795148 0.0611582
0.0652934 0.0849317 0.061799
0.0799268 0.0897383 0.0643473
0.102632 0.0932631 0.0657664
0.126497 0.0970169 0.0661479
0.150805 0.0999313 0.0653697
0.177508 0.102525 0.0649424
0.206622 0.106081 0.0643778
0.236912 0.10988 0.0644541
0.267567 0.114122 0.0639811
0.299489 0.118608 0.0641794
0.330877 0.123629 0.0648203
0.360906 0.129091 0.0659342
0.389456 0.135134 0.0680705
0.417655 0.141543 0.0699474
0.445533 0.148608 0.0718853
0.473304 0.155886 0.0742046
0.500603 0.163348 0.076463
0.528115 0.170901 0.0790723
0.55465 0.178317 0.0814069
0.581094 0.18587 0.0841993
0.606699 0.19321 0.0866407
0.63154 0.200336 0.0890974
0.653452 0.205676 0.0911727
0.669871 0.207889 0.0916915
0.686732 0.210361 0.0925765
0.703334 0.212818 0.0936751
0.717983 0.214679 0.0941787
0.731899 0.216281 0.094255
0.746242 0.217884 0.0948501
0.760311 0.219272 0.0952468
0.0461738 0.0946059 0.073167
0.0511177 0.0955825 0.0734264
0.0591897 0.0973373 0.0730907
0.0692302 0.103746 0.0716564
0.0833143 0.109285 0.0734874
0.102525 0.114534 0.0754559
0.133013 0.117281 0.0756085
0.162341 0.121492 0.0750439
0.188495 0.123629 0.0733959
0.217838 0.12607 0.072221
0.247669 0.129091 0.0710155
0.278813 0.13283 0.0705577
0.308934 0.137697 0.0701762
0.337881 0.143206 0.0706188
0.366491 0.149157 0.0717784
0.393713 0.156085 0.0732586
0.421836 0.162554 0.0750744
0.449302 0.168872 0.0768292
0.476814 0.176028 0.0788128
0.504234 0.183017 0.0814221
0.531167 0.19028 0.08365
0.557809 0.197726 0.0859541
0.584146 0.205051 0.0884718
0.609476 0.212039 0.0909285
0.634394 0.218906 0.0932784
0.656992 0.224964 0.0954299
0.674022 0.227466 0.0962997
0.690486 0.229297 0.0970321
0.707286 0.231907 0.0982986
0.721736 0.23357 0.098436
0.736248 0.235233 0.0988632
0.750225 0.236484 0.0991836
0.764172 0.238239 0.0994125
0.0499886 0.117098 0.0863203
0.0554971 0.118074 0.0865034
0.0638743 0.119142 0.0859083
0.074464 0.124102 0.0838636
0.0873732 0.130999 0.0825513
0.104952 0.136873 0.0853437
0.129015 0.141802 0.0865797
0.166384 0.144137 0.0858778
0.200397 0.147631 0.0838941
0.228229 0.150729 0.081529
0.25922 0.152468 0.0796826
0.289204 0.155795 0.0783856
0.318608 0.159731 0.0780041
0.346761 0.164858 0.0781567
0.374228 0.17052 0.0784924
0.400946 0.177111 0.0796674
0.42742 0.183871 0.0809949
0.4542 0.190692 0.0827955
0.480842 0.197513 0.0845197
0.507485 0.203983 0.0864576
0.534386 0.210925 0.0888991
0.561028 0.217899 0.0914931
0.586969 0.225055 0.0934615
0.612482 0.231876 0.0960708
0.637201 0.23856 0.0985885
0.660945 0.244877 0.100572
0.678096 0.247211 0.101335
0.69485 0.24918 0.10219
0.711131 0.251423 0.10309
0.726085 0.253193 0.1037
0.740185 0.254643 0.104082
0.754299 0.256168 0.104524
0.768093 0.257328 0.10454
0.0538033 0.142351 0.100389
0.0597696 0.143236 0.0999924
0.0679332 0.144076 0.0990463
0.0792248 0.147692 0.0967727
0.0922866 0.154589 0.093904
0.109102 0.161151 0.0942245
0.12961 0.167041 0.0981308
0.160601 0.17145 0.0972457
0.202533 0.173327 0.095552
0.240482 0.176211 0.0931411
0.269917 0.179049 0.090425
0.299123 0.18143 0.0880293
0.328283 0.184527 0.0868391
0.356222 0.188525 0.0865187
0.382574 0.193454 0.0867781
0.408881 0.199207 0.0875563
0.434638 0.20531 0.088365
0.460609 0.21207 0.0896773
0.486549 0.218967 0.0910201
0.512779 0.225757 0.0927138
0.538338 0.232593 0.0944839
0.564599 0.23917 0.096788
0.590448 0.245747 0.0991684
0.615732 0.252308 0.101518
0.640375 0.258671 0.104128
0.664317 0.265064 0.106538
0.682719 0.267735 0.107591
0.699184 0.269551 0.108476
0.71545 0.271595 0.109331
0.730694 0.273701 0.11046
0.744518 0.274784 0.110674
0.758755 0.276051 0.110903
0.772488 0.277272 0.111147
0.0573281 0.169436 0.114763
0.0636149 0.170504 0.114427
0.0719158 0.171435 0.112917
0.0849012 0.172564 0.111376
0.0966964 0.179507 0.106508
0.113634 0.185992 0.105196
0.134295 0.192035 0.106691
0.15993 0.197848 0.109468
0.19501 0.201694 0.108324
0.241566 0.202121 0.106126
0.280568 0.205524 0.102739
0.310338 0.208743 0.0999313
0.337484 0.211124 0.0971237
0.365072 0.21445 0.0961166
0.391287 0.218372 0.0961013
0.416968 0.223468 0.096376
0.442939 0.228672 0.0972915
0.468437 0.234485 0.0978408
0.494026 0.240726 0.0988174
0.519326 0.247242 0.100038
0.544259 0.254063 0.101503
0.569299 0.260884 0.103548
0.594461 0.267018 0.105669
0.619348 0.273548 0.107652
0.644175 0.279515 0.110201
0.668269 0.285557 0.11284
0.687739 0.289174 0.114443
0.703929 0.290715 0.115145
0.720104 0.292439 0.11606
0.735668 0.294713 0.117693
0.74963 0.295674 0.117845
0.763424 0.296849 0.118257
0.777432 0.297932 0.11873
0.0615396 0.197513 0.129961
0.0680858 0.198688 0.129625
0.0767834 0.198825 0.127779
0.090135 0.199237 0.126604
0.103853 0.204425 0.122225
0.118425 0.211261 0.118105
0.139788 0.217472 0.116838
0.163943 0.223514 0.119783
0.193347 0.228382 0.122271
0.231189 0.231952 0.1196
0.278737 0.232578 0.116976
0.319539 0.234852 0.11313
0.348547 0.239384 0.110887
0.373297 0.24184 0.107698
0.399725 0.245106 0.1066
0.425376 0.249027 0.106233
0.451194 0.253483 0.106477
0.476463 0.258457 0.106828
0.501595 0.263767 0.10782
0.526528 0.269657 0.108873
0.551492 0.275639 0.110323
0.576226 0.281971 0.111849
0.601068 0.288289 0.113619
0.625116 0.294728 0.115496
0.648661 0.30074 0.117418
0.672175 0.306722 0.119661
0.692866 0.310811 0.12166
0.709209 0.312276 0.122377
0.725444 0.314046 0.12343
0.741375 0.31603 0.125795
0.755383 0.317174 0.126314
0.768994 0.317906 0.126436
0.783062 0.318914 0.12694
0.0660105 0.225818 0.145892
0.0729229 0.226581 0.145205
0.0823835 0.226871 0.143648
0.0951858 0.226307 0.141756
0.111116 0.230121 0.139269
0.124712 0.23711 0.132433
0.145068 0.243137 0.130282
0.169955 0.249241 0.130098
0.196368 0.254658 0.133227
0.229465 0.259129 0.134859
0.269032 0.262104 0.131151
0.31574 0.262715 0.128481
0.356405 0.264714 0.125292
0.384268 0.269993 0.122576
0.407691 0.27332 0.120027
0.433295 0.275837 0.118105
0.45893 0.279301 0.117342
0.484291 0.283665 0.117647
0.509163 0.288258 0.11809
0.534096 0.293126 0.119036
0.559075 0.298405 0.119921
0.584024 0.304006 0.121508
0.60798 0.309926 0.122988
0.632044 0.315679 0.124926
0.655329 0.32163 0.126574
0.67863 0.327504 0.128832
0.699168 0.332067 0.130343
0.71574 0.333928 0.131014
0.731624 0.335485 0.131777
0.747448 0.337942 0.134676
0.761303 0.338918 0.135103
0.775082 0.33959 0.135241
0.7888 0.340566 0.135729
0.0708019 0.25333 0.161959
0.0778821 0.254337 0.161242
0.0873579 0.25507 0.159884
0.10045 0.254002 0.157626
0.11725 0.256352 0.155413
0.131731 0.262425 0.148165
0.150408 0.268681 0.144549
0.175723 0.27454 0.142763
0.201938 0.280385 0.143267
0.231052 0.285206 0.147433
0.266209 0.289296 0.147372
0.306371 0.291936 0.143511
0.351461 0.292699 0.141894
0.389975 0.295232 0.138048
0.418402 0.300603 0.135851
0.442908 0.304036 0.133242
0.466392 0.306737 0.130571
0.492042 0.309667 0.129519
0.517128 0.313313 0.129778
0.541985 0.317815 0.130251
0.566949 0.322194 0.131243
0.591302 0.327214 0.132265
0.615793 0.332204 0.133883
0.639338 0.337652 0.135348
0.662974 0.34284 0.137362
0.685863 0.34844 0.13901
0.707179 0.353017 0.140963
0.723827 0.355383 0.141299
0.739055 0.357153 0.141619
0.754681 0.359731 0.144778
0.768505 0.360906 0.145083
0.781888 0.361578 0.145403
0.79556 0.362432 0.145983
0.0761578 0.281071 0.178576
0.0834516 0.281834 0.177707
0.0933242 0.282658 0.176394
0.107256 0.281773 0.174441
0.123888 0.281865 0.171878
0.142245 0.286824 0.168322
0.156512 0.29395 0.158968
0.181384 0.299611 0.157733
0.208423 0.305013 0.155932
0.23624 0.310399 0.157488
0.267475 0.314916 0.161685
0.303792 0.318746 0.160281
0.342229 0.32163 0.157153
0.385153 0.322957 0.15555
0.422919 0.325216 0.151781
0.45185 0.330266 0.14966
0.477028 0.33463 0.147478
0.500511 0.337011 0.144549
0.525612 0.339513 0.143221
0.550271 0.342947 0.143008
0.574655 0.346853 0.143359
0.599313 0.351034 0.144503
0.623346 0.355688 0.145525
0.647334 0.36022 0.147127
0.670665 0.365194 0.148699
0.693782 0.370031 0.150927
0.715206 0.374655 0.152468
0.732952 0.37702 0.153231
0.748196 0.378454 0.153613
0.763577 0.38114 0.156786
0.777127 0.382437 0.157061
0.789776 0.383429 0.156878
0.802747 0.384619 0.157076
0.081651 0.308324 0.194965
0.0893873 0.309194 0.194217
0.0999008 0.309911 0.192905
0.114061 0.308751 0.190875
0.130587 0.307637 0.188357
0.150546 0.311345 0.186038
0.166629 0.318044 0.177615
0.187823 0.324117 0.173037
0.214511 0.329809 0.171359
0.243168 0.335012 0.169223
0.272892 0.339742 0.17293
0.305013 0.344106 0.176364
0.340841 0.347478 0.174472
0.377188 0.350927 0.171542
0.417731 0.35256 0.169833
0.455741 0.35494 0.166857
0.48481 0.359899 0.164584
0.510979 0.364248 0.162585
0.534356 0.36701 0.160357
0.558648 0.369192 0.157931
0.58323 0.372183 0.157504
0.607584 0.375723 0.158175
0.631403 0.379583 0.158846
0.655146 0.383703 0.159991
0.678614 0.387976 0.161791
0.701198 0.392599 0.163256
0.723507 0.396857 0.165148
0.741924 0.39968 0.165866
0.756924 0.40087 0.165942
0.772137 0.403189 0.168704
0.786114 0.404547 0.169787
0.798962 0.405219 0.169619
0.811917 0.40621 0.169711
0.0879377 0.33521 0.210941
0.0961929 0.336126 0.210193
0.107271 0.336492 0.20911
0.121614 0.335531 0.207218
0.138369 0.334234 0.205066
0.158511 0.336019 0.202441
0.17615 0.341772 0.1953
0.194095 0.348669 0.188571
0.221073 0.353872 0.186694
0.249561 0.359075 0.184054
0.278889 0.363928 0.183749
0.309255 0.368307 0.187716
0.341451 0.372625 0.190906
0.375753 0.376669 0.188571
0.410407 0.380224 0.186038
0.450385 0.382147 0.185092
0.487953 0.384405 0.182086
0.517342 0.389044 0.179477
0.544503 0.393744 0.178363
0.567361 0.39646 0.17583
0.591043 0.398917 0.173571
0.615991 0.401114 0.173037
0.640055 0.404303 0.17319
0.663188 0.407919 0.173754
0.686519 0.411551 0.174975
0.70898 0.415732 0.176135
0.731258 0.419913 0.177768
0.75111 0.422812 0.179065
0.765743 0.423545 0.17882
0.781079 0.425635 0.181765
0.794995 0.426947 0.182986
0.807874 0.427893 0.183032
0.820691 0.428855 0.183078
0.0946822 0.361913 0.226917
0.103304 0.362692 0.225849
0.115526 0.362783 0.224933
0.129931 0.361975 0.223651
0.146258 0.360601 0.220676
0.166735 0.360983 0.218082
0.188739 0.365026 0.215106
0.202991 0.372091 0.204105
0.227543 0.377752 0.201617
0.25597 0.382635 0.199298
0.285695 0.38761 0.197147
0.315175 0.392386 0.198611
0.3449 0.397055 0.202869
0.376883 0.401495 0.205432
0.409552 0.405844 0.202884
0.444083 0.409247 0.200519
0.482811 0.411261 0.199924
0.519249 0.413672 0.196918
0.548959 0.418082 0.194842
0.576425 0.423011 0.193545
0.6 0.425681 0.191073
0.623438 0.427543 0.189395
0.648081 0.429953 0.18822
0.671473 0.432898 0.188266
0.694087 0.436164 0.18883
0.716884 0.439506 0.190021
0.73875 0.443076 0.191089
0.759579 0.446586 0.192615
0.774472 0.447028 0.192248
0.78999 0.448814 0.19469
0.80412 0.450324 0.19649
0.816922 0.451072 0.196567
0.82948 0.451545 0.196384
0.102037 0.38822 0.242283
0.110613 0.389059 0.241596
0.124117 0.389227 0.240833
0.138842 0.388083 0.238788
0.155489 0.386587 0.236118
0.175326 0.385351 0.233555
0.197787 0.38912 0.231495
0.214862 0.394903 0.22266
0.234852 0.401053 0.216785
0.262409 0.405997 0.214923
0.292119 0.410864 0.212528
0.321553 0.415839 0.21062
0.350469 0.42089 0.213565
0.379355 0.425864 0.217426
0.410544 0.430365 0.219226
0.442603 0.434638 0.216098
0.476753 0.43798 0.214511
0.514061 0.440101 0.213672
0.549889 0.442664 0.211215
0.580224 0.446784 0.209323
0.607523 0.451606 0.208392
0.632624 0.454841 0.207355
0.655009 0.45655 0.204822
0.678523 0.458427 0.20293
0.702174 0.461219 0.202991
0.72491 0.463966 0.203738
0.746441 0.46714 0.204456
0.767346 0.470375 0.205249
0.783078 0.471305 0.205249
0.798077 0.47245 0.20679
0.813169 0.474266 0.210742
0.825849 0.474693 0.210452
0.838453 0.475151 0.210208
0.109148 0.41442 0.257145
0.118547 0.415244 0.256519
0.132677 0.414954 0.255238
0.147707 0.413977 0.253666
0.164599 0.412619 0.251774
0.184085 0.411139 0.248722
0.206271 0.413001 0.246418
0.22594 0.417807 0.240146
0.241856 0.424384 0.230732
0.268925 0.429282 0.229053
0.297795 0.434241 0.226978
0.327382 0.439216 0.224506
0.356283 0.444327 0.22414
0.384192 0.449454 0.227512
0.412879 0.454246 0.231662
0.443412 0.458778 0.232136
0.475517 0.462791 0.229572
0.508629 0.466361 0.227527
0.545083 0.46865 0.22678
0.580301 0.47129 0.225589
0.610422 0.475349 0.223545
0.638086 0.479881 0.222995
0.663767 0.483864 0.222293
0.686213 0.48542 0.220111
0.708721 0.487007 0.218418
0.731991 0.488991 0.21799
0.753994 0.491676 0.218616
0.775265 0.49453 0.219181
0.79173 0.495644 0.219013
0.806546 0.496345 0.219837
0.821271 0.498619 0.223957
0.834028 0.499062 0.223957
0.846799 0.499458 0.223911
0.116701 0.440482 0.271412
0.12694 0.440894 0.270604
0.141207 0.440604 0.269764
0.156817 0.439643 0.268269
0.173724 0.438346 0.266148
0.192233 0.436316 0.262959
0.213886 0.436973 0.260807
0.237415 0.440833 0.25774
0.252354 0.447059 0.247288
0.275364 0.452445 0.24303
0.304082 0.457374 0.24152
0.33312 0.462348 0.239048
0.361501 0.467704 0.236408
0.389395 0.472877 0.238468
0.416831 0.477928 0.241978
0.445335 0.482734 0.245151
0.476204 0.486992 0.244175
0.507607 0.490867 0.241779
0.540246 0.494316 0.239918
0.575906 0.496712 0.240345
0.610071 0.499413 0.238331
0.639277 0.503441 0.236805
0.667262 0.507774 0.236896
0.693843 0.512215 0.237079
0.716594 0.51371 0.235721
0.738476 0.515251 0.233875
0.760998 0.51667 0.232456
0.782666 0.519127 0.232746
0.799908 0.520272 0.232456
0.814878 0.520806 0.232609
0.83003 0.523583 0.238834
0.842771 0.523827 0.238529
0.8551 0.523812 0.23801
0.123873 0.466087 0.28513
0.135409 0.466484 0.284245
0.149828 0.4663 0.283421
0.165805 0.465385 0.282109
0.182544 0.4636 0.279957
0.200885 0.461799 0.276936
0.221698 0.461036 0.273991
0.245197 0.46424 0.271794
0.264332 0.46952 0.26453
0.282704 0.475517 0.256687
0.309819 0.480415 0.254658
0.338643 0.485557 0.252964
0.366918 0.490608 0.250919
0.394064 0.496056 0.249561
0.42121 0.501305 0.252201
0.449104 0.506172 0.255009
0.477531 0.510735 0.257649
0.508919 0.514672 0.256321
0.53904 0.518685 0.253651
0.571588 0.521645 0.252415
0.605417 0.524346 0.252171
0.638727 0.527321 0.251011
0.668498 0.531182 0.250446
0.696025 0.535561 0.250187
0.722805 0.539849 0.251331
0.745785 0.542031 0.250431
0.767193 0.543359 0.249149
0.788647 0.544518 0.247593
0.807706 0.545373 0.246738
0.822644 0.545281 0.245701
0.838407 0.548623 0.253223
0.850904 0.54873 0.252796
0.863539 0.548898 0.252537
0.131334 0.491691 0.298299
0.14342 0.492027 0.29752
0.158114 0.491585 0.296452
0.17464 0.490455 0.294835
0.191363 0.489067 0.292683
0.209049 0.487297 0.290364
0.229129 0.485405 0.287098
0.252369 0.487831 0.284871
0.273838 0.492226 0.280034
0.289494 0.498436 0.269871
0.315618 0.503487 0.267857
0.34403 0.508324 0.266407
0.372 0.513512 0.264515
0.398978 0.518959 0.262333
0.425971 0.5243 0.26244
0.452934 0.529442 0.264546
0.480827 0.533989 0.267796
0.509896 0.538003 0.269276
0.539834 0.542 0.267475
0.570153 0.54583 0.264988
0.601678 0.54902 0.263859
0.634348 0.551965 0.263645
0.66685 0.554986 0.263371
0.696468 0.558694 0.263035
0.723735 0.563104 0.263386
0.750072 0.567269 0.26511
0.773419 0.569894 0.265141
0.794934 0.571283 0.263828
0.81445 0.571878 0.262242
0.830442 0.571221 0.260746
0.846693 0.574014 0.267994
0.859434 0.574273 0.268193
0.871534 0.574029 0.267567
0.138354 0.517113 0.310643
0.150912 0.517372 0.309651
0.166735 0.516564 0.308583
0.183032 0.515648 0.307378
0.199725 0.514244 0.305257
0.217121 0.5122 0.302434
0.236591 0.510033 0.298939
0.259159 0.51107 0.296971
0.284016 0.514687 0.29482
0.299001 0.520897 0.285252
0.321752 0.526177 0.279927
0.348592 0.531121 0.278859
0.376013 0.536339 0.277272
0.403464 0.541665 0.275471
0.430335 0.547036 0.273503
0.457084 0.552117 0.274693
0.484428 0.556588 0.277211
0.512078 0.561242 0.2795
0.54107 0.565225 0.280552
0.57084 0.56907 0.278401
0.6009 0.572778 0.276326
0.631464 0.576226 0.275181
0.663203 0.57911 0.275319
0.694591 0.5823 0.274876
0.723507 0.586114 0.274754
0.750713 0.590066 0.275975
0.77644 0.594308 0.277638
0.801068 0.597742 0.279667
0.821408 0.598367 0.278309
0.837964 0.598367 0.277043
0.853742 0.599954 0.282918
0.866972 0.600259 0.283986
0.879774 0.600015 0.283528
0.145388 0.542214 0.322042
0.158022 0.542107 0.321004
0.174166 0.54168 0.320165
0.190845 0.540841 0.318837
0.207614 0.538872 0.316777
0.224811 0.53727 0.314199
0.243977 0.534966 0.311192
0.26508 0.534646 0.308095
0.289937 0.538018 0.306432
0.309957 0.542824 0.300572
0.326925 0.548913 0.29192
0.35375 0.553765 0.290272
0.380606 0.558892 0.289448
0.407004 0.564355 0.287953
0.433921 0.569604 0.286076
0.461189 0.574701 0.285237
0.487816 0.5794 0.286549
0.51519 0.583947 0.288838
0.542992 0.588342 0.290669
0.572122 0.592355 0.290898
0.601694 0.596017 0.289769
0.630625 0.599802 0.287907
0.660807 0.603067 0.286931
0.691752 0.606043 0.287373
0.72134 0.609445 0.286793
0.750149 0.612757 0.286549
0.776303 0.616663 0.28748
0.801801 0.620813 0.289845
0.826841 0.624796 0.29337
0.84509 0.625406 0.293187
0.860288 0.626642 0.297078
0.873549 0.626932 0.299001
0.885924 0.626734 0.298741
0.151919 0.566827 0.332647
0.164904 0.567071 0.331762
0.181888 0.566476 0.330724
0.198276 0.565332 0.32932
0.214694 0.563912 0.327382
0.23209 0.562097 0.325277
0.25127 0.559915 0.322301
0.271794 0.558328 0.319112
0.295094 0.560784 0.316915
0.317281 0.565301 0.313344
0.333471 0.571237 0.304265
0.358602 0.576104 0.301534
0.384741 0.581247 0.30042
0.410788 0.586816 0.299275
0.437446 0.592111 0.298253
0.464042 0.597147 0.295964
0.490913 0.601877 0.296162
0.518181 0.606424 0.298421
0.545525 0.610986 0.299763
0.573556 0.615091 0.302037
0.602457 0.619028 0.301381
0.631479 0.622736 0.300267
0.659907 0.626505 0.299046
0.68954 0.629618 0.29897
0.719371 0.632746 0.298939
0.7476 0.636149 0.298695
0.775662 0.639292 0.298528
0.801114 0.643076 0.298878
0.826535 0.646815 0.301564
0.849134 0.65066 0.305623
0.866484 0.653376 0.311299
0.880018 0.653864 0.313771
0.891997 0.653346 0.313207
0.157763 0.591363 0.342947
0.171908 0.591485 0.342046
0.188098 0.590707 0.340795
0.204898 0.589853 0.339513
0.222034 0.588434 0.337606
0.2392 0.586694 0.335744
0.25742 0.584298 0.33283
0.27744 0.582101 0.329534
0.300298 0.583688 0.327001
0.324727 0.587366 0.325093
0.340612 0.593317 0.317311
0.362188 0.598749 0.311955
0.388678 0.603616 0.311086
0.414588 0.609018 0.310231
0.440711 0.614191 0.308797
0.46714 0.61944 0.307408
0.494148 0.624079 0.306477
0.52076 0.628794 0.307332
0.548226 0.633143 0.308995
0.57586 0.637339 0.310933
0.603525 0.641566 0.312291
0.632242 0.645319 0.312093
0.660624 0.649027 0.310887
0.688533 0.652705 0.309514
0.717647 0.655833 0.309728
0.74583 0.65922 0.310155
0.773648 0.662379 0.310475
0.800122 0.665766 0.310369
0.825086 0.669169 0.310323
0.849027 0.672786 0.313329
0.868254 0.676631 0.320317
0.884825 0.678996 0.326741
0.898253 0.679988 0.327901
0.163378 0.615427 0.352285
0.177279 0.61561 0.351278
0.194293 0.614618 0.349889
0.21088 0.61387 0.348943
0.228016 0.612345 0.347158
0.245502 0.610315 0.3449
0.263615 0.608362 0.342504
0.283421 0.60589 0.339376
0.305043 0.606287 0.336507
0.329229 0.609674 0.334844
0.350271 0.614435 0.330877
0.366201 0.620584 0.322469
0.392386 0.625483 0.32137
0.417594 0.630961 0.320333
0.443488 0.63624 0.319142
0.470054 0.641062 0.317952
0.496757 0.645914 0.31722
0.523461 0.650538 0.31693
0.550652 0.654932 0.318151
0.57763 0.659297 0.319524
0.605371 0.663447 0.321386
0.632593 0.667491 0.322225
0.661189 0.671122 0.322087
0.689052 0.674815 0.321187
0.716808 0.67837 0.320684
0.744717 0.681544 0.320653
0.771771 0.684932 0.32108
0.79855 0.688258 0.321935
0.82388 0.691585 0.322148
0.848234 0.695079 0.324147
0.86862 0.698451 0.327504
0.885405 0.700954 0.332631
0.90042 0.70277 0.336065
0.16907 0.638788 0.361242
0.181811 0.63888 0.359915
0.199374 0.638315 0.358984
0.216556 0.637369 0.357824
0.233722 0.635859 0.356161
0.250828 0.634058 0.354116
0.269123 0.632059 0.351598
0.288899 0.629602 0.34876
0.309895 0.628611 0.345647
0.332479 0.631678 0.343404
0.354864 0.635935 0.341009
0.372168 0.641733 0.33402
0.395224 0.647105 0.330648
0.420584 0.652338 0.3299
0.446128 0.657526 0.328878
0.472297 0.662821 0.327321
0.498787 0.66743 0.326558
0.525704 0.671824 0.326406
0.552422 0.676432 0.326726
0.579675 0.680629 0.32842
0.606516 0.684901 0.329595
0.63389 0.688899 0.33135
