code/data/lut/32感性内敛1.cube
TITLE "LD - Cashmere 1"
# Copyright (c) 2019 Lens Distortions, LLC. All Rights Reserved.
# LensDistortions.com
# ref-CSH1
LUT_3D_SIZE 5
0.0169985 0.0180362 0.019379
0.156405 0.0519417 0.045304
0.38526 0.0860609 0.0541543
0.598932 0.132174 0.0775311
0.726482 0.148043 0.0837415
0.0560159 0.173526 0.123522
0.194049 0.200168 0.114549
0.425956 0.222431 0.102007
0.626184 0.266682 0.113191
0.762524 0.282017 0.120272
0.105882 0.37084 0.23415
0.22977 0.385092 0.213413
0.460441 0.421744 0.211841
0.688273 0.443427 0.200793
0.82945 0.456397 0.206729
0.158221 0.570809 0.324849
0.289738 0.566171 0.312703
0.477119 0.609461 0.29514
0.704936 0.642756 0.298528
0.89337 0.667796 0.315602
0.182147 0.731258 0.37293
0.308812 0.729076 0.36376
0.499352 0.76733 0.357809
0.711604 0.807797 0.368185
0.901518 0.840085 0.382147
0.0368963 0.0724193 0.171038
0.212192 0.0954604 0.211749
0.452323 0.098497 0.209888
0.657908 0.121035 0.211734
0.778958 0.124437 0.20528
0.0555123 0.234546 0.222049
0.239231 0.247517 0.243885
0.458335 0.252338 0.234028
0.663355 0.277989 0.232822
0.803479 0.271077 0.210208
0.0990768 0.432486 0.307118
0.293858 0.444816 0.333486
0.501503 0.461311 0.324575
0.722896 0.463233 0.290547
0.862791 0.467506 0.276661
0.147494 0.615305 0.391302
0.301289 0.629282 0.397894
0.508888 0.652842 0.388235
0.738079 0.676951 0.377066
0.924559 0.688838 0.37789
0.173297 0.760708 0.43769
0.31249 0.77879 0.438453
0.510491 0.818555 0.433524
0.732189 0.853254 0.419745
0.928481 0.871595 0.431434
0.0587015 0.156466 0.363058
0.222248 0.180743 0.395895
0.504524 0.199405 0.420203
0.726833 0.207172 0.423438
0.845365 0.203281 0.41355
0.0870375 0.29427 0.402899
0.240742 0.297841 0.400214
0.507103 0.32105 0.430381
0.734768 0.334432 0.431708
0.876173 0.308064 0.417975
0.109606 0.490898 0.445701
0.300725 0.497993 0.466361
0.551186 0.517708 0.483833
0.755108 0.514794 0.466148
0.920378 0.492241 0.437522
0.16405 0.690913 0.519188
0.330617 0.69926 0.526741
0.580438 0.714763 0.548379
0.784192 0.725689 0.541146
0.971588 0.717296 0.494453
0.198291 0.84744 0.566461
0.335348 0.857084 0.566674
0.534966 0.88336 0.568841
0.75668 0.909377 0.551278
0.971313 0.924666 0.514519
0.0813916 0.244572 0.540307
0.245853 0.268223 0.563775
0.506172 0.289464 0.601282
0.763287 0.316899 0.640009
0.910002 0.314504 0.644907
0.107164 0.358267 0.591394
0.267887 0.361975 0.576516
0.4963 0.388418 0.621393
0.769436 0.418402 0.651377
0.933013 0.417411 0.659831
0.147829 0.556268 0.653391
0.327092 0.55314 0.653849
0.541222 0.560021 0.653727
0.796536 0.580285 0.688182
0.971878 0.567666 0.68716
0.177035 0.741054 0.697963
0.330968 0.742824 0.703975
0.600488 0.753674 0.737316
0.823285 0.775326 0.736522
1 0.755383 0.706813
0.213382 0.90277 0.733913
0.353521 0.910872 0.736233
0.551415 0.938277 0.74931
0.784176 0.958312 0.750561
1 0.972244 0.701564
0.0884108 0.308721 0.681254
0.25478 0.329549 0.708507
0.510399 0.3514 0.750622
0.765576 0.380087 0.79527
0.921431 0.386999 0.813245
0.115724 0.408331 0.742702
0.284581 0.412619 0.742199
0.520226 0.43827 0.784131
0.778729 0.469062 0.825635
0.947845 0.484276 0.847425
0.169924 0.594659 0.832197
0.343282 0.58854 0.83299
0.560647 0.595666 0.841901
0.803021 0.61651 0.879576
0.986343 0.632624 0.903304
0.194156 0.789227 0.902235
0.34725 0.787137 0.909911
0.586725 0.791913 0.923491
0.818906 0.801907 0.940185
1 0.81471 0.952819
0.234882 0.941497 0.922499
0.373404 0.946059 0.928801
0.539864 0.963211 0.950118
0.788708 0.978302 0.968261
1 0.994507 0.984771
