code/data/lut/32感性内敛2.cube
TITLE "LD - Cashmere 2"
# Copyright (c) 2019 Lens Distortions, LLC. All Rights Reserved.
# LensDistortions.com
# ref-CSH1
LUT_3D_SIZE 33
0.0212253 0.0210269 0.0219883
0.0240787 0.0230869 0.0241398
0.0279393 0.024155 0.0253605
0.035462 0.0264744 0.0276799
0.0458991 0.0290532 0.0301061
0.0596017 0.0321508 0.032639
0.0771344 0.0354009 0.0354009
0.0978103 0.0390021 0.0381628
0.120867 0.0430152 0.0412146
0.147097 0.0472877 0.0433204
0.174777 0.051194 0.0452277
0.204547 0.0547036 0.0467079
0.234318 0.0586709 0.0477913
0.264057 0.0625315 0.049134
0.291951 0.066392 0.050309
0.318944 0.0708171 0.0517891
0.34548 0.0756237 0.053254
0.371191 0.0802014 0.054612
0.395987 0.0846418 0.0559701
0.420371 0.0893111 0.0572976
0.444221 0.0941329 0.0590066
0.46772 0.0989395 0.0608377
0.491127 0.103441 0.0623178
0.513497 0.108064 0.063859
0.534585 0.112291 0.0652476
0.551034 0.114199 0.0658274
0.566552 0.115755 0.0664073
0.582422 0.11754 0.0670787
0.596948 0.118914 0.0673838
0.610498 0.120211 0.0677958
0.624048 0.12134 0.0677653
0.637766 0.122576 0.0682994
0.651576 0.12369 0.0684977
0.0261082 0.028687 0.0280461
0.0289921 0.030457 0.0303502
0.0345617 0.0329137 0.0319371
0.0417182 0.0343786 0.033051
0.0521553 0.03682 0.0348363
0.0666209 0.0401617 0.0371252
0.0837262 0.0437629 0.0397345
0.104189 0.0476539 0.041825
0.127291 0.0518349 0.0440681
0.15314 0.0561532 0.0461738
0.181216 0.0601968 0.047715
0.210254 0.0639963 0.0485237
0.239582 0.0679942 0.0495155
0.268238 0.0717479 0.0505226
0.295796 0.076112 0.051606
0.322362 0.0809339 0.0527047
0.347707 0.0855116 0.0540627
0.372427 0.0899977 0.0554513
0.396918 0.0946822 0.056672
0.420813 0.0994888 0.0585336
0.444739 0.104234 0.0604257
0.468086 0.109026 0.0616922
0.491218 0.113802 0.0633402
0.514366 0.1187 0.0650645
0.535805 0.122759 0.0667277
0.553063 0.125032 0.0676585
0.568689 0.126604 0.0682383
0.584497 0.128313 0.068864
0.599756 0.129641 0.0695964
0.613489 0.130983 0.0699779
0.626947 0.132067 0.0700084
0.640635 0.133211 0.0703136
0.654047 0.134249 0.0703441
0.0298772 0.0373693 0.0343328
0.0328985 0.0395972 0.0364538
0.0388647 0.0430152 0.0380407
0.0491188 0.0459602 0.0400397
0.0605936 0.0479896 0.041001
0.0747387 0.0508888 0.0424811
0.0913558 0.0542 0.0440833
0.111116 0.0584421 0.0459449
0.134203 0.0627146 0.0476539
0.159625 0.0670329 0.0491798
0.187427 0.0713054 0.0503853
0.215946 0.0753643 0.0510872
0.244541 0.0791485 0.0519112
0.272374 0.08336 0.0522469
0.299458 0.0877241 0.0532082
0.324895 0.0922408 0.0542306
0.349599 0.0968032 0.0554665
0.373724 0.101472 0.0567636
0.397726 0.106294 0.0582895
0.4215 0.111055 0.0600595
0.444999 0.115969 0.0611582
0.46891 0.120989 0.0630655
0.492638 0.125902 0.0650797
0.516396 0.130922 0.0669413
0.538354 0.135378 0.068574
0.556481 0.138003 0.06981
0.572137 0.139712 0.0704509
0.587747 0.141146 0.0709087
0.603204 0.14287 0.0717021
0.6168 0.143923 0.0717479
0.630488 0.145006 0.0721904
0.644343 0.146014 0.0726482
0.657679 0.146929 0.0728008
0.0338293 0.0491951 0.042237
0.0366369 0.0507973 0.0434577
0.042771 0.0544137 0.0447242
0.0518654 0.0587167 0.0466468
0.0678416 0.0620127 0.0485389
0.0837568 0.0652323 0.0495613
0.100679 0.0678874 0.0502785
0.120195 0.0719158 0.0511177
0.142535 0.076112 0.0522774
0.167117 0.0806592 0.0527504
0.1935 0.0847791 0.0535286
0.220905 0.0885634 0.0539864
0.249348 0.0923781 0.0545052
0.276783 0.0962539 0.0548867
0.302556 0.10042 0.0555734
0.32755 0.104692 0.0567178
0.351308 0.109331 0.0576791
0.374777 0.114122 0.0590372
0.398672 0.118868 0.0607156
0.42295 0.123842 0.0623178
0.446876 0.128923 0.0640269
0.471275 0.134066 0.0657664
0.49514 0.139193 0.0678569
0.518486 0.144488 0.0694133
0.541283 0.149325 0.0711376
0.560327 0.152468 0.0721294
0.576135 0.154208 0.0728313
0.591806 0.155428 0.0735485
0.607507 0.157382 0.0741588
0.620905 0.158267 0.0742962
0.634714 0.159289 0.0747234
0.648096 0.160159 0.0749828
0.661784 0.161166 0.0753033
0.0370031 0.0641337 0.0520027
0.040238 0.0652018 0.0526741
0.0463264 0.0686961 0.0531014
0.0560616 0.0739452 0.0538643
0.0692149 0.0784924 0.0564126
0.089662 0.0819257 0.0578012
0.110018 0.0856031 0.0583047
0.129763 0.0888228 0.0582132
0.151507 0.091722 0.0580301
0.175616 0.0953994 0.0578317
0.201358 0.0991531 0.0581216
0.227375 0.103029 0.0577554
0.254063 0.106661 0.0577554
0.280369 0.110307 0.0578622
0.305364 0.114275 0.0583963
0.329473 0.118822 0.060029
0.353262 0.123247 0.0611124
0.377172 0.127932 0.062562
0.401358 0.132708 0.0641642
0.425086 0.137804 0.0655985
0.449683 0.142916 0.0674144
0.47393 0.148287 0.069337
0.497688 0.153735 0.0712902
0.521111 0.158953 0.0730755
0.544396 0.163928 0.0750286
0.564508 0.167773 0.0762798
0.579904 0.169085 0.0764172
0.59585 0.170581 0.0768292
0.611551 0.172076 0.0774548
0.62533 0.17322 0.0775921
0.638575 0.174105 0.0773632
0.652445 0.17496 0.0775616
0.665888 0.17586 0.0777295
0.0403754 0.0822614 0.063508
0.0442054 0.0831617 0.0637675
0.0511025 0.0852979 0.0637827
0.0599222 0.091371 0.0629282
0.0726329 0.0964675 0.0647746
0.0900282 0.101091 0.0665446
0.115953 0.1037 0.066865
0.139193 0.108034 0.0669566
0.160815 0.110277 0.0656443
0.185122 0.112718 0.0648051
0.209934 0.115251 0.0636606
0.235615 0.118151 0.0629435
0.261128 0.121584 0.0623484
0.285405 0.12549 0.0624704
0.309621 0.129641 0.0632486
0.332799 0.13431 0.0643015
0.356405 0.138735 0.0654459
0.380331 0.143145 0.0666972
0.404532 0.14818 0.0682994
0.428382 0.153063 0.0699779
0.452399 0.158282 0.0716106
0.476646 0.163516 0.0734112
0.500526 0.168795 0.0752728
0.52401 0.174014 0.0770123
0.547112 0.179049 0.0787366
0.568444 0.183276 0.0804608
0.584405 0.184878 0.0809186
0.599802 0.185962 0.0812085
0.615564 0.187701 0.0818952
0.629618 0.188571 0.0817884
0.643366 0.189548 0.0819257
0.656672 0.190188 0.0819257
0.670222 0.19118 0.0817578
0.0440528 0.102983 0.0762341
0.0485389 0.103792 0.0762188
0.0558022 0.105165 0.0760052
0.0650492 0.10959 0.074403
0.0767987 0.11545 0.0730907
0.0925612 0.120531 0.0757458
0.113619 0.124804 0.0770123
0.142885 0.127169 0.0765393
0.170581 0.129976 0.0749676
0.19321 0.131975 0.0727092
0.218647 0.133135 0.0708019
0.244388 0.13547 0.0697185
0.26894 0.138155 0.0690623
0.292958 0.141543 0.0690471
0.31577 0.145617 0.0690776
0.33846 0.150347 0.0698558
0.361318 0.155215 0.0706188
0.384543 0.160159 0.0719463
0.408057 0.165087 0.073228
0.431952 0.169894 0.0749218
0.456031 0.174914 0.0765698
0.48011 0.179965 0.0785229
0.503792 0.185168 0.0801404
0.527443 0.190066 0.0820478
0.55024 0.195026 0.0836042
0.572412 0.199619 0.0852674
0.588724 0.201038 0.0856641
0.604349 0.202304 0.0859998
0.61973 0.203723 0.0864271
0.634211 0.204944 0.0868391
0.647578 0.205539 0.0868238
0.66128 0.206378 0.0868696
0.674723 0.207233 0.0867933
0.0478218 0.125139 0.0900282
0.052903 0.125917 0.089662
0.0598764 0.126665 0.0889906
0.0699168 0.129702 0.0867781
0.0819867 0.135409 0.0844739
0.0972305 0.140429 0.0847791
0.114534 0.144656 0.087953
0.138643 0.147951 0.0871443
0.172152 0.149447 0.0855879
0.203449 0.151507 0.0833906
0.22771 0.153536 0.0805066
0.252384 0.155062 0.0782635
0.27689 0.157122 0.0770123
0.300511 0.159884 0.0764935
0.322774 0.163424 0.0765087
0.345434 0.16759 0.0768292
0.367742 0.172061 0.0772869
0.390539 0.177005 0.078172
0.413184 0.182132 0.079118
0.436316 0.187167 0.080415
0.4598 0.192248 0.0819104
0.48368 0.197208 0.0834669
0.507256 0.201999 0.085359
0.530587 0.206821 0.0872053
0.553552 0.211536 0.0889601
0.576211 0.21619 0.0906996
0.593545 0.21825 0.0913405
0.608881 0.21915 0.0916304
0.624582 0.220691 0.0924392
0.638956 0.221775 0.092958
0.652628 0.222522 0.0930648
0.665949 0.222965 0.0928817
0.679561 0.223713 0.0928817
0.0518502 0.148226 0.104936
0.057145 0.148898 0.104448
0.0643168 0.149493 0.102937
0.0758679 0.150042 0.100984
0.0867018 0.155322 0.0964981
0.101152 0.160021 0.094728
0.118349 0.164355 0.0957809
0.13817 0.168765 0.0984054
0.16614 0.171695 0.0973373
0.204105 0.171756 0.0949874
0.236606 0.17406 0.0917525
0.261723 0.176242 0.0891127
0.284825 0.177951 0.0862135
0.307988 0.180224 0.0850233
0.330404 0.183047 0.0848249
0.35256 0.18677 0.0848249
0.37499 0.190585 0.08542
0.397482 0.195041 0.085893
0.420127 0.19971 0.0865797
0.442695 0.204593 0.0871901
0.465202 0.209583 0.0882734
0.488228 0.214878 0.0897993
0.511498 0.219608 0.0912795
0.534447 0.224445 0.0930495
0.557382 0.228946 0.0948043
0.580362 0.23357 0.0966354
0.59855 0.235981 0.0975357
0.613993 0.236835 0.0978103
0.629572 0.238025 0.0985733
0.644388 0.239307 0.0997024
0.657862 0.239948 0.0996872
0.671443 0.240604 0.0997787
0.684611 0.240955 0.0996262
0.0558022 0.171084 0.118837
0.0613413 0.171725 0.118196
0.0689555 0.171664 0.116457
0.080705 0.170962 0.114672
0.0929274 0.174838 0.110582
0.105272 0.179889 0.106676
0.122805 0.184314 0.105165
0.141222 0.188876 0.107607
0.164523 0.19263 0.10956
0.195529 0.195209 0.107225
0.234989 0.195331 0.104677
0.269306 0.196811 0.100969
0.294148 0.200153 0.0985733
0.315221 0.202197 0.0959945
0.337728 0.204562 0.0945602
0.359823 0.207202 0.0939956
0.382193 0.21059 0.093904
0.404761 0.214466 0.0942397
0.426978 0.218509 0.094728
0.449546 0.222873 0.0954299
0.472023 0.227466 0.0962997
0.494911 0.232197 0.0972915
0.517494 0.237095 0.0985885
0.539773 0.242008 0.0999466
0.562158 0.246647 0.101381
0.584466 0.251316 0.103075
0.6038 0.254078 0.104219
0.619608 0.255207 0.104646
0.634836 0.256107 0.105089
0.650385 0.257649 0.107042
0.663813 0.258 0.106981
0.677226 0.258534 0.107012
0.690715 0.259083 0.107179
0.0596017 0.1935 0.13225
0.0656596 0.193973 0.131502
0.0738079 0.193683 0.130083
0.0850538 0.19237 0.12755
0.0988479 0.194903 0.124819
0.110369 0.2 0.118776
0.126589 0.204456 0.11664
0.14551 0.209247 0.116289
0.166827 0.213428 0.118898
0.193545 0.216999 0.120058
0.226612 0.21912 0.116869
0.265934 0.219242 0.114229
0.30045 0.220676 0.111269
0.324483 0.224857 0.108995
0.344656 0.227481 0.106508
0.366827 0.229313 0.104585
0.389425 0.231769 0.103899
0.411643 0.235157 0.103777
0.434012 0.23859 0.103868
0.456458 0.242283 0.104356
0.478965 0.246342 0.104845
0.501991 0.250553 0.105943
0.524147 0.255131 0.10692
0.546777 0.25951 0.108248
0.568505 0.264134 0.109209
0.590677 0.268635 0.110887
0.610117 0.272297 0.11191
0.626276 0.273625 0.112505
0.641398 0.274479 0.112703
0.656962 0.27631 0.114855
0.670298 0.276814 0.1149
0.683497 0.277119 0.114794
0.697032 0.277607 0.114885
0.0636912 0.215305 0.144656
0.0697337 0.215717 0.143771
0.0779126 0.215671 0.142123
0.0895247 0.214191 0.139818
0.103792 0.215396 0.137835
0.115755 0.219898 0.131533
0.130358 0.22475 0.128206
0.150011 0.229419 0.126833
0.170916 0.234226 0.127062
0.194705 0.238041 0.130465
0.224063 0.241291 0.130175
0.25774 0.243229 0.127184
0.296132 0.243565 0.125322
0.329244 0.245441 0.121828
0.353933 0.249851 0.119966
0.375128 0.252552 0.117662
0.395956 0.254551 0.115175
0.41886 0.256672 0.114046
0.441611 0.259648 0.114183
0.463752 0.262882 0.114122
0.48661 0.266194 0.114687
0.508995 0.270085 0.115282
0.531777 0.273899 0.11635
0.553918 0.27808 0.117235
0.576074 0.282139 0.1187
0.598001 0.28661 0.119905
0.618418 0.290349 0.121202
0.63447 0.291981 0.121309
0.649332 0.293156 0.121263
0.664408 0.295079 0.123629
0.677501 0.295918 0.123583
0.690684 0.296147 0.123522
0.704005 0.29659 0.123751
0.0678874 0.237308 0.156298
0.0743267 0.237675 0.155322
0.0830549 0.237537 0.153552
0.0950942 0.236225 0.151659
0.109163 0.236042 0.149554
0.124086 0.239399 0.146319
0.134646 0.245182 0.139513
0.154131 0.24979 0.138491
0.176135 0.254368 0.137392
0.198932 0.258885 0.138323
0.225132 0.262455 0.141405
0.255634 0.265415 0.140032
0.288502 0.267842 0.137484
0.325277 0.268879 0.136156
0.35816 0.270588 0.13341
0.38352 0.274647 0.131441
0.405493 0.277882 0.129335
0.42649 0.279652 0.126757
0.449348 0.281651 0.125628
0.471809 0.284352 0.125277
0.494163 0.287343 0.125261
0.516793 0.29044 0.125841
0.539315 0.293935 0.126452
0.561578 0.297475 0.127413
0.583841 0.301442 0.12845
0.605905 0.305425 0.129946
0.62681 0.308949 0.131029
0.64361 0.310765 0.131289
0.658457 0.311696 0.131334
0.673396 0.313741 0.133562
0.686397 0.314656 0.133593
0.699046 0.315175 0.133303
0.711803 0.315877 0.133303
0.0726177 0.25922 0.168246
0.0792706 0.259648 0.167483
0.0885023 0.259434 0.165774
0.100694 0.258122 0.163882
0.114549 0.256886 0.161593
0.130266 0.259724 0.159472
0.142321 0.264942 0.152865
0.159182 0.270039 0.149645
0.181003 0.274891 0.14844
0.204639 0.279301 0.146899
0.229404 0.283345 0.149615
0.256962 0.28687 0.151904
0.287541 0.289921 0.150408
0.318715 0.292638 0.148516
0.353796 0.293843 0.147082
0.387106 0.295689 0.144427
0.41294 0.299641 0.142901
0.436423 0.30312 0.141222
0.457084 0.305074 0.13901
0.479774 0.306844 0.137316
0.502419 0.309087 0.136843
0.525032 0.311833 0.13698
0.547387 0.314809 0.137316
0.569543 0.318029 0.137957
0.591943 0.321538 0.139055
0.613642 0.325078 0.140002
0.634989 0.328496 0.140993
0.652811 0.330617 0.141268
0.667399 0.331395 0.1411
0.682414 0.333074 0.143297
0.695827 0.334096 0.143908
0.708766 0.334661 0.143725
0.721202 0.335027 0.143374
0.0779583 0.281086 0.180117
0.0849622 0.281285 0.178988
0.094728 0.281117 0.177722
0.106889 0.28011 0.176074
0.120592 0.278767 0.174014
0.136202 0.280125 0.172122
0.149966 0.28481 0.166567
0.164279 0.29044 0.161151
0.186313 0.295171 0.159976
0.21001 0.29955 0.158114
0.234821 0.303655 0.157946
0.260533 0.307652 0.1608
0.288319 0.311223 0.163485
0.317678 0.314672 0.161456
0.347646 0.317617 0.159426
0.38265 0.319127 0.158495
0.415854 0.320882 0.156191
0.44242 0.32462 0.154086
0.467018 0.328496 0.15288
0.487999 0.330571 0.150988
0.509957 0.332326 0.149157
0.533227 0.334035 0.148333
0.555627 0.336568 0.148241
0.577661 0.339376 0.148409
0.59997 0.342351 0.149355
0.62153 0.345754 0.150134
0.643 0.348913 0.15111
0.662287 0.351141 0.151736
0.676768 0.351766 0.151583
0.691508 0.35314 0.153353
0.705303 0.35436 0.154131
0.717983 0.354818 0.153964
0.730449 0.355245 0.15378
0.0835431 0.30309 0.191669
0.0911269 0.303319 0.190448
0.101534 0.303014 0.189487
0.113573 0.302022 0.188174
0.12697 0.30042 0.185657
0.142672 0.300923 0.183856
0.160159 0.304433 0.181704
0.171618 0.310552 0.173373
0.19176 0.315465 0.171649
0.215625 0.319738 0.170153
0.240543 0.323949 0.168078
0.265858 0.328161 0.169512
0.291234 0.332265 0.172595
0.318837 0.33611 0.174334
0.346807 0.33994 0.172686
0.377218 0.342779 0.170886
0.411551 0.344396 0.170291
0.444266 0.346303 0.167559
0.471534 0.349859 0.166125
0.496712 0.353994 0.164904
0.518669 0.356054 0.162737
0.540581 0.357763 0.161334
0.563699 0.359258 0.16022
0.585916 0.361578 0.160021
0.607507 0.364233 0.160266
0.62977 0.367071 0.161166
0.650828 0.36997 0.161639
0.670909 0.372549 0.162203
0.685664 0.372946 0.162036
0.700572 0.374105 0.163409
0.7149 0.375418 0.165225
0.727504 0.375723 0.164904
0.740032 0.375998 0.164523
0.0897078 0.324849 0.203235
0.097261 0.325277 0.202274
0.108644 0.325109 0.201434
0.121141 0.323934 0.199802
0.134035 0.322499 0.197757
0.14931 0.321584 0.195819
0.167391 0.324956 0.19411
0.181567 0.330022 0.187747
0.197818 0.33547 0.183246
0.221073 0.339849 0.181888
0.246052 0.344137 0.180209
0.271199 0.34847 0.178607
0.295979 0.352956 0.180911
0.320974 0.357382 0.183825
0.347829 0.36144 0.185382
0.376013 0.365164 0.182864
0.406348 0.368032 0.181781
0.440024 0.369741 0.180987
0.472587 0.371786 0.178927
0.500526 0.375219 0.17734
0.525902 0.379294 0.17641
0.549294 0.381994 0.17554
0.570947 0.383413 0.173693
0.593286 0.384787 0.171984
0.615717 0.386755 0.171572
0.63743 0.389075 0.171908
0.658656 0.391821 0.172549
0.679316 0.394354 0.172961
0.694697 0.394949 0.172793
0.709377 0.395773 0.173785
0.724224 0.397269 0.176593
0.736645 0.397284 0.176059
0.749325 0.397604 0.17583
0.0957809 0.346929 0.214374
0.103868 0.347341 0.213581
0.115908 0.347051 0.212787
0.127855 0.345861 0.211078
0.140764 0.344793 0.209506
0.156207 0.343664 0.207248
0.174273 0.345449 0.205676
0.190616 0.349981 0.201129
0.203876 0.355657 0.193912
0.226337 0.360082 0.192752
0.25095 0.364477 0.19115
0.276204 0.368933 0.189319
0.300893 0.373571 0.188983
0.325032 0.37818 0.19176
0.349798 0.38262 0.194965
0.376898 0.386633 0.195483
0.405219 0.390249 0.193393
0.435309 0.39324 0.191882
0.468452 0.395209 0.191226
0.500694 0.397452 0.190097
0.528939 0.400824 0.18854
0.554879 0.404685 0.187793
0.579339 0.408011 0.187198
0.601068 0.409415 0.185565
0.622629 0.410574 0.184161
0.644907 0.412055 0.18349
0.666499 0.414267 0.183764
0.687282 0.416617 0.184176
0.703426 0.417227 0.18381
0.718212 0.417777 0.18439
0.733135 0.419791 0.187442
0.745647 0.419837 0.187106
0.758465 0.419944 0.186984
0.102052 0.369146 0.225193
0.110857 0.369467 0.224414
0.122728 0.369131 0.223529
0.134905 0.368017 0.22211
0.147997 0.367025 0.220768
0.163012 0.365667 0.218753
0.180453 0.366232 0.2168
0.199817 0.370001 0.214542
0.212406 0.375509 0.206973
0.231922 0.380362 0.203479
0.256229 0.384863 0.202289
0.281117 0.389364 0.200534
0.305486 0.394232 0.198795
0.329473 0.399084 0.200137
0.353414 0.403708 0.203159
0.378485 0.408148 0.205783
0.406088 0.411994 0.205158
0.434165 0.415549 0.203037
0.464179 0.418479 0.201663
0.496818 0.42063 0.201801
0.528725 0.423011 0.200336
0.55668 0.426474 0.199329
0.583062 0.430289 0.198962
0.608682 0.434073 0.1991
0.630426 0.435294 0.197833
0.65182 0.436393 0.196155
0.673564 0.437461 0.194873
0.694911 0.439429 0.194903
0.711864 0.440223 0.194598
0.726802 0.440482 0.194537
0.742153 0.442863 0.199313
0.754803 0.442908 0.198932
0.767514 0.442878 0.198474
0.10808 0.391501 0.235874
0.117693 0.391684 0.235019
0.129335 0.39115 0.233997
0.141863 0.390417 0.233082
0.155016 0.389349 0.231617
0.169757 0.388037 0.229526
0.186664 0.387366 0.227176
0.206668 0.3906 0.225986
0.222309 0.395453 0.220279
0.237705 0.400854 0.214191
0.261021 0.40531 0.212833
0.285847 0.410071 0.211353
0.309972 0.414832 0.209751
0.333776 0.419791 0.208911
0.357259 0.424796 0.211002
0.381857 0.429358 0.213596
0.407202 0.433631 0.215518
0.435431 0.437247 0.214771
0.463066 0.440925 0.212497
0.49308 0.443778 0.211719
0.524697 0.446143 0.211414
0.555993 0.448722 0.210361
0.584482 0.452049 0.209827
0.610834 0.455894 0.209506
0.636805 0.459617 0.210239
0.659175 0.461524 0.209751
0.680186 0.462394 0.208255
0.701289 0.463218 0.206851
0.720119 0.463752 0.206027
0.73521 0.463691 0.205295
0.750896 0.466621 0.210986
0.763485 0.46659 0.210773
0.776089 0.466255 0.210147
0.114122 0.413931 0.245716
0.124147 0.414099 0.245106
0.136019 0.41355 0.24419
0.14844 0.41294 0.243137
0.16173 0.411948 0.241611
0.176303 0.410574 0.239933
0.192874 0.409216 0.237476
0.212192 0.411658 0.236088
0.230381 0.415717 0.232273
0.243687 0.421286 0.224353
0.265827 0.426062 0.222675
0.290181 0.43064 0.221912
0.314427 0.435508 0.220706
0.337682 0.440726 0.218875
0.361425 0.445716 0.219074
0.385321 0.450553 0.22118
0.410132 0.454963 0.22356
0.436408 0.458961 0.224857
0.464057 0.462669 0.223621
0.491798 0.466224 0.22179
0.521279 0.469093 0.221027
0.552209 0.471672 0.2206
0.582757 0.474418 0.220172
0.611475 0.477607 0.219852
0.637919 0.481544 0.219974
0.663767 0.485252 0.221286
0.68687 0.487709 0.221332
0.707637 0.488563 0.219959
0.727367 0.489021 0.218769
0.743053 0.487999 0.217426
0.759472 0.490745 0.222934
0.77229 0.490608 0.222782
0.784848 0.49041 0.222385
0.119539 0.436454 0.255344
0.12987 0.436316 0.25417
0.142321 0.435996 0.25359
0.154955 0.435447 0.252872
0.168505 0.434409 0.251484
0.182742 0.433021 0.249607
0.199084 0.431174 0.24712
0.217884 0.432547 0.245457
0.238972 0.43595 0.244038
0.251453 0.441657 0.236515
0.27097 0.446616 0.232166
0.294163 0.451316 0.231586
0.317876 0.456321 0.230533
0.341527 0.461479 0.229419
0.36495 0.466682 0.227924
0.388861 0.471489 0.229129
0.413474 0.47599 0.231434
0.438468 0.480461 0.233097
0.465232 0.484321 0.234119
0.492638 0.487922 0.23241
0.520409 0.491402 0.230838
0.549325 0.49453 0.230076
0.579599 0.497139 0.229984
0.609735 0.500145 0.229618
0.637873 0.503441 0.229526
0.664424 0.507027 0.230213
0.689921 0.510811 0.231571
0.714305 0.514092 0.233097
0.734478 0.514458 0.23183
0.75108 0.514244 0.230716
0.766842 0.515587 0.234974
0.780484 0.515785 0.235737
0.793133 0.515343 0.235279
0.125124 0.458915 0.264118
0.135409 0.458793 0.263233
0.147982 0.458579 0.26273
0.161074 0.458122 0.261906
0.174868 0.456931 0.260838
0.189075 0.455451 0.2589
0.204852 0.453773 0.256641
0.222843 0.454017 0.254643
0.243656 0.457191 0.253086
0.260792 0.461723 0.248554
0.275303 0.467338 0.24181
0.29839 0.472099 0.240558
0.32163 0.477119 0.24004
0.344732 0.48246 0.239094
0.368154 0.487541 0.23798
0.392126 0.492561 0.237354
0.416434 0.497276 0.238834
0.441413 0.501747 0.240681
0.466819 0.505989 0.242267
0.493828 0.509819 0.242649
0.521279 0.513405 0.241489
0.548852 0.517021 0.240314
0.577432 0.520058 0.239673
0.607141 0.522805 0.239796
0.635782 0.525917 0.239246
0.664012 0.529 0.239078
0.689906 0.532509 0.239643
0.715358 0.536248 0.241581
0.74023 0.540002 0.243992
0.758618 0.540352 0.24361
0.774044 0.54139 0.24683
0.787305 0.541573 0.24828
0.799786 0.541238 0.248005
0.130388 0.481422 0.272526
0.140764 0.481376 0.27158
0.153552 0.481224 0.271046
0.166796 0.480797 0.270375
0.180453 0.479652 0.269215
0.19472 0.478202 0.267582
0.210788 0.476539 0.265446
0.228336 0.47567 0.263371
0.248081 0.478264 0.261585
0.266911 0.482383 0.258793
0.280781 0.487938 0.251575
0.302525 0.493065 0.249653
0.325231 0.498085 0.249088
0.348058 0.50341 0.248264
0.371206 0.508659 0.247318
0.395193 0.51397 0.246326
0.419562 0.518532 0.246677
0.444068 0.523033 0.248188
0.4692 0.527382 0.249668
0.495155 0.531655 0.251652
0.52224 0.535348 0.25127
0.549584 0.538918 0.250217
0.576699 0.542504 0.249104
0.605173 0.545571 0.249073
0.634058 0.548455 0.248981
0.661784 0.551537 0.248966
0.689219 0.554482 0.248753
0.714626 0.5579 0.248844
0.740047 0.561364 0.250706
0.762768 0.564935 0.254047
0.780407 0.567483 0.258488
0.794141 0.567864 0.260441
0.806653 0.567315 0.259968
0.13492 0.503822 0.280354
0.145586 0.503883 0.279545
0.15848 0.503716 0.279026
0.172091 0.503273 0.278355
0.186084 0.502052 0.27718
0.200397 0.500801 0.275898
0.215946 0.499214 0.274037
0.233066 0.497505 0.271595
0.252537 0.499336 0.269749
0.273243 0.503014 0.268299
0.286748 0.50869 0.261875
0.305608 0.514076 0.258045
0.328588 0.51902 0.257603
0.351034 0.524498 0.257023
0.374334 0.529793 0.256229
0.397848 0.535027 0.255253
0.42211 0.539757 0.254902
0.446647 0.544381 0.255634
0.471641 0.54876 0.257115
0.497261 0.552956 0.258854
0.523064 0.557092 0.259968
0.550408 0.560754 0.259922
0.577417 0.564324 0.258915
0.60415 0.567864 0.257847
0.632425 0.570855 0.257984
0.660121 0.573983 0.258183
0.687404 0.576944 0.258427
0.713573 0.580118 0.258244
0.738674 0.583246 0.258045
0.762783 0.586618 0.260441
0.782422 0.590249 0.265934
0.799344 0.59266 0.271107
0.81294 0.593408 0.271931
0.138979 0.525872 0.287694
0.149752 0.526101 0.286885
0.163119 0.525887 0.286397
0.176867 0.525536 0.285939
0.190768 0.524239 0.28484
0.205631 0.523018 0.283452
0.220737 0.521645 0.281575
0.237522 0.519738 0.279271
0.256245 0.520378 0.277165
0.276692 0.523796 0.276097
0.295064 0.528496 0.272953
0.308751 0.534661 0.26627
0.331518 0.539635 0.265629
0.353597 0.545144 0.265187
0.376516 0.550607 0.264332
0.400351 0.555703 0.263767
0.424308 0.560586 0.263478
0.448783 0.565225 0.263371
0.473808 0.569665 0.264515
0.498802 0.574075 0.265736
0.524742 0.57821 0.267384
0.550652 0.582193 0.26807
0.577951 0.585794 0.268055
0.604501 0.589426 0.267338
0.631418 0.592874 0.266712
0.658854 0.595865 0.266819
0.68571 0.599054 0.267063
0.712276 0.602197 0.26772
0.737575 0.60531 0.267781
0.761929 0.608698 0.269184
0.782834 0.611826 0.272023
0.800244 0.614328 0.276173
0.815473 0.616114 0.278935
0.14313 0.547799 0.294636
0.153048 0.548074 0.293858
0.166903 0.547982 0.293584
0.18085 0.547585 0.29308
0.195117 0.546395 0.291844
0.209598 0.545312 0.290471
0.225071 0.543847 0.288731
0.241962 0.541955 0.286748
0.259907 0.54139 0.284535
0.279576 0.544808 0.283177
0.298894 0.54905 0.281117
0.313741 0.554696 0.275517
0.333928 0.560113 0.272938
0.355901 0.56556 0.272694
0.378775 0.570962 0.272221
0.402029 0.57644 0.271138
0.426001 0.581247 0.271
0.450553 0.585733 0.271122
0.475257 0.590417 0.271321
0.500572 0.594705 0.272908
