code/data/lut/32感性内敛2.cube
TITLE "LD - Cashmere 2"
# Copyright (c) 2019 Lens Distortions, LLC. All Rights Reserved.
# LensDistortions.com
# ref-CSH1
LUT_3D_SIZE 9
0.0212253 0.0210269 0.0219883
0.0458991 0.0290532 0.0301061
0.120867 0.0430152 0.0412146
0.234318 0.0586709 0.0477913
0.34548 0.0756237 0.053254
0.444221 0.0941329 0.0590066
0.534585 0.112291 0.0652476
0.596948 0.118914 0.0673838
0.651576 0.12369 0.0684977
0.0370031 0.0641337 0.0520027
0.0692149 0.0784924 0.0564126
0.151507 0.091722 0.0580301
0.254063 0.106661 0.0577554
0.353262 0.123247 0.0611124
0.449683 0.142916 0.0674144
0.544396 0.163928 0.0750286
0.611551 0.172076 0.0774548
0.665888 0.17586 0.0777295
0.0518502 0.148226 0.104936
0.0867018 0.155322 0.0964981
0.16614 0.171695 0.0973373
0.284825 0.177951 0.0862135
0.37499 0.190585 0.08542
0.465202 0.209583 0.0882734
0.557382 0.228946 0.0948043
0.629572 0.238025 0.0985733
0.684611 0.240955 0.0996262
0.0678874 0.237308 0.156298
0.109163 0.236042 0.149554
0.176135 0.254368 0.137392
0.288502 0.267842 0.137484
0.405493 0.277882 0.129335
0.494163 0.287343 0.125261
0.583841 0.301442 0.12845
0.658457 0.311696 0.131334
0.711803 0.315877 0.133303
0.0897078 0.324849 0.203235
0.134035 0.322499 0.197757
0.197818 0.33547 0.183246
0.295979 0.352956 0.180911
0.406348 0.368032 0.181781
0.525902 0.379294 0.17641
0.615717 0.386755 0.171572
0.694697 0.394949 0.172793
0.749325 0.397604 0.17583
0.114122 0.413931 0.245716
0.16173 0.411948 0.241611
0.230381 0.415717 0.232273
0.314427 0.435508 0.220706
0.410132 0.454963 0.22356
0.521279 0.469093 0.221027
0.637919 0.481544 0.219974
0.727367 0.489021 0.218769
0.784848 0.49041 0.222385
0.13492 0.503822 0.280354
0.186084 0.502052 0.27718
0.252537 0.499336 0.269749
0.328588 0.51902 0.257603
0.42211 0.539757 0.254902
0.523064 0.557092 0.259968
0.632425 0.570855 0.257984
0.738674 0.583246 0.258045
0.81294 0.593408 0.271931
0.149065 0.590723 0.307652
0.201709 0.589822 0.304356
0.26569 0.583658 0.297704
0.336522 0.600443 0.286168
0.428519 0.621576 0.285618
0.527977 0.639689 0.287755
0.631556 0.655756 0.291569
0.734447 0.669429 0.292927
0.817212 0.680903 0.29987
0.153811 0.65156 0.320668
0.202686 0.653773 0.317403
0.268345 0.650339 0.313191
0.342412 0.660243 0.306859
0.441138 0.687694 0.308156
0.537758 0.708812 0.312078
0.63798 0.727916 0.318013
0.736278 0.745663 0.324071
0.821439 0.760006 0.330144
0.0281682 0.0311131 0.0614023
0.0638132 0.0424506 0.0795605
0.155077 0.0507362 0.092134
0.26804 0.0568246 0.0966354
0.374548 0.0651408 0.0972763
0.475883 0.0740368 0.0943008
0.56379 0.0881514 0.0939193
0.624308 0.0940108 0.0932326
0.675242 0.099321 0.0931868
0.0403906 0.0885939 0.0912184
0.0843671 0.0990311 0.106996
0.168276 0.104356 0.109575
0.272847 0.108965 0.103853
0.368978 0.12166 0.102647
0.464866 0.138186 0.104952
0.558129 0.157671 0.109483
0.624796 0.166049 0.113191
0.677958 0.169375 0.114443
0.0504463 0.177462 0.137118
0.100206 0.183474 0.15082
0.186465 0.188891 0.147234
0.299428 0.187121 0.129091
0.387274 0.197055 0.123583
0.478706 0.211933 0.123491
0.57145 0.228046 0.127428
0.642603 0.236637 0.131258
0.697292 0.23946 0.132753
0.060441 0.258183 0.181125
0.107485 0.265553 0.189929
0.194965 0.274144 0.181216
0.305241 0.282445 0.178943
0.415656 0.287633 0.165789
0.507118 0.293553 0.156954
0.596094 0.305669 0.157107
0.66949 0.314992 0.159747
0.724453 0.317617 0.162844
0.078645 0.3402 0.226337
0.12845 0.345739 0.229908
0.217151 0.354818 0.22681
0.312169 0.368383 0.215763
0.419211 0.38117 0.217456
0.537957 0.390341 0.210132
0.628229 0.392859 0.197818
0.706279 0.399832 0.199176
0.761059 0.402045 0.202228
0.102693 0.42707 0.26894
0.155734 0.429786 0.269032
0.234867 0.439094 0.266163
0.326558 0.453361 0.255009
0.423987 0.469734 0.256229
0.53489 0.482948 0.252537
0.651377 0.492744 0.247181
0.738705 0.495476 0.242786
0.797238 0.496483 0.247379
0.126268 0.516075 0.304585
0.181323 0.515175 0.302419
0.252628 0.524025 0.299138
0.336309 0.538994 0.288701
0.432517 0.556741 0.286305
0.535103 0.573022 0.284153
0.6448 0.583673 0.280034
0.751949 0.594141 0.284642
0.825879 0.602167 0.296971
0.142916 0.602594 0.331701
0.199741 0.601129 0.32961
0.266514 0.606256 0.325917
0.34876 0.620676 0.321889
0.435554 0.640757 0.314046
0.536278 0.65861 0.307622
0.641993 0.670619 0.310582
0.745357 0.680919 0.311635
0.829343 0.691463 0.319631
0.149737 0.663035 0.344503
0.202197 0.66479 0.342565
0.2692 0.6645 0.339086
0.347494 0.681483 0.336629
0.445533 0.709499 0.335225
0.54406 0.730663 0.332967
0.646647 0.746273 0.337774
0.746822 0.761196 0.343893
0.833188 0.773526 0.34995
0.0372015 0.0549172 0.138094
0.0746014 0.0669261 0.157336
0.185229 0.0816205 0.184451
0.308034 0.0846571 0.188174
0.40441 0.085832 0.184756
0.498726 0.09308 0.183627
0.589105 0.101991 0.181659
0.650355 0.103349 0.177752
0.702113 0.103319 0.174472
0.0475776 0.116075 0.171954
0.0875257 0.120729 0.176272
0.185824 0.130983 0.189395
0.305577 0.132128 0.187884
0.405035 0.136461 0.186221
0.502312 0.144167 0.183185
0.596567 0.151278 0.178149
0.664454 0.142962 0.167849
0.716121 0.141802 0.163882
0.052842 0.204227 0.192935
0.104448 0.206851 0.202853
0.206409 0.212955 0.209049
0.309041 0.211826 0.202808
0.403571 0.216281 0.199786
0.496696 0.226673 0.198901
0.591424 0.238254 0.197589
0.670024 0.240528 0.190494
0.722988 0.230457 0.176562
0.064271 0.293538 0.22414
0.117556 0.297566 0.230762
0.228794 0.301976 0.246296
0.330251 0.30573 0.241703
0.43473 0.305165 0.22678
0.524178 0.310201 0.221393
0.614679 0.318364 0.216983
0.693355 0.319982 0.207919
0.748409 0.317098 0.200488
0.0846265 0.380926 0.267262
0.131609 0.384771 0.272053
0.256306 0.389151 0.2878
0.342565 0.395773 0.28098
0.444205 0.403952 0.280018
0.563195 0.401312 0.257191
0.648524 0.405158 0.249622
0.72752 0.405646 0.235813
0.781918 0.407553 0.236042
0.105455 0.462257 0.305684
0.155962 0.467247 0.309834
0.260639 0.473976 0.319219
0.35787 0.481956 0.314687
0.446036 0.493339 0.310521
0.556771 0.502739 0.310307
0.675303 0.506676 0.293217
0.760113 0.503792 0.27451
0.816617 0.504585 0.277913
0.125505 0.545113 0.338949
0.180423 0.550942 0.34229
0.262547 0.557534 0.344198
0.361303 0.567269 0.343786
0.451316 0.580346 0.336461
0.552239 0.593256 0.334829
0.664118 0.60325 0.326696
0.772808 0.610178 0.318715
0.844266 0.61323 0.326604
0.140444 0.625727 0.366354
0.198596 0.63238 0.368368
0.267979 0.639155 0.366705
0.355093 0.650019 0.364004
0.447227 0.66566 0.358679
0.550652 0.681361 0.353536
0.658579 0.695064 0.341192
0.762554 0.699992 0.340459
0.849042 0.708614 0.353368
0.145876 0.679744 0.377539
0.20235 0.687938 0.379294
0.271031 0.697383 0.378485
0.347097 0.71313 0.374609
0.450935 0.737255 0.374746
0.550912 0.757061 0.368795
0.656947 0.7729 0.362982
0.759884 0.782834 0.36791
0.848463 0.791516 0.373373
0.0462043 0.0918746 0.226215
0.0883955 0.102098 0.237034
0.188159 0.115923 0.262867
0.322148 0.121721 0.272312
0.432822 0.129122 0.275669
0.528176 0.128649 0.270619
0.619135 0.131395 0.268803
0.679652 0.131777 0.266072
0.730098 0.131258 0.261982
0.0549477 0.145998 0.256413
0.0971389 0.147692 0.250477
0.18027 0.158831 0.264744
0.318929 0.166217 0.27277
0.433509 0.176669 0.279362
0.532265 0.180713 0.276188
0.626551 0.183169 0.27364
0.69398 0.171832 0.264652
0.74519 0.16759 0.259159
0.0626688 0.234058 0.27306
0.112627 0.233188 0.274739
0.202457 0.234241 0.274601
0.328267 0.241642 0.283589
0.434577 0.245106 0.283543
0.533059 0.248615 0.281544
0.630732 0.252827 0.279057
0.709865 0.248631 0.272114
0.764523 0.231388 0.259266
0.0690318 0.318959 0.287007
0.124086 0.3205 0.291493
0.23508 0.325017 0.306096
0.350973 0.332677 0.310765
0.443854 0.333623 0.305241
0.542245 0.3337 0.300099
0.634226 0.339361 0.298192
0.722835 0.33959 0.290333
0.778393 0.324742 0.273884
0.0870832 0.408713 0.320485
0.13904 0.412589 0.324147
0.26743 0.4159 0.339101
0.374075 0.423011 0.347112
0.468544 0.428794 0.34493
0.574945 0.426307 0.330541
0.665309 0.427085 0.323201
0.751904 0.427604 0.314046
0.80885 0.417197 0.295689
0.111482 0.498817 0.355825
0.163088 0.504631 0.360861
0.281559 0.508049 0.371252
0.39266 0.513313 0.382239
0.475257 0.520867 0.379065
0.579507 0.527108 0.377371
0.70222 0.52076 0.35227
0.783993 0.520592 0.341939
0.843976 0.514244 0.320256
0.134829 0.586542 0.39176
0.189105 0.591211 0.393912
0.276005 0.593408 0.396414
0.411017 0.603677 0.413169
0.490654 0.612009 0.410346
0.574197 0.621729 0.409812
0.688197 0.627451 0.403098
0.813367 0.627253 0.386587
0.870405 0.625971 0.361379
0.148135 0.666072 0.417365
0.206882 0.671107 0.419364
0.275151 0.675776 0.418479
0.39971 0.690166 0.431601
0.487587 0.700481 0.430716
0.580316 0.711208 0.425483
0.676661 0.721981 0.419898
0.792706 0.730205 0.405051
0.874418 0.729763 0.39263
0.147433 0.719432 0.426566
0.208743 0.726879 0.428885
0.27657 0.73431 0.428504
0.352026 0.74786 0.426078
0.462226 0.767834 0.430381
0.561669 0.785519 0.423896
0.667857 0.802426 0.409415
0.775448 0.81117 0.397955
0.867399 0.814069 0.401984
0.0546426 0.134127 0.313924
0.101061 0.140612 0.319463
0.19086 0.154009 0.341512
0.32221 0.160586 0.34847
0.445533 0.169451 0.362295
0.55964 0.180514 0.369879
0.650111 0.174563 0.363516
0.712261 0.171054 0.35729
0.762615 0.169345 0.352651
0.0622873 0.180041 0.335775
0.109438 0.181125 0.330022
0.192172 0.190845 0.338811
0.318959 0.200549 0.352117
0.446052 0.212146 0.365423
0.560784 0.225849 0.373571
0.655512 0.226383 0.368582
0.724651 0.212589 0.360082
0.775631 0.20148 0.352651
0.0740063 0.257923 0.35172
0.125246 0.256535 0.352392
0.20766 0.257847 0.345617
0.315541 0.267582 0.361669
0.448676 0.278019 0.372061
0.558709 0.288136 0.376455
0.658854 0.28864 0.372045
0.738857 0.281697 0.367529
0.79353 0.263233 0.357733
0.0825055 0.348699 0.368826
0.138781 0.349493 0.372824
0.238743 0.350118 0.380301
0.347875 0.353307 0.378042
0.465782 0.362783 0.390433
0.571069 0.363287 0.38674
0.668177 0.363317 0.384207
0.757977 0.359548 0.3785
0.816724 0.34049 0.367025
0.0939345 0.433494 0.389425
0.15053 0.435599 0.392905
0.262852 0.437644 0.405615
0.381323 0.443885 0.415763
0.489799 0.455695 0.421561
0.584314 0.454337 0.41352
0.679713 0.452522 0.405081
0.776486 0.447044 0.393561
0.838727 0.429892 0.377111
0.114733 0.523857 0.421469
0.167559 0.528099 0.425238
0.280064 0.528893 0.433631
0.402899 0.538094 0.450767
0.506065 0.547005 0.451514
0.602152 0.551705 0.449821
0.710338 0.547204 0.434104
0.799908 0.543801 0.423285
0.866178 0.53135 0.400626
0.139498 0.614893 0.452552
0.195834 0.620096 0.456077
0.289082 0.622889 0.459342
0.433204 0.633616 0.478492
0.517128 0.639017 0.480629
0.601785 0.645762 0.478584
0.708064 0.649943 0.474403
0.823682 0.648692 0.464652
0.892287 0.640574 0.430747
0.160952 0.702358 0.481712
0.220615 0.707698 0.484337
0.290364 0.712978 0.484886
0.416754 0.722637 0.497398
0.536263 0.732021 0.509255
0.616785 0.739681 0.507256
0.702388 0.748333 0.505791
0.810697 0.753948 0.497139
0.902037 0.751888 0.446998
0.165759 0.762066 0.491997
0.224964 0.7673 0.493355
0.290272 0.772976 0.492836
0.361181 0.784726 0.491585
0.472267 0.801053 0.496056
0.575387 0.815152 0.493156
0.680156 0.82945 0.481559
0.792126 0.843641 0.458122
0.892714 0.845426 0.447791
0.0628824 0.175692 0.397421
0.113481 0.180529 0.39968
0.199451 0.193256 0.41973
0.324834 0.20029 0.430701
0.443992 0.212039 0.442039
0.568048 0.221027 0.458885
0.679652 0.234318 0.469413
0.743206 0.217624 0.459419
0.79443 0.213825 0.452369
0.0700084 0.215961 0.413779
0.12163 0.217487 0.411505
0.207034 0.225925 0.416037
0.325505 0.236042 0.434455
0.446845 0.248936 0.446448
0.570108 0.261357 0.462638
0.682994 0.277256 0.473564
0.752911 0.265644 0.465126
0.805508 0.242451 0.453452
0.0827497 0.28484 0.433616
0.136828 0.283406 0.43653
0.218097 0.284871 0.420691
0.314168 0.294514 0.434974
0.437751 0.308095 0.455558
0.568673 0.319753 0.466758
0.684504 0.333608 0.47776
0.766735 0.326223 0.47158
0.821698 0.306828 0.462364
0.101228 0.375265 0.458427
0.158495 0.374197 0.460487
0.247227 0.371344 0.453727
0.34699 0.374517 0.454566
0.454032 0.386069 0.475715
0.585916 0.39527 0.486183
0.692134 0.403326 0.488441
0.784497 0.396033 0.478309
0.843687 0.378378 0.474281
0.108537 0.462806 0.476905
0.170214 0.46424 0.480964
0.272114 0.463233 0.488869
0.382574 0.46833 0.498283
0.486793 0.474937 0.495659
0.60412 0.483436 0.509819
0.705821 0.481743 0.497993
0.804562 0.473838 0.491524
0.868818 0.457603 0.485771
0.122118 0.547631 0.499916
0.175433 0.550774 0.503838
0.284504 0.549706 0.509911
0.406943 0.556893 0.530846
0.514839 0.56524 0.532204
0.623041 0.578027 0.536858
0.720958 0.574121 0.52694
0.817517 0.565988 0.512856
0.890364 0.550698 0.49781
0.143908 0.638651 0.529152
0.200107 0.642496 0.532296
0.28777 0.643732 0.536171
0.412314 0.650538 0.556725
0.52726 0.660853 0.56733
0.629602 0.67013 0.560678
0.728542 0.673396 0.558465
0.832898 0.669139 0.545602
0.910994 0.656855 0.517769
0.16405 0.727016 0.55436
0.224018 0.731182 0.556878
0.293584 0.7355 0.557427
0.419806 0.746181 0.573556
0.557458 0.757671 0.58851
0.642466 0.763302 0.588266
0.726818 0.769421 0.587091
0.82562 0.773877 0.583947
0.920211 0.770703 0.541588
0.17438 0.791165 0.564111
0.235935 0.796628 0.566323
0.30222 0.80354 0.567941
0.375967 0.8177 0.571237
0.484932 0.83444 0.5776
0.588724 0.845014 0.576165
0.691127 0.856367 0.565927
0.803693 0.867658 0.54818
0.916625 0.877745 0.506233
0.0698253 0.214069 0.475654
0.123827 0.218814 0.479789
0.211948 0.231098 0.493355
0.326528 0.240253 0.515297
0.447333 0.249561 0.528115
0.566903 0.263066 0.545159
0.685206 0.272358 0.563195
0.765286 0.276295 0.567971
0.826276 0.268223 0.56556
0.0775006 0.252308 0.49453
0.131975 0.254383 0.493645
0.219806 0.261448 0.499062
0.327855 0.273152 0.521843
0.450004 0.284001 0.534401
0.570794 0.298375 0.551186
0.690059 0.310735 0.569284
0.776593 0.318181 0.576318
0.836469 0.307836 0.571572
0.0912947 0.313954 0.521996
0.147601 0.313573 0.520592
0.232441 0.314961 0.505684
0.325048 0.32369 0.516747
0.438987 0.338384 0.547738
0.567544 0.350652 0.558404
0.692164 0.364294 0.574838
0.792233 0.37612 0.586831
0.850248 0.36112 0.580713
0.112978 0.398383 0.547692
0.172427 0.397162 0.549737
0.261601 0.394095 0.542
0.352483 0.398352 0.535393
0.444083 0.410193 0.555138
0.576135 0.421103 0.578042
0.702174 0.432715 0.589364
0.806638 0.444144 0.596918
0.868742 0.425727 0.593759
0.12604 0.490822 0.578225
0.193576 0.491615 0.582254
0.286641 0.487663 0.578698
0.383032 0.488746 0.578576
0.481071 0.49453 0.579095
0.592966 0.504173 0.603326
0.719478 0.512963 0.611597
0.823804 0.516503 0.611551
0.89099 0.49929 0.608362
0.136492 0.576394 0.597742
0.194217 0.578119 0.602304
0.297368 0.575525 0.605936
0.408545 0.57998 0.622232
0.516396 0.587915 0.626764
0.620691 0.595041 0.625132
0.732601 0.603052 0.637125
0.834394 0.598245 0.621637
0.908217 0.584649 0.620417
0.149981 0.661326 0.618235
0.20618 0.664042 0.621942
0.288838 0.663813 0.624567
0.418753 0.668254 0.644373
0.535439 0.676356 0.659159
0.636225 0.685496 0.65272
0.74609 0.697963 0.659098
0.841398 0.691478 0.64242
0.924605 0.677638 0.629313
0.167208 0.749416 0.641062
0.227604 0.752377 0.643549
0.296635 0.754696 0.644907
0.398169 0.762905 0.662715
0.529839 0.770962 0.682765
0.649973 0.780377 0.685435
0.746792 0.789395 0.678599
0.838544 0.792676 0.675746
0.933883 0.785641 0.645731
0.1776 0.815946 0.648493
0.239551 0.820096 0.650675
0.30518 0.825742 0.65211
0.377661 0.836957 0.656184
0.48603 0.856229 0.666835
0.603891 0.870451 0.674708
0.706264 0.880217 0.670832
0.813169 0.888533 0.655619
0.927108 0.896117 0.623987
0.0728771 0.243854 0.542596
0.127901 0.248463 0.547448
0.216861 0.259464 0.562158
0.328054 0.269902 0.585626
0.448661 0.278889 0.600687
0.569116 0.2916 0.620401
0.686915 0.302968 0.641718
0.769619 0.306416 0.650385
0.83537 0.307942 0.654719
0.0809949 0.279347 0.563027
0.136767 0.281621 0.563577
0.225422 0.28838 0.570718
0.330999 0.301564 0.594553
0.451942 0.311971 0.611933
0.573877 0.325322 0.631327
0.692226 0.339162 0.652674
0.780896 0.345769 0.663355
0.847379 0.347921 0.668055
0.0958877 0.337285 0.596429
0.153719 0.337926 0.595422
0.244755 0.340993 0.593866
0.340398 0.349004 0.601953
0.450736 0.363363 0.631434
0.575296 0.375937 0.647837
0.696361 0.391165 0.668299
0.796872 0.401984 0.682399
0.863325 0.402182 0.686122
0.118944 0.418326 0.631022
0.179965 0.417807 0.634211
0.27245 0.416999 0.636378
0.359884 0.424506 0.634958
0.449958 0.432761 0.642649
0.565576 0.44593 0.674205
0.694957 0.458091 0.687495
0.811749 0.47068 0.702632
0.88423 0.468254 0.710735
0.141482 0.510842 0.672251
0.207767 0.510201 0.674556
0.298436 0.506661 0.673121
0.387152 0.509758 0.671229
0.476967 0.516152 0.680079
0.578195 0.525475 0.694453
0.709529 0.534874 0.714168
0.830152 0.544472 0.727687
0.905913 0.5449 0.73608
0.14583 0.601343 0.704738
0.215244 0.602335 0.709422
0.311925 0.599435 0.709926
0.411963 0.602884 0.714961
0.5075 0.607172 0.721172
0.600702 0.614191 0.728405
0.72192 0.620859 0.743832
0.842252 0.628275 0.749111
0.921126 0.629084 0.753384
0.160632 0.687922 0.725505
0.218326 0.689372 0.729442
0.296315 0.688304 0.732418
0.429038 0.68896 0.74461
0.549386 0.694911 0.751659
0.641382 0.704982 0.759747
0.734981 0.713451 0.762463
0.849958 0.719448 0.769192
0.932143 0.713558 0.765591
0.170565 0.770016 0.738445
0.231006 0.771984 0.740871
0.299702 0.772976 0.742672
0.407568 0.778271 0.758358
0.575753 0.7823 0.768704
0.671168 0.790768 0.775326
0.758465 0.801266 0.780621
0.85156 0.813062 0.785229
0.939788 0.802762 0.770123
0.18027 0.837522 0.743648
0.242756 0.840711 0.745373
0.307225 0.845121 0.748043
0.378439 0.853574 0.753475
0.47541 0.870939 0.765576
0.599527 0.882383 0.773709
0.715785 0.89427 0.78175
0.824933 0.904356 0.783017
0.932097 0.909239 0.760388
0.0749676 0.270466 0.607904
0.129992 0.274907 0.613901
0.219867 0.285527 0.630625
0.33051 0.29572 0.655299
0.450858 0.304372 0.671351
0.572305 0.31548 0.692653
0.68748 0.328908 0.713924
0.771542 0.331609 0.724071
0.837919 0.333043 0.729778
0.0834363 0.303365 0.630076
0.139071 0.305394 0.631678
0.22826 0.311635 0.639536
0.334798 0.325231 0.662135
0.454002 0.334783 0.683513
0.576715 0.347189 0.704723
0.692958 0.362356 0.72665
0.783032 0.36849 0.738842
0.849561 0.370123 0.74461
0.0982376 0.357778 0.665599
0.156222 0.358526 0.66511
0.246937 0.359411 0.662913
0.347616 0.36997 0.678447
0.460563 0.382818 0.704967
0.584237 0.39472 0.7234
0.700801 0.409705 0.74493
0.798032 0.419608 0.759426
0.865354 0.421714 0.764599
0.120455 0.434882 0.707393
0.182162 0.434363 0.710948
0.273121 0.431662 0.708125
0.371984 0.436423 0.708507
0.473198 0.449592 0.732708
0.594675 0.459052 0.750591
0.712108 0.471763 0.768933
0.815747 0.483879 0.784253
0.885252 0.484993 0.791791
0.144274 0.52488 0.750835
0.210437 0.524163 0.753368
0.300389 0.519478 0.752438
0.396078 0.520897 0.758038
0.49836 0.526925 0.762448
0.605371 0.53727 0.788602
0.725582 0.54609 0.800473
0.835447 0.556924 0.817227
0.906264 0.559564 0.822507
0.151812 0.618936 0.794705
0.230991 0.619196 0.79794
0.32076 0.615198 0.796262
0.41445 0.615106 0.80032
0.518151 0.6177 0.808255
0.619821 0.624475 0.826673
0.735683 0.63154 0.836133
0.844068 0.640299 0.844434
0.92134 0.644755 0.849515
0.162783 0.706004 0.818372
0.221134 0.707362 0.824094
0.302358 0.705486 0.827863
0.411032 0.706813 0.832959
0.52166 0.712352 0.844388
0.633463 0.718547 0.855604
0.741222 0.723476 0.862791
0.849317 0.730556 0.870329
0.933059 0.73547 0.875639
0.174395 0.790173 0.834165
0.234791 0.791638 0.8383
0.301869 0.792081 0.842786
0.375616 0.795895 0.853086
0.502144 0.800824 0.861814
0.622415 0.807248 0.871855
0.741039 0.816007 0.883513
0.847929 0.823651 0.892439
0.938369 0.828779 0.897231
0.19472 0.853834 0.835035
0.258457 0.856474 0.838087
0.321096 0.860685 0.843336
0.39028 0.868162 0.852552
0.473747 0.881209 0.86807
0.587625 0.89221 0.880827
0.710201 0.901595 0.891676
0.827634 0.911162 0.901808
0.934783 0.920851 0.910979
