code/data/lut/33蓝绿亮色1.cube
TITLE "LD - Pacific Coast 1"
# Copyright (c) 2019 Lens Distortions, LLC. All Rights Reserved.
# LensDistortions.com
# ref-PC1
LUT_3D_SIZE 33
0.0138094 0.0136721 0.0136873
0.0200198 0.0158389 0.0158999
0.0294041 0.0185092 0.0182498
0.0419928 0.0216983 0.0209964
0.061738 0.0255741 0.0246128
0.0840467 0.0296178 0.0280613
0.111131 0.0349279 0.032166
0.143481 0.0401312 0.035996
0.187213 0.044892 0.0387579
0.239734 0.0482795 0.0395666
0.292866 0.0521553 0.0411383
0.336126 0.0579538 0.0443427
0.37351 0.0661479 0.0492256
0.406806 0.0738994 0.0538186
0.437766 0.0813001 0.0574655
0.46772 0.0886397 0.0612192
0.496071 0.0958877 0.065919
0.525429 0.103685 0.0705272
0.553903 0.111574 0.0747387
0.583154 0.119326 0.0801709
0.612284 0.126864 0.0850385
0.642115 0.134981 0.0904097
0.67187 0.142596 0.0960861
0.702266 0.150469 0.100603
0.732082 0.158038 0.105211
0.762036 0.165698 0.108766
0.792676 0.173098 0.111864
0.822232 0.179828 0.114488
0.852293 0.187106 0.116823
0.882094 0.193988 0.118334
0.911498 0.200351 0.119265
0.940749 0.206531 0.119646
0.963394 0.209094 0.119951
0.0183261 0.0252384 0.0209201
0.0267491 0.0288396 0.0221408
0.038819 0.0331579 0.024155
0.0566262 0.0371557 0.0268254
0.0774243 0.0405737 0.0300603
0.103319 0.0464637 0.0335546
0.132509 0.0523995 0.0374304
0.170291 0.0582589 0.0407568
0.216251 0.06215 0.041886
0.267231 0.0651408 0.041886
0.312428 0.0694133 0.0428931
0.348211 0.0760357 0.0464027
0.379599 0.0822614 0.0498817
0.409247 0.0887007 0.0533913
0.438727 0.0949111 0.0575875
0.468238 0.101808 0.0614023
0.497749 0.108766 0.0655833
0.527047 0.116014 0.0703136
0.556588 0.122698 0.0746166
0.58648 0.129992 0.0797284
0.61622 0.137102 0.0849165
0.646799 0.144579 0.0899672
0.676341 0.151843 0.0948348
0.706264 0.159335 0.0991379
0.736568 0.166857 0.102937
0.766461 0.174014 0.10631
0.796658 0.181201 0.109499
0.826368 0.188403 0.111803
0.856123 0.19498 0.11368
0.885847 0.201709 0.115312
0.914977 0.208209 0.116197
0.943847 0.214511 0.116442
0.965499 0.216831 0.117006
0.0206302 0.039826 0.0275273
0.0281224 0.0438087 0.0327001
0.0452277 0.0514839 0.0318151
0.0655985 0.0567178 0.0300603
0.0901656 0.0617227 0.0332952
0.116579 0.0680095 0.0375067
0.147829 0.0741741 0.0413825
0.186069 0.0790112 0.0432136
0.230365 0.0820935 0.0437018
0.276402 0.0844739 0.0439612
0.317449 0.0884871 0.045655
0.348852 0.0938735 0.0482185
0.379507 0.0988022 0.0517891
0.409796 0.104952 0.0561074
0.439826 0.110704 0.059617
0.469535 0.11722 0.063508
0.499138 0.12369 0.0682994
0.52932 0.130343 0.0724041
0.559442 0.136858 0.0775006
0.589456 0.143786 0.0822919
0.619471 0.150973 0.0876631
0.649439 0.158343 0.0924697
0.679088 0.165576 0.0968948
0.709148 0.172992 0.100664
0.73904 0.179995 0.104356
0.768872 0.187243 0.10779
0.7991 0.194171 0.11043
0.828626 0.200839 0.112734
0.858 0.207523 0.114488
0.887572 0.214145 0.11606
0.917067 0.22063 0.116945
0.945769 0.226978 0.116945
0.966613 0.228962 0.117327
0.0221256 0.0605173 0.0331426
0.0261845 0.064271 0.0287022
0.0396277 0.07364 0.0327916
0.0650492 0.0828717 0.0343633
0.0945907 0.0907912 0.0375677
0.122194 0.0961166 0.0406958
0.154192 0.100938 0.0432136
0.193149 0.104402 0.0453346
0.237537 0.105684 0.0458381
0.281453 0.106813 0.0460212
0.318791 0.109438 0.0475319
0.350408 0.113924 0.0506752
0.381445 0.118975 0.0547494
0.411582 0.124376 0.0585794
0.442176 0.130175 0.0626993
0.472419 0.135546 0.0674754
0.503059 0.141802 0.07187
0.532845 0.147875 0.076524
0.563165 0.15462 0.0812848
0.593103 0.161593 0.0863508
0.622492 0.168505 0.0907759
0.652491 0.175723 0.0953994
0.682292 0.182818 0.0991989
0.711894 0.189548 0.102998
0.741833 0.19649 0.10631
0.771786 0.203326 0.10901
0.801038 0.209903 0.111604
0.830961 0.216632 0.113619
0.860304 0.223438 0.115434
0.889723 0.229892 0.116625
0.918502 0.236103 0.116945
0.947143 0.242176 0.117327
0.967697 0.243793 0.117693
0.0239109 0.0882429 0.0424506
0.0258183 0.0914626 0.0336156
0.0374304 0.0981003 0.0375677
0.0590066 0.109712 0.0428931
0.0902724 0.118685 0.0442664
0.122042 0.126589 0.0460212
0.156771 0.130907 0.047837
0.19707 0.131548 0.047715
0.242725 0.130877 0.0471504
0.286549 0.13106 0.047715
0.323003 0.133516 0.0500649
0.355276 0.13753 0.0542
0.386114 0.141985 0.0585031
0.41706 0.146944 0.0630045
0.447105 0.152026 0.0675364
0.477485 0.1579 0.072221
0.507424 0.163699 0.0764019
0.537545 0.169818 0.0808576
0.566888 0.176287 0.0853437
0.596643 0.182818 0.0902724
0.626642 0.189303 0.0947738
0.655802 0.195972 0.098497
0.685649 0.20264 0.102388
0.715099 0.209491 0.10576
0.744686 0.215717 0.108522
0.773983 0.222446 0.111162
0.803861 0.229023 0.113298
0.833234 0.23537 0.11519
0.862181 0.241566 0.11632
0.89163 0.247684 0.116945
0.920455 0.253864 0.117388
0.949157 0.260014 0.11751
0.968475 0.261265 0.117693
0.026978 0.119707 0.0574655
0.0274205 0.122881 0.0432746
0.0367437 0.125872 0.0443427
0.0550546 0.137133 0.0499428
0.0839704 0.147112 0.0558633
0.116655 0.153719 0.0564736
0.153948 0.159335 0.0538796
0.198611 0.160678 0.0535744
0.247242 0.159091 0.0512398
0.29192 0.15903 0.0507973
0.328725 0.160876 0.0533913
0.360403 0.164416 0.0575875
0.391623 0.168444 0.062089
0.422293 0.173312 0.0669871
0.452659 0.178088 0.0712444
0.482353 0.183383 0.0758526
0.512291 0.188754 0.0805982
0.541451 0.194217 0.0850385
0.570901 0.200275 0.0894636
0.600702 0.20647 0.0940261
0.629923 0.212573 0.098024
0.659297 0.218433 0.101595
0.688777 0.224674 0.105333
0.717952 0.231144 0.108095
0.747631 0.237415 0.110796
0.776928 0.24329 0.113176
0.80621 0.249668 0.114992
0.835401 0.255726 0.116564
0.864775 0.261814 0.117891
0.893584 0.267597 0.118456
0.922316 0.273625 0.118959
0.95024 0.279469 0.118578
0.969482 0.280644 0.118959
0.030869 0.152773 0.0749371
0.0309911 0.153017 0.0600595
0.0370031 0.155612 0.0535744
0.0525216 0.164431 0.0581369
0.0775006 0.173877 0.0636912
0.108186 0.181659 0.0699626
0.145541 0.187442 0.0698405
0.193118 0.19118 0.0617227
0.24712 0.190463 0.0585031
0.294011 0.18967 0.0562295
0.330999 0.191455 0.0572824
0.363943 0.194614 0.060914
0.395743 0.19826 0.0653239
0.426581 0.202075 0.0698405
0.457115 0.20647 0.0745556
0.486595 0.21091 0.0793469
0.516548 0.215717 0.0842298
0.545724 0.22089 0.088716
0.575204 0.226047 0.0931563
0.604334 0.231754 0.0974136
0.633417 0.237171 0.101106
0.662638 0.242924 0.104234
0.691875 0.248737 0.107485
0.721294 0.25449 0.11043
0.750729 0.260334 0.112932
0.779583 0.266163 0.114992
0.809079 0.27187 0.116884
0.83801 0.277852 0.118517
0.86717 0.283696 0.119829
0.895766 0.289448 0.120394
0.924453 0.294942 0.120592
0.951675 0.30013 0.120394
0.970703 0.301411 0.120592
0.0337377 0.185077 0.0932326
0.0341802 0.184771 0.0783093
0.0355535 0.186603 0.0632639
0.0494392 0.19089 0.0659648
0.0712749 0.200992 0.0707103
0.0997177 0.209781 0.077348
0.133104 0.216449 0.0860609
0.181155 0.220508 0.0818036
0.238499 0.221408 0.0690929
0.291463 0.221958 0.0647593
0.330602 0.223423 0.0643931
0.364263 0.225849 0.0659648
0.396933 0.228946 0.0684215
0.429023 0.232197 0.0732128
0.459815 0.23592 0.0774395
0.49044 0.239841 0.0822309
0.520256 0.244221 0.0871595
0.549691 0.248615 0.0918441
0.578805 0.253315 0.0959029
0.607752 0.258274 0.100114
0.637018 0.263554 0.103304
0.666346 0.268772 0.106737
0.695491 0.274113 0.109682
0.724727 0.279591 0.112291
0.753414 0.284932 0.114687
0.782925 0.290181 0.117128
0.81181 0.295811 0.1187
0.840925 0.301228 0.120211
0.869978 0.306828 0.120958
0.898528 0.312108 0.121462
0.927123 0.317769 0.121904
0.953277 0.322423 0.121843
0.972351 0.323842 0.122087
0.0354314 0.216037 0.109895
0.0358129 0.21529 0.0961471
0.0361791 0.215503 0.078996
0.0458381 0.217853 0.0742046
0.0649729 0.227848 0.0776226
0.0912795 0.237324 0.0837262
0.122606 0.245457 0.0938735
0.166064 0.250202 0.101472
0.22417 0.251057 0.0914778
0.282185 0.251698 0.0775616
0.326619 0.255711 0.0742351
0.362799 0.258076 0.0740368
0.39675 0.260822 0.0748608
0.429129 0.263493 0.0771954
0.460853 0.266392 0.0807813
0.491981 0.269825 0.0850385
0.522347 0.273548 0.0899672
0.552605 0.277531 0.0940871
0.58201 0.281819 0.0984665
0.611551 0.286244 0.1019
0.640772 0.291051 0.105638
0.670054 0.295872 0.108766
0.699138 0.300557 0.111604
0.728069 0.30547 0.114488
0.757427 0.310399 0.117006
0.786572 0.315526 0.1187
0.815457 0.320684 0.120592
0.844572 0.325826 0.122087
0.872999 0.330922 0.122728
0.901762 0.336126 0.123659
0.929808 0.341573 0.123476
0.955245 0.345602 0.123751
0.974151 0.347021 0.123781
0.0361791 0.246708 0.124407
0.0364385 0.245853 0.112886
0.0368658 0.244923 0.0974136
0.0421454 0.246052 0.0829175
0.059556 0.254475 0.0855268
0.0839094 0.264118 0.0904707
0.11342 0.273671 0.100038
0.152895 0.279637 0.109834
0.206394 0.281544 0.112078
0.269017 0.281529 0.101167
0.317845 0.284184 0.0886549
0.357443 0.289281 0.0840772
0.394217 0.292638 0.0843061
0.427955 0.294942 0.0848402
0.4607 0.297536 0.0865339
0.492729 0.300679 0.0889754
0.524117 0.303777 0.0927749
0.554788 0.307515 0.0970474
0.584863 0.311055 0.100237
0.614542 0.314778 0.104356
0.643946 0.319066 0.107286
0.673854 0.323293 0.110674
0.702922 0.327764 0.113924
0.732265 0.332341 0.116564
0.761563 0.336934 0.118547
0.790585 0.341634 0.12076
0.819394 0.346273 0.122225
0.848173 0.350988 0.123507
0.876631 0.356023 0.124559
0.905287 0.361059 0.125261
0.933486 0.36614 0.125322
0.957824 0.369696 0.125444
0.976364 0.371008 0.125383
0.0370031 0.277058 0.138323
0.0371862 0.276402 0.127565
0.0373693 0.275853 0.114672
0.0384375 0.275349 0.0934768
0.0547494 0.280705 0.0947127
0.0772564 0.290593 0.0978408
0.105257 0.300618 0.104875
0.141787 0.307866 0.115999
0.192508 0.311208 0.121477
0.253376 0.310948 0.12079
0.307607 0.312886 0.110903
0.349279 0.317784 0.100038
0.388937 0.322652 0.0949721
0.425528 0.326696 0.0950942
0.459525 0.328893 0.0952163
0.492454 0.331456 0.0961471
0.524437 0.334432 0.0972915
0.555734 0.337606 0.100053
0.586679 0.340703 0.103532
0.617105 0.344305 0.106386
0.647517 0.34789 0.109911
0.677302 0.351736 0.113237
0.706859 0.355901 0.115618
0.736492 0.359686 0.118318
0.765347 0.363912 0.120394
0.794736 0.368261 0.122484
0.823545 0.372808 0.123842
0.852247 0.377478 0.124834
0.880796 0.382193 0.12575
0.909346 0.386847 0.126299
0.937118 0.391867 0.126741
0.960113 0.394903 0.12668
0.978393 0.396017 0.126619
0.0375677 0.30753 0.150469
0.0377508 0.306752 0.14168
0.037995 0.305684 0.129854
0.0384985 0.304158 0.110582
0.0509194 0.307439 0.102998
0.0726787 0.316976 0.105821
0.0986801 0.327153 0.110338
0.132631 0.335515 0.120058
0.180697 0.339757 0.128679
0.239948 0.340307 0.130419
0.295537 0.341741 0.130602
0.340017 0.345724 0.121706
0.380728 0.350759 0.111574
0.420096 0.355856 0.104997
0.457237 0.360494 0.104936
0.491341 0.362951 0.104692
0.524346 0.365179 0.104479
0.556527 0.36788 0.105135
0.587716 0.370916 0.10663
0.618891 0.373922 0.109728
0.649531 0.377218 0.112734
0.680156 0.380713 0.114992
0.710155 0.384237 0.117632
0.739818 0.388022 0.12015
0.769543 0.391928 0.122118
0.798856 0.396017 0.123598
0.827634 0.400168 0.125017
0.856443 0.40444 0.126177
0.885023 0.408789 0.126864
0.912932 0.413062 0.127184
0.940566 0.417899 0.127489
0.962768 0.42063 0.12781
0.981048 0.421622 0.127733
0.0390021 0.337179 0.161151
0.0390631 0.336568 0.153201
0.0390021 0.335576 0.143221
0.0394446 0.333898 0.126238
0.047715 0.334615 0.111711
0.0687419 0.342977 0.11397
0.0936446 0.35317 0.116533
0.125063 0.362264 0.124468
0.170428 0.367666 0.133608
0.228031 0.368917 0.137835
0.284993 0.370413 0.138705
0.329778 0.374273 0.139925
0.372061 0.378973 0.131426
0.412863 0.383963 0.121706
0.45098 0.388861 0.114458
0.488762 0.393698 0.11397
0.523079 0.396735 0.113359
0.556161 0.398962 0.112673
0.588373 0.401495 0.112932
0.619699 0.404334 0.113741
0.650843 0.40734 0.115434
0.68188 0.41033 0.117632
0.712428 0.413626 0.119692
0.742458 0.416846 0.121233
0.772671 0.420325 0.123278
0.801785 0.424033 0.124575
0.831464 0.427756 0.125811
0.860029 0.431846 0.126925
0.888563 0.435935 0.127611
0.916762 0.440208 0.128298
0.944472 0.444678 0.128435
0.96524 0.446784 0.128496
0.983658 0.44802 0.12874
0.0403296 0.366033 0.171695
0.0403906 0.365393 0.16408
0.0403296 0.364508 0.154498
0.0404517 0.362799 0.13991
0.0453346 0.362554 0.121859
0.066392 0.368612 0.122011
0.0901503 0.378668 0.123796
0.118944 0.388861 0.129305
0.1617 0.394995 0.137484
0.217136 0.397116 0.142412
0.274357 0.398535 0.144045
0.321019 0.402243 0.146777
0.362631 0.407279 0.147524
0.40412 0.411795 0.138857
0.444083 0.416556 0.129992
0.482094 0.421851 0.122759
0.519539 0.426368 0.121462
0.554589 0.429938 0.12079
0.587396 0.432273 0.119829
0.619638 0.434638 0.119768
0.651362 0.437263 0.119661
0.682567 0.440177 0.119753
0.713741 0.443122 0.121386
0.744427 0.446159 0.122896
0.774838 0.449393 0.124163
0.804959 0.452659 0.125612
0.83444 0.456245 0.126802
0.863188 0.459998 0.12755
0.892378 0.463722 0.128359
0.920333 0.467826 0.128664
0.947921 0.471885 0.128985
0.968139 0.473625 0.129305
0.986374 0.474479 0.128969
0.0414435 0.394614 0.180545
0.0415198 0.393866 0.173251
0.0414435 0.392798 0.164263
0.0414435 0.391119 0.150042
0.0436408 0.390585 0.130968
0.0641794 0.39443 0.129366
0.0872206 0.404105 0.131044
0.114748 0.414405 0.134676
0.154086 0.421775 0.140978
0.207568 0.424506 0.145327
0.265415 0.425925 0.148196
0.313359 0.42977 0.151049
0.354498 0.434607 0.154086
0.395056 0.439765 0.154025
0.436286 0.444251 0.145571
0.475105 0.449195 0.136599
0.512871 0.454185 0.129183
0.550256 0.459022 0.127672
0.585794 0.462989 0.127184
0.618723 0.465476 0.125856
0.651148 0.467658 0.125048
0.682963 0.470115 0.124071
0.714168 0.472831 0.123781
0.74522 0.47567 0.124346
0.776074 0.478523 0.125475
0.806302 0.481682 0.12636
0.836316 0.484855 0.126925
0.865904 0.488228 0.127901
0.894636 0.491722 0.12845
0.922881 0.495735 0.128649
0.95111 0.499474 0.128954
0.970382 0.500771 0.129015
0.988739 0.501945 0.128923
0.0420081 0.422583 0.187823
0.0420844 0.421836 0.181033
0.0421454 0.420722 0.172442
0.0420844 0.418921 0.158587
0.0423285 0.418097 0.13875
0.0623941 0.420615 0.136049
0.0853437 0.429435 0.137118
0.111574 0.439704 0.140154
0.148302 0.447837 0.143343
0.199573 0.451591 0.147433
0.257221 0.452873 0.149508
0.306081 0.456718 0.154269
0.347509 0.461753 0.15729
0.387839 0.467063 0.159762
0.427344 0.471931 0.159106
0.467826 0.476585 0.150225
0.506294 0.481636 0.141787
0.544198 0.486488 0.13489
0.580468 0.491463 0.132006
0.617044 0.496056 0.131746
0.650156 0.498543 0.130297
0.682445 0.50074 0.128893
0.714534 0.502968 0.12781
0.745846 0.505562 0.127428
0.776822 0.508354 0.12723
0.807309 0.511193 0.126864
0.837873 0.514061 0.127947
0.867445 0.517296 0.128115
0.896727 0.520485 0.128176
0.925719 0.524071 0.129198
0.953201 0.52755 0.128954
0.972396 0.528817 0.129183
0.99086 0.529503 0.128634
0.041825 0.44979 0.193698
0.0417639 0.448981 0.18677
0.0419471 0.448051 0.178683
0.041886 0.446326 0.165576
0.0420081 0.446448 0.146136
0.0610971 0.447074 0.142214
0.0840925 0.454612 0.142107
0.109331 0.464836 0.144396
0.144488 0.473426 0.146838
0.193332 0.477852 0.148989
0.249973 0.479576 0.15053
0.299962 0.483101 0.154818
0.341024 0.488609 0.159396
0.381247 0.493812 0.162768
0.420279 0.499184 0.1635
0.459815 0.504173 0.162585
0.499214 0.509026 0.153201
0.537209 0.513695 0.145205
0.574685 0.518654 0.13814
0.611093 0.52369 0.135378
0.647395 0.528023 0.13518
0.681361 0.531197 0.133852
0.713558 0.533425 0.131823
0.745617 0.535592 0.130312
0.777066 0.537942 0.129488
0.807782 0.540551 0.128313
0.838239 0.54345 0.127871
0.868467 0.546304 0.128115
0.898116 0.549386 0.128176
0.926879 0.552758 0.128237
0.955535 0.556161 0.128496
0.97438 0.556909 0.128862
0.990875 0.557778 0.127703
0.0411994 0.476493 0.198779
0.0410773 0.475563 0.19147
0.0410163 0.474342 0.183001
0.0409552 0.473243 0.170687
0.0410773 0.474693 0.151278
0.0603647 0.47425 0.147448
0.0834058 0.479866 0.147036
0.107942 0.48957 0.148363
0.141314 0.498314 0.149325
0.187823 0.503899 0.150469
0.244373 0.505531 0.151156
0.294133 0.509194 0.154208
0.335378 0.514656 0.159655
0.375051 0.520562 0.163439
0.41416 0.525811 0.165103
0.452964 0.531243 0.165942
0.49189 0.535897 0.164202
0.530419 0.540795 0.15494
0.56849 0.545678 0.147311
0.604929 0.550591 0.13991
0.64184 0.555489 0.136858
0.677882 0.560189 0.136599
0.712383 0.563668 0.135988
0.744854 0.565911 0.134249
0.776425 0.568032 0.132311
0.808026 0.570291 0.1308
0.83856 0.572824 0.129396
0.868894 0.575723 0.128801
0.898512 0.578531 0.128267
0.927977 0.581445 0.128267
0.956298 0.584726 0.128145
0.975967 0.585733 0.128267
0.990097 0.586313 0.125994
0.039765 0.502663 0.201526
0.039765 0.501671 0.194476
0.0394446 0.500679 0.186084
0.0394446 0.500847 0.173816
0.0395666 0.5028 0.15462
0.0597391 0.501869 0.151476
0.0827192 0.504936 0.151278
0.107317 0.514229 0.1514
0.139818 0.522652 0.152331
0.184115 0.528923 0.152331
0.238575 0.531533 0.151217
0.289158 0.534966 0.15317
0.330114 0.54049 0.157977
0.369619 0.546548 0.162768
0.408316 0.552087 0.165225
0.447105 0.557778 0.16614
0.485237 0.562783 0.166339
0.523629 0.567773 0.16408
0.5617 0.572549 0.155001
0.599176 0.577417 0.147372
0.635813 0.582452 0.140948
0.672602 0.587152 0.137575
0.707958 0.591775 0.136934
0.74345 0.596048 0.137362
0.775738 0.59823 0.135241
0.807187 0.600259 0.133181
0.838407 0.602502 0.13167
0.869154 0.605081 0.130114
0.899031 0.607889 0.128908
0.92842 0.610956 0.128328
0.957259 0.613993 0.127764
0.976928 0.614679 0.127504
0.989395 0.615381 0.125612
0.0375067 0.528405 0.203281
0.0373693 0.52752 0.196277
0.0373083 0.528054 0.188373
0.0371862 0.529259 0.175723
0.03888 0.530861 0.157733
0.0594949 0.529641 0.1552
0.0825971 0.53051 0.154849
0.106752 0.538811 0.154314
0.13817 0.547265 0.155123
0.181125 0.553674 0.153628
0.234028 0.556848 0.151095
0.284474 0.560342 0.151843
0.325567 0.565927 0.155627
0.364263 0.571923 0.160021
0.403235 0.578027 0.163729
0.441291 0.583658 0.164874
0.4795 0.589197 0.165347
0.51754 0.594461 0.164935
0.554971 0.599329 0.161715
0.592767 0.604166 0.153017
0.629908 0.609155 0.145892
0.666392 0.613733 0.13991
0.70277 0.618585 0.136522
0.738323 0.623316 0.136034
0.773709 0.627619 0.136812
0.806287 0.630365 0.135561
0.837629 0.632547 0.133379
0.868421 0.634913 0.131487
0.899153 0.63743 0.130007
0.92874 0.640223 0.128847
0.95761 0.64329 0.127718
0.977996 0.644297 0.127306
0.988907 0.644785 0.125902
0.0346227 0.555062 0.203845
0.0344854 0.555642 0.197467
0.0344854 0.556512 0.189181
0.0344854 0.557656 0.176226
0.038941 0.558556 0.160281
0.0598611 0.557351 0.157763
0.0826581 0.55729 0.15729
0.106294 0.563348 0.156558
0.137301 0.571435 0.156359
0.178958 0.577783 0.155001
0.230396 0.581506 0.151583
0.28043 0.585504 0.150225
0.321187 0.591196 0.152636
0.359792 0.597391 0.156466
0.398535 0.603601 0.160281
0.436072 0.609445 0.162219
0.474189 0.615106 0.163012
0.511818 0.620447 0.162387
0.549294 0.625788 0.161135
0.586465 0.630915 0.158099
0.623743 0.635493 0.149233
0.6607 0.640513 0.142657
0.697337 0.645365 0.137087
0.73283 0.650019 0.13341
0.768826 0.654612 0.133562
0.803388 0.659449 0.134859
0.836912 0.662867 0.135515
0.867887 0.665095 0.133181
0.898573 0.667475 0.13138
0.928588 0.670024 0.129641
0.957961 0.672892 0.128801
0.978897 0.673777 0.128038
0.988479 0.674449 0.126986
0.0312963 0.583017 0.20441
0.0312352 0.583749 0.197467
0.0310521 0.584604 0.1888
0.0310521 0.585916 0.174487
0.0387579 0.586236 0.161456
0.0600595 0.584817 0.15996
0.0828412 0.58468 0.159091
0.106004 0.5879 0.158846
0.136736 0.595514 0.157534
0.177615 0.601709 0.156054
0.227588 0.60557 0.152331
0.276783 0.609918 0.149416
0.317662 0.615869 0.149981
0.355398 0.622324 0.152331
0.393683 0.62884 0.155734
0.431586 0.634806 0.157855
0.468833 0.64094 0.159167
0.506432 0.646479 0.158373
0.543664 0.651957 0.157534
0.580728 0.657374 0.155673
0.617624 0.662165 0.151781
0.65507 0.666972 0.143206
0.691646 0.672084 0.136919
0.727703 0.676661 0.132021
0.763394 0.681651 0.128328
0.799054 0.686213 0.129213
0.833112 0.690822 0.131258
0.866865 0.695048 0.13431
0.89778 0.697322 0.132555
0.927901 0.699825 0.130831
0.957244 0.702556 0.129229
0.979065 0.703441 0.128603
0.987991 0.704173 0.129625
0.0280308 0.611399 0.203784
0.0280308 0.612009 0.196216
0.0278172 0.612818 0.186648
0.0275273 0.614008 0.171252
0.0385595 0.613764 0.162707
0.0604257 0.612268 0.161074
0.0830396 0.611902 0.160311
0.106188 0.61326 0.160449
0.136538 0.619257 0.158663
0.176364 0.625559 0.156664
0.225162 0.629404 0.152819
0.273762 0.633829 0.149248
0.314351 0.640116 0.148287
0.351812 0.646983 0.14905
0.389273 0.653803 0.15079
0.426627 0.660075 0.152407
0.464057 0.6663 0.153643
0.501091 0.672145 0.153658
0.538476 0.677836 0.151919
0.575067 0.683421 0.149737
0.612085 0.688548 0.147646
0.64921 0.693706 0.142824
0.685725 0.698283 0.13434
0.72221 0.703258 0.129168
0.758267 0.708339 0.123995
0.793774 0.713008 0.120882
0.82884 0.717647 0.121798
0.862989 0.722362 0.126146
0.896361 0.726772 0.132891
0.927138 0.72958 0.132555
0.956725 0.732052 0.131167
0.979706 0.733425 0.130159
0.9879 0.73373 0.132647
0.0255436 0.639673 0.201938
0.0252384 0.640299 0.193835
0.0252079 0.641047 0.183444
0.0255283 0.6421 0.166201
0.0391546 0.641093 0.163577
0.0608225 0.639735 0.161944
0.0834669 0.639368 0.161242
0.106432 0.639841 0.161181
0.136477 0.643153 0.159564
0.175189 0.649149 0.156924
0.222812 0.653117 0.152346
0.27097 0.657465 0.148592
0.311498 0.663615 0.147066
0.348302 0.670756 0.147127
0.385367 0.677989 0.14725
0.422141 0.68455 0.147311
0.459022 0.69131 0.147845
0.496239 0.697261 0.147829
0.533181 0.703243 0.146777
0.569955 0.708934 0.144472
0.606577 0.714473 0.142229
0.64358 0.719722 0.139818
0.680003 0.724636 0.135317
0.716625 0.729335 0.129168
0.752789 0.734371 0.124559
0.78822 0.739269 0.119631
0.824018 0.744167 0.116136
0.858534 0.749249 0.115419
0.892683 0.753674 0.119066
0.925093 0.758434 0.128847
0.956054 0.761807 0.133684
0.97998 0.763043 0.132753
0.987808 0.763409 0.135729
0.0226139 0.667689 0.199908
0.0225834 0.668254 0.190845
0.0218967 0.668986 0.178943
0.0246586 0.669551 0.165331
0.0391394 0.668116 0.163333
0.0605631 0.666636 0.161883
0.0842908 0.666529 0.161486
0.106859 0.666987 0.161517
0.136477 0.667521 0.159945
0.174182 0.672648 0.156695
0.221012 0.676555 0.151904
0.26891 0.680812 0.147662
0.309087 0.686931 0.145815
0.345373 0.694377 0.145403
0.381415 0.701503 0.145098
0.41796 0.708492 0.144732
0.454734 0.715175 0.144762
0.491249 0.721614 0.144594
0.528283 0.727825 0.144091
0.564858 0.733577 0.142184
0.601099 0.739559 0.140352
0.638117 0.745037 0.138247
0.674342 0.750027 0.135943
0.710872 0.755169 0.13193
0.746975 0.759945 0.126497
0.782589 0.76492 0.122194
0.818097 0.770077 0.118608
0.853269 0.775143 0.115694
0.887663 0.780133 0.114122
0.921935 0.785016 0.113893
0.953658 0.789624 0.12398
0.979873 0.792477 0.134325
0.987686 0.793164 0.139467
0.019379 0.695583 0.196597
0.0193637 0.696193 0.186221
0.0191653 0.696941 0.172381
0.0250858 0.696498 0.164324
0.0398871 0.695338 0.16318
0.0609445 0.693843 0.161547
0.0843519 0.693416 0.160632
0.107042 0.694087 0.160891
0.136187 0.693782 0.15964
0.17261 0.69604 0.155947
0.218906 0.699809 0.150698
0.266026 0.704173 0.146426
0.306172 0.71017 0.144183
0.342214 0.717693 0.143496
0.378225 0.724727 0.142947
0.414084 0.73196 0.142382
0.450553 0.738872 0.142184
0.486931 0.745357 0.141894
0.523674 0.751888 0.141665
0.559884 0.758053 0.14052
0.596094 0.764065 0.138796
0.632456 0.769833 0.136934
0.669093 0.775158 0.134813
0.705058 0.780591 0.132555
0.74139 0.785367 0.129
0.777249 0.790402 0.124239
0.812726 0.795621 0.121691
0.847593 0.800504 0.119036
0.882338 0.805722 0.116701
0.916671 0.810803 0.116426
0.949706 0.815839 0.114244
0.978775 0.819821 0.116762
0.987869 0.821546 0.134081
0.0165866 0.723171 0.192462
0.0166476 0.723857 0.180972
0.0170748 0.724666 0.164828
0.0259556 0.723476 0.16321
0.0404059 0.722118 0.161959
0.0613107 0.720943 0.160754
0.0842756 0.720455 0.159701
0.106828 0.720943 0.159716
0.136004 0.720699 0.158602
0.171466 0.719707 0.155032
0.216892 0.723079 0.149828
0.263325 0.727275 0.145495
0.303746 0.733166 0.142947
0.339437 0.740688 0.142
0.374823 0.747951 0.141192
0.410849 0.755245 0.140688
0.446906 0.762219 0.140078
0.482658 0.768933 0.139742
0.519158 0.775692 0.138979
0.555276 0.782025 0.138598
