code/data/lut/33蓝绿亮色2.cube
TITLE "LD - Pacific Coast 2"
# Copyright (c) 2019 Lens Distortions, LLC. All Rights Reserved.
# LensDistortions.com
# ref-PC1
LUT_3D_SIZE 33
0.0138094 0.0136721 0.0136873
0.0200198 0.0158389 0.0158999
0.0294652 0.0185092 0.0182498
0.042298 0.0216983 0.0209354
0.0632029 0.0253605 0.0245518
0.0850843 0.029572 0.0280613
0.109758 0.0351873 0.0324254
0.138872 0.0410315 0.0366827
0.179507 0.0465248 0.0400702
0.229206 0.0508583 0.041825
0.279805 0.0558022 0.0441444
0.319753 0.062089 0.0476539
0.353262 0.0709087 0.05243
0.382452 0.0784161 0.056611
0.409293 0.0852369 0.0593729
0.434989 0.0914473 0.0622721
0.460014 0.0979019 0.0661631
0.486381 0.104601 0.0703441
0.512383 0.111086 0.0739452
0.539315 0.117418 0.0787976
0.56669 0.123552 0.0832227
0.595239 0.12987 0.0882887
0.62417 0.135546 0.0935225
0.653574 0.141726 0.0978408
0.68246 0.147433 0.102235
0.712047 0.153201 0.104906
0.742519 0.158648 0.10724
0.772442 0.163851 0.109071
0.803281 0.168917 0.110552
0.834379 0.174014 0.111162
0.865629 0.178332 0.111101
0.897749 0.182589 0.11043
0.922957 0.183597 0.109804
0.0183261 0.0252384 0.0209201
0.0267491 0.0288396 0.0221408
0.0389868 0.0331731 0.024155
0.0576333 0.0369879 0.0268406
0.0787518 0.0404517 0.0299992
0.103258 0.0468452 0.0337377
0.129625 0.0534524 0.0381323
0.164782 0.0604868 0.0422065
0.207767 0.0652781 0.0439612
0.255711 0.0691386 0.0443427
0.297139 0.0738079 0.0454566
0.328817 0.080705 0.0489357
0.356283 0.0869917 0.051957
0.381659 0.0922713 0.0547494
0.407553 0.0980697 0.05832
0.433967 0.103624 0.0616007
0.460548 0.109453 0.0652781
0.486946 0.115419 0.0698711
0.514519 0.121187 0.0736248
0.542214 0.126558 0.0781262
0.570596 0.132219 0.0830396
0.599741 0.137926 0.0878462
0.62858 0.143465 0.0922713
0.657511 0.149233 0.0964065
0.687083 0.154879 0.0999008
0.716503 0.160281 0.102449
0.7467 0.165515 0.105089
0.776806 0.170947 0.106676
0.807324 0.175769 0.107729
0.838437 0.180957 0.1084
0.869581 0.185412 0.108339
0.901473 0.189654 0.107546
0.92546 0.190524 0.107179
0.0206455 0.0398871 0.0274662
0.0281376 0.0438697 0.032639
0.0453346 0.051606 0.0316167
0.0670787 0.0568399 0.0299992
0.0915999 0.0622721 0.0334173
0.11606 0.0695048 0.0381323
0.144183 0.0765393 0.0425116
0.179126 0.0821393 0.0447089
0.219638 0.0859541 0.0453956
0.262135 0.0886091 0.045655
0.299077 0.0921187 0.0473487
0.326589 0.0975052 0.049546
0.353246 0.102037 0.0526589
0.380453 0.107134 0.0565957
0.406577 0.112016 0.059678
0.433814 0.11754 0.0631418
0.460822 0.122911 0.067689
0.488396 0.127962 0.0715496
0.51696 0.133349 0.0765087
0.545144 0.138369 0.0808576
0.5738 0.143969 0.0859083
0.602304 0.149599 0.0904097
0.631281 0.155062 0.0945296
0.660639 0.160708 0.0980392
0.689693 0.16614 0.101259
0.71928 0.171756 0.104112
0.749447 0.176913 0.106126
0.779507 0.182055 0.107607
0.809644 0.18703 0.108522
0.840589 0.191897 0.109194
0.872251 0.196399 0.109071
0.903914 0.200534 0.108095
0.927367 0.20116 0.107607
0.0219272 0.0608835 0.0328222
0.0260014 0.0648356 0.0285191
0.0395056 0.0746166 0.0324712
0.0663157 0.0841688 0.0343023
0.0958114 0.0928359 0.0376898
0.120516 0.0987716 0.0411994
0.148547 0.104143 0.0439002
0.183841 0.107744 0.0462196
0.22475 0.10927 0.0469062
0.264759 0.110018 0.0470283
0.298222 0.111955 0.0482795
0.325811 0.115694 0.0511788
0.353033 0.119905 0.0549325
0.380621 0.124743 0.0585031
0.408026 0.128771 0.0623331
0.436011 0.133547 0.0669871
0.464088 0.138308 0.0713512
0.492226 0.142916 0.0757305
0.520424 0.148196 0.0802472
0.548745 0.153567 0.0849775
0.576928 0.158724 0.0892195
0.605631 0.164202 0.0935225
0.634806 0.169879 0.0971542
0.663539 0.175235 0.100725
0.692775 0.180667 0.103243
0.722332 0.186023 0.105394
0.751888 0.191028 0.107301
0.782284 0.196094 0.108583
0.812604 0.201038 0.10956
0.843397 0.205676 0.109865
0.874327 0.21004 0.109255
0.906081 0.214206 0.108522
0.929213 0.214511 0.108034
0.0238346 0.089662 0.0422675
0.0256962 0.0929732 0.0335546
0.0377508 0.100206 0.0377508
0.0604257 0.111788 0.0432746
0.0919356 0.120226 0.0444648
0.120256 0.128389 0.0464637
0.150118 0.132753 0.0483406
0.186267 0.133227 0.0482795
0.227665 0.131868 0.0475929
0.26775 0.131579 0.0480964
0.30074 0.133532 0.05037
0.329412 0.136324 0.0543832
0.357198 0.140063 0.0585031
0.385092 0.143786 0.0628824
0.412833 0.147814 0.0673686
0.440452 0.152209 0.0718547
0.468284 0.157015 0.0762951
0.496513 0.161517 0.0802319
0.524269 0.166613 0.084535
0.55227 0.171695 0.0892805
0.580896 0.176898 0.0934005
0.609125 0.182025 0.09691
0.638163 0.187137 0.100664
0.666758 0.192538 0.103304
0.695872 0.197543 0.105638
0.725078 0.202976 0.107607
0.754971 0.207736 0.10901
0.784863 0.21265 0.110109
0.814939 0.217319 0.110491
0.845869 0.22182 0.110246
0.877073 0.226291 0.109743
0.909072 0.230396 0.108827
0.930846 0.230396 0.108156
0.0276036 0.121996 0.0585031
0.0280919 0.1252 0.0441444
0.0376287 0.127977 0.0452125
0.0567178 0.138323 0.0508583
0.0865949 0.1467 0.0564736
0.115694 0.152468 0.0570382
0.147341 0.157473 0.0543832
0.187228 0.158282 0.054078
0.231617 0.156298 0.051667
0.272602 0.155337 0.0511788
0.305562 0.156649 0.0536965
0.334234 0.159289 0.0577707
0.362142 0.162493 0.062211
0.38996 0.166278 0.0669261
0.417823 0.170001 0.0716106
0.445151 0.174121 0.0756695
0.472969 0.178668 0.0803693
0.50042 0.182757 0.0846571
0.528115 0.187518 0.0888991
0.556313 0.192157 0.0932784
0.584344 0.197177 0.09691
0.612879 0.201923 0.10042
0.641596 0.206897 0.103655
0.670024 0.212024 0.10576
0.699229 0.21677 0.107912
0.728252 0.221515 0.109621
0.757702 0.226474 0.110674
0.787732 0.231144 0.111543
0.81825 0.235676 0.112108
0.848661 0.239765 0.111803
0.879881 0.243977 0.111299
0.91104 0.247868 0.109987
0.93283 0.247868 0.109377
0.0322271 0.153384 0.0774395
0.0324254 0.153765 0.062089
0.0386358 0.156054 0.0554208
0.0546273 0.163409 0.0598001
0.080354 0.16994 0.0646372
0.108263 0.176043 0.0704051
0.13994 0.181338 0.0703899
0.181888 0.184283 0.0622721
0.231403 0.183185 0.0589456
0.27425 0.181903 0.0566567
0.307607 0.183124 0.0576486
0.337362 0.185412 0.0612192
0.365927 0.188251 0.0655985
0.393973 0.191333 0.0703288
0.421927 0.194568 0.0749676
0.449165 0.198245 0.0794842
0.477104 0.202197 0.0842908
0.504509 0.206287 0.0885939
0.53225 0.210346 0.0928969
0.560037 0.214786 0.096849
0.588006 0.218982 0.100481
0.616495 0.22356 0.103288
0.644785 0.228214 0.105699
0.673564 0.232883 0.108095
0.702449 0.237476 0.109987
0.731411 0.241993 0.111421
0.761181 0.246448 0.112612
0.79089 0.250965 0.113558
0.821256 0.255238 0.114061
0.85156 0.259464 0.11368
0.882963 0.26331 0.112932
0.913451 0.266728 0.111666
0.93521 0.26685 0.11104
0.0354314 0.182025 0.0972152
0.035996 0.182071 0.0815137
0.0375067 0.183871 0.0657359
0.0514229 0.18645 0.0678874
0.0738231 0.193484 0.0720378
0.100725 0.200381 0.078172
0.128557 0.20618 0.0866865
0.170809 0.209735 0.0827344
0.223163 0.210269 0.0697032
0.271656 0.209857 0.0653544
0.307012 0.211032 0.0648966
0.337484 0.212772 0.0664225
0.366903 0.215381 0.0691997
0.396109 0.217716 0.073579
0.424567 0.220706 0.0778058
0.452766 0.223743 0.0825971
0.480598 0.227222 0.0874037
0.508202 0.230701 0.0919661
0.536004 0.234501 0.0958419
0.563729 0.238346 0.099855
0.591745 0.242496 0.102846
0.619974 0.246693 0.105516
0.648615 0.250965 0.107912
0.677226 0.255238 0.109926
0.705837 0.259525 0.111727
0.735348 0.263676 0.113558
0.764462 0.268025 0.114565
0.794507 0.272251 0.115251
0.824857 0.276417 0.115251
0.855268 0.28014 0.114931
0.88661 0.284062 0.114366
0.916091 0.287037 0.113237
0.937972 0.287282 0.112612
0.0370642 0.208484 0.114336
0.0374304 0.208026 0.100099
0.0379339 0.208606 0.0821241
0.047715 0.210071 0.0763409
0.0674144 0.216968 0.0790875
0.0927749 0.224186 0.0848402
0.11902 0.23122 0.0952163
0.156542 0.23537 0.102861
0.209232 0.235676 0.0929427
0.262745 0.236088 0.0786145
0.302907 0.23917 0.0745556
0.33579 0.241276 0.0754711
0.366354 0.243183 0.0756085
0.396094 0.245319 0.0778668
0.425391 0.247745 0.0815442
0.454185 0.250401 0.0857862
0.482628 0.25333 0.0905318
0.511116 0.256413 0.0945296
0.539086 0.259831 0.0986648
0.567468 0.263371 0.10193
0.59556 0.267216 0.104921
0.623972 0.270939 0.107546
0.652552 0.274861 0.109804
0.680964 0.27866 0.112169
0.710079 0.282628 0.114122
0.739269 0.286671 0.115251
0.768719 0.2907 0.116442
0.798856 0.294514 0.117189
0.828687 0.298314 0.117067
0.859434 0.301915 0.117128
0.890532 0.305699 0.116258
0.919188 0.308263 0.115312
0.940948 0.308446 0.114626
0.0375677 0.234806 0.12813
0.0378119 0.234241 0.116854
0.0383764 0.233677 0.101228
0.0437781 0.23447 0.0855268
0.0615396 0.240436 0.0874647
0.0854658 0.247761 0.0919051
0.110964 0.255924 0.10161
0.144396 0.261311 0.111635
0.192523 0.262684 0.113817
0.250095 0.262013 0.102937
0.29456 0.264378 0.0902113
0.330419 0.268742 0.0854353
0.363668 0.271672 0.0856031
0.394858 0.273457 0.0860914
0.425132 0.275517 0.0875257
0.45478 0.277943 0.0898451
0.484352 0.280522 0.0935225
0.513237 0.28336 0.0976577
0.542199 0.286244 0.100603
0.57052 0.289021 0.104051
0.598978 0.292546 0.106615
0.628077 0.295933 0.109438
0.656596 0.299474 0.112169
0.68545 0.303227 0.114244
0.714611 0.306813 0.115816
0.743786 0.310491 0.117449
0.773358 0.314046 0.118395
0.803189 0.317586 0.11902
0.833249 0.321309 0.119463
0.864118 0.324895 0.119203
0.895232 0.328374 0.118395
0.922911 0.33048 0.11751
0.94435 0.330556 0.116564
0.0381933 0.261158 0.141115
0.0384375 0.260578 0.130877
0.0386358 0.260136 0.118196
0.039826 0.259937 0.0967117
0.0564126 0.263523 0.0971542
0.0788586 0.270863 0.0995346
0.103502 0.279789 0.106508
0.134051 0.286259 0.11754
0.179217 0.289067 0.122438
0.235416 0.288319 0.121981
0.284993 0.289723 0.112184
0.322759 0.294194 0.101671
0.358587 0.298314 0.0965286
0.39234 0.301915 0.0965286
0.423911 0.3037 0.0965286
0.454505 0.305501 0.0972152
0.484672 0.307866 0.0982223
0.51429 0.310521 0.100801
0.543999 0.313039 0.103792
0.573327 0.315908 0.106371
0.602655 0.318761 0.109194
0.6318 0.321859 0.111986
0.660822 0.325216 0.114061
0.690089 0.328252 0.11632
0.718914 0.331548 0.117952
0.748409 0.334951 0.119646
0.778058 0.338415 0.120333
0.808011 0.341878 0.120699
0.838178 0.345357 0.1205
0.869062 0.348638 0.120195
0.90013 0.352041 0.11986
0.926314 0.35378 0.118608
0.947662 0.353719 0.117815
0.0385595 0.287663 0.151522
0.0387579 0.287098 0.143587
0.0390021 0.286336 0.132525
0.0396277 0.285115 0.113817
0.0522774 0.287236 0.105623
0.0737011 0.294331 0.107454
0.0974746 0.303151 0.111635
0.125704 0.310842 0.121523
0.168231 0.314595 0.129488
0.222553 0.314565 0.130907
0.273457 0.315557 0.130709
0.313893 0.319203 0.122454
0.350988 0.323842 0.112566
0.387182 0.328283 0.106249
0.421607 0.332128 0.106065
0.453437 0.334234 0.105623
0.484581 0.33611 0.105623
0.515114 0.338094 0.10573
0.545037 0.340551 0.10692
0.575128 0.34284 0.109438
0.604837 0.345602 0.111986
0.634806 0.348318 0.113741
0.664195 0.351171 0.116197
0.69366 0.354223 0.118227
0.7234 0.357259 0.119539
0.753124 0.360494 0.120485
0.782696 0.363729 0.121202
0.812848 0.366964 0.121691
0.843214 0.370062 0.12163
0.873625 0.373114 0.121065
0.904753 0.37641 0.120394
0.930129 0.377905 0.119722
0.951705 0.377783 0.118853
0.039765 0.313924 0.160159
0.039826 0.313375 0.153262
0.039826 0.31249 0.144457
0.0403296 0.310964 0.128252
0.0487678 0.311254 0.113924
0.0703593 0.317464 0.115206
0.0928664 0.326268 0.117723
0.119081 0.334737 0.125078
0.158785 0.339651 0.133852
0.211337 0.340505 0.137423
0.263737 0.341543 0.137713
0.304387 0.344945 0.138796
0.342733 0.349248 0.131243
0.380087 0.353628 0.122194
0.415656 0.358099 0.115145
0.450919 0.362325 0.114549
0.483238 0.364874 0.113725
0.514839 0.366552 0.113161
0.545785 0.368688 0.112795
0.576074 0.370977 0.113359
0.606332 0.373465 0.114748
0.636835 0.375814 0.116701
0.666819 0.378592 0.118456
0.696727 0.38114 0.11931
0.726955 0.383871 0.12076
0.75671 0.386786 0.121508
0.787152 0.389639 0.121996
0.817212 0.392676 0.122423
0.847593 0.395651 0.122362
0.878553 0.398611 0.122179
0.90988 0.401526 0.121324
0.933867 0.402457 0.120516
0.955444 0.402594 0.119905
0.0408789 0.339513 0.168627
0.0409552 0.339025 0.162142
0.0408789 0.338293 0.153826
0.0410163 0.336706 0.140764
0.0460212 0.336156 0.123613
0.0675517 0.340383 0.122316
0.0893416 0.349081 0.123934
0.113359 0.358404 0.129427
0.150469 0.364309 0.137163
0.2009 0.36611 0.141375
0.25362 0.367102 0.141863
0.296223 0.370474 0.144366
0.333913 0.375189 0.145144
0.371954 0.379294 0.137484
0.409079 0.383719 0.129549
0.444602 0.388281 0.122759
0.479912 0.392401 0.121462
0.513298 0.395499 0.120592
0.544884 0.39736 0.119402
0.57615 0.399222 0.119142
0.607019 0.401419 0.119081
0.63772 0.403784 0.119066
0.66836 0.406165 0.12015
0.698985 0.408606 0.120867
0.729458 0.411139 0.121752
0.760204 0.413687 0.122484
0.790707 0.416419 0.123049
0.821042 0.419196 0.12311
0.852354 0.421805 0.123171
0.883207 0.424659 0.122606
0.914519 0.427268 0.121935
0.937957 0.427878 0.121447
0.959579 0.427695 0.120333
0.041825 0.365057 0.175601
0.041825 0.364294 0.169314
0.0417639 0.363287 0.161654
0.041825 0.36173 0.149294
0.0440223 0.361288 0.131899
0.0650339 0.3635 0.129396
0.0862898 0.371862 0.130556
0.10927 0.381735 0.134051
0.143221 0.388663 0.140047
0.19176 0.391211 0.143648
0.245197 0.392264 0.145449
0.288975 0.395911 0.148013
0.326329 0.400381 0.1505
0.363378 0.405234 0.150423
0.401679 0.409445 0.143099
0.437827 0.413703 0.135103
0.47361 0.418372 0.12842
0.509133 0.422782 0.126864
0.543236 0.426078 0.126192
0.57528 0.428122 0.124727
0.606836 0.429984 0.123659
0.638254 0.431891 0.123049
0.669078 0.434165 0.122164
0.699962 0.436408 0.122148
0.731136 0.438727 0.122774
0.762005 0.441138 0.123156
0.793194 0.443503 0.123156
0.82446 0.445914 0.123461
0.855436 0.448524 0.123323
0.886748 0.451194 0.122637
0.918853 0.453559 0.121935
0.941421 0.453788 0.121187
0.963195 0.453849 0.1205
0.0421454 0.390341 0.181155
0.0422065 0.389593 0.175357
0.0422675 0.388586 0.168002
0.0421454 0.386908 0.156176
0.0423896 0.386191 0.138689
0.0629435 0.38732 0.135256
0.0842298 0.394965 0.135668
0.106126 0.40473 0.138735
0.13756 0.412436 0.141787
0.183917 0.415991 0.145205
0.237385 0.417182 0.146441
0.282017 0.420722 0.150408
0.319722 0.42562 0.153094
0.356542 0.43064 0.1552
0.393194 0.435233 0.154528
0.430961 0.439506 0.146822
0.467216 0.44416 0.139223
0.503212 0.448493 0.13286
0.53817 0.452949 0.129992
0.573617 0.457038 0.129931
0.605905 0.459083 0.12842
0.637888 0.461006 0.127047
0.66952 0.462806 0.125841
0.700877 0.464927 0.125032
0.732067 0.467018 0.124529
0.763409 0.469368 0.124346
0.795148 0.471443 0.124529
0.826505 0.473823 0.124163
0.858228 0.476112 0.123522
0.890455 0.47834 0.123217
0.922057 0.480644 0.122087
0.944381 0.480751 0.121584
0.966461 0.480385 0.1205
0.0416419 0.415076 0.185534
0.0415808 0.414267 0.179675
0.0417639 0.413382 0.172808
0.0417029 0.411795 0.161593
0.0417639 0.411841 0.144778
0.0612802 0.411429 0.140276
0.0826581 0.418082 0.139895
0.103746 0.427619 0.142107
0.133303 0.436027 0.144396
0.177783 0.440284 0.146136
0.230152 0.441855 0.147005
0.276143 0.445335 0.150423
0.31342 0.450568 0.154513
0.350301 0.455726 0.157107
0.386496 0.460822 0.158038
0.423239 0.465476 0.157198
0.460319 0.469947 0.14905
0.496498 0.474281 0.142031
0.532555 0.478889 0.135744
0.56788 0.483406 0.133242
0.603342 0.487297 0.132616
0.636759 0.490105 0.131304
0.668757 0.491951 0.129503
0.700816 0.493645 0.127611
0.732601 0.495628 0.12668
0.764202 0.497612 0.125673
0.795865 0.499779 0.124529
0.828016 0.501854 0.124208
0.860121 0.50396 0.123781
0.892287 0.506111 0.122957
0.925155 0.508232 0.12221
0.947341 0.507912 0.121645
0.969512 0.50779 0.120256
0.0406348 0.439567 0.189242
0.0405737 0.438636 0.183124
0.0404517 0.437522 0.17586
0.0404517 0.436469 0.165331
0.0404517 0.437766 0.148669
0.0601816 0.436286 0.144274
0.0816052 0.441062 0.143725
0.102113 0.450492 0.145144
0.13022 0.458961 0.146304
0.172381 0.464408 0.147005
0.22446 0.466056 0.147189
0.27039 0.469657 0.149371
0.307897 0.475074 0.15433
0.344244 0.480797 0.157305
0.380377 0.485878 0.15906
0.416617 0.491142 0.159777
0.453361 0.495537 0.158251
0.489982 0.500191 0.150225
0.526375 0.504738 0.143526
0.561868 0.509194 0.137026
0.597772 0.513649 0.134218
0.633433 0.518029 0.133791
0.667659 0.521157 0.132921
0.700084 0.523018 0.131243
0.732174 0.52488 0.129061
0.764508 0.526482 0.12755
0.796414 0.528344 0.125551
0.828809 0.530571 0.124575
0.861097 0.532418 0.123461
0.894072 0.534127 0.122652
0.926696 0.536187 0.12166
0.949813 0.535912 0.120974
0.972152 0.535576 0.118685
0.03888 0.463645 0.191028
0.03888 0.46273 0.185107
0.0385595 0.46183 0.177951
0.0384985 0.461891 0.167391
0.0385595 0.463661 0.150912
0.0591287 0.461738 0.147326
0.0805371 0.464317 0.146563
0.101106 0.473274 0.14725
0.12845 0.481712 0.148486
0.16875 0.487861 0.14818
0.218738 0.490364 0.146761
0.265446 0.493706 0.14818
0.302693 0.49926 0.152468
0.338918 0.505318 0.156435
0.374624 0.510887 0.158907
0.410819 0.516335 0.15967
0.446769 0.521279 0.159838
0.483284 0.526116 0.157809
0.519783 0.530571 0.149981
0.556161 0.535103 0.143221
0.591867 0.539803 0.137652
0.628046 0.544198 0.134401
0.663203 0.548486 0.13373
0.698741 0.552392 0.133852
0.731472 0.554299 0.131807
0.763897 0.555917 0.129549
0.796582 0.557534 0.12784
0.829175 0.559365 0.125612
0.861692 0.561166 0.123964
0.894881 0.563104 0.122652
0.9281 0.564889 0.121416
0.951431 0.564523 0.120363
0.974487 0.564095 0.118578
0.0362402 0.487587 0.191913
0.0361181 0.486717 0.186023
0.035996 0.487236 0.17937
0.035874 0.48835 0.168444
0.0375067 0.489662 0.152895
0.0584421 0.487419 0.149813
0.0799115 0.488029 0.149294
0.100099 0.496223 0.149111
0.126558 0.504601 0.150164
0.16553 0.510948 0.148806
0.214313 0.514183 0.146197
0.260761 0.517769 0.146563
0.298192 0.523415 0.149874
0.333715 0.529412 0.153887
0.369543 0.535576 0.157275
0.40502 0.541192 0.158236
0.441077 0.546609 0.158907
0.477195 0.551827 0.158404
0.513085 0.556497 0.155444
0.549737 0.561074 0.147936
0.586038 0.565896 0.141665
0.621805 0.570153 0.136477
0.657984 0.574624 0.13312
0.693629 0.579171 0.132616
0.729519 0.583093 0.133059
0.763027 0.585275 0.13167
0.795743 0.586892 0.129183
0.828702 0.588647 0.127108
0.861997 0.590158 0.12491
0.895232 0.591836 0.123018
0.92871 0.593591 0.121309
0.952819 0.59353 0.120241
0.975845 0.59292 0.118791
0.03299 0.512566 0.192096
0.0328527 0.513054 0.186526
0.0327916 0.513741 0.179431
0.0327306 0.514855 0.168261
0.0370642 0.515557 0.154376
0.05832 0.513329 0.151583
0.079408 0.513054 0.150988
0.0992905 0.519234 0.15053
0.125277 0.527352 0.150729
0.163226 0.533761 0.149538
0.210422 0.537484 0.146197
0.256657 0.541497 0.144778
0.293797 0.547402 0.146899
0.329015 0.553658 0.150301
0.364736 0.559991 0.153826
0.399741 0.565988 0.155581
0.43566 0.571725 0.156359
0.471382 0.576959 0.155932
0.507362 0.582254 0.15494
0.543511 0.587243 0.152087
0.579904 0.591562 0.144579
0.616129 0.596399 0.138476
0.652522 0.601068 0.13373
0.688029 0.605341 0.130297
0.724453 0.609613 0.130251
0.760067 0.613962 0.130938
0.79498 0.616785 0.131106
0.828305 0.618372 0.128435
0.86154 0.619883 0.126146
0.895354 0.621469 0.123751
0.929229 0.62298 0.122011
0.95404 0.622736 0.120226
0.977188 0.62237 0.119173
0.0293278 0.538766 0.191714
0.0292668 0.539452 0.185779
0.0290227 0.540291 0.178439
0.0289616 0.541482 0.166018
0.0364385 0.541344 0.15462
0.0580148 0.539117 0.152636
0.0789807 0.538903 0.151858
0.0986648 0.542412 0.15198
0.124208 0.550149 0.151156
0.161257 0.556512 0.14992
0.207385 0.560433 0.146319
0.252644 0.564828 0.143587
0.290043 0.571038 0.144152
0.324559 0.577676 0.146334
0.359792 0.584298 0.149355
0.395148 0.590448 0.151415
0.430228 0.596613 0.152621
0.465934 0.602228 0.152361
0.501762 0.607736 0.151431
0.537621 0.613046 0.149737
0.57377 0.617838 0.146624
0.610422 0.622492 0.139178
0.646754 0.627359 0.133425
0.682795 0.631693 0.129198
0.718791 0.636301 0.125582
0.755505 0.640589 0.126055
0.791119 0.644694 0.127337
0.827192 0.648234 0.129381
0.860838 0.649805 0.127245
0.894697 0.651164 0.124743
0.928786 0.65275 0.122362
0.954726 0.652506 0.120897
0.977874 0.652171 0.121035
0.0257572 0.565805 0.190402
0.0256962 0.566415 0.183932
0.0254978 0.567102 0.17586
0.0253758 0.568109 0.162524
0.0364385 0.567315 0.15494
0.0580148 0.565103 0.152651
0.0784924 0.564675 0.152163
0.0980392 0.566476 0.152728
0.123354 0.572793 0.151598
0.159686 0.579156 0.14992
0.20441 0.583215 0.146319
0.249378 0.587839 0.14316
0.286473 0.594232 0.142168
0.320821 0.601282 0.143038
0.355276 0.608362 0.144717
0.390143 0.614878 0.146227
0.425376 0.621302 0.147707
0.460517 0.627253 0.147662
0.496498 0.633127 0.146685
0.531929 0.638727 0.144488
0.568109 0.64387 0.142855
0.604578 0.648981 0.138521
0.640742 0.653346 0.131289
0.67715 0.658122 0.126375
0.713497 0.662898 0.121721
0.749813 0.667247 0.118669
0.786419 0.671473 0.118898
0.822858 0.675624 0.12224
0.859312 0.679301 0.127504
0.893919 0.681041 0.126421
0.928252 0.682429 0.124025
0.955627 0.682597 0.122332
0.978851 0.681941 0.123949
0.0232242 0.592554 0.188128
0.0231632 0.593118 0.181277
0.0231022 0.593805 0.172244
0.02327 0.594659 0.157473
0.0363165 0.59324 0.154818
0.0577554 0.591134 0.152697
0.0782483 0.590753 0.152285
0.0975967 0.591821 0.15285
0.122652 0.595422 0.151781
0.158038 0.601785 0.149599
0.201907 0.605951 0.145632
0.246387 0.61059 0.142351
0.283604 0.61706 0.141039
0.317159 0.62446 0.1411
0.351171 0.632044 0.141344
0.385611 0.639002 0.141604
0.420294 0.645884 0.142275
0.455604 0.652049 0.142672
0.491096 0.658167 0.141817
0.526787 0.664027 0.13994
0.562478 0.669459 0.137789
0.598749 0.674662 0.135988
0.634852 0.67953 0.131563
0.67129 0.684092 0.126192
0.707774 0.68893 0.122087
0.744015 0.693523 0.117571
0.78117 0.698054 0.114275
0.817853 0.702571 0.112184
0.855055 0.70631 0.115084
0.891615 0.710369 0.123186
0.927535 0.712673 0.126558
0.956207 0.712703 0.124575
0.979675 0.712108 0.126299
0.0201572 0.619394 0.185718
0.0195621 0.619913 0.177951
0.0191806 0.620584 0.167575
0.0220951 0.62089 0.155993
0.036347 0.619013 0.153826
0.0573892 0.616861 0.151949
0.0783093 0.616739 0.151858
0.0973526 0.617853 0.152468
0.122026 0.618906 0.151812
0.156359 0.624384 0.148989
0.199481 0.628687 0.144778
0.243931 0.633295 0.140688
0.280812 0.639735 0.139422
0.314092 0.647547 0.139437
0.347326 0.655039 0.139467
0.381262 0.662379 0.139101
0.415869 0.669367 0.139223
0.450538 0.67599 0.139162
0.486046 0.682445 0.139101
0.521401 0.688304 0.137957
0.556848 0.694331 0.135729
0.593103 0.69984 0.134478
0.628962 0.704982 0.131807
0.665293 0.709987 0.128237
0.701732 0.714702 0.123644
0.738033 0.719432 0.119463
0.774823 0.724269 0.116258
0.812131 0.728939 0.112917
0.849348 0.733318 0.110552
0.887724 0.737438 0.109545
0.924651 0.741161 0.117922
0.956191 0.743084 0.126116
0.980087 0.742779 0.1299
0.0163424 0.646387 0.182147
0.0162814 0.646937 0.17319
0.016083 0.647562 0.161212
0.022034 0.64686 0.154314
0.0362707 0.645243 0.152712
0.056611 0.643137 0.150942
0.0776532 0.642832 0.150423
0.0968643 0.644129 0.151293
0.121462 0.644373 0.150866
0.154681 0.647105 0.147875
0.197253 0.65124 0.143008
0.240711 0.656031 0.139254
0.277714 0.662486 0.137346
0.310719 0.670375 0.137148
0.343709 0.678019 0.137026
0.37734 0.685435 0.13698
0.41149 0.69276 0.137041
0.446067 0.69955 0.136675
0.481163 0.706401 0.136416
0.516182 0.712688 0.135836
0.551476 0.718822 0.134218
0.587015 0.72462 0.132738
0.623209 0.730083 0.130861
0.659113 0.735592 0.128496
0.695628 0.740383 0.125475
0.732036 0.745266 0.120912
0.768902 0.750301 0.118425
0.805753 0.75494 0.115831
0.843229 0.759716 0.113176
0.881575 0.764202 0.111971
0.919722 0.768307 0.108904
0.954467 0.771267 0.110521
0.979751 0.772274 0.124926
0.0133974 0.673014 0.177905
0.0133974 0.673579 0.16791
0.0137026 0.674327 0.154208
0.0218204 0.672831 0.152575
0.0354162 0.671031 0.151003
0.0562142 0.669291 0.149645
0.0772564 0.669062 0.149004
0.0961929 0.6701 0.149691
0.120714 0.670466 0.149371
0.153155 0.670161 0.146639
0.194659 0.673976 0.141772
0.237766 0.678752 0.137896
0.275029 0.6851 0.135683
0.307744 0.693004 0.13518
0.340322 0.700755 0.134752
0.37377 0.708568 0.134737
0.407599 0.715892 0.134478
0.441428 0.722988 0.134463
0.476326 0.729961 0.134051
0.511116 0.736568 0.133425
