code/data/lut/33蓝绿亮色1.cube
TITLE "LD - Pacific Coast 1"
# Copyright (c) 2019 Lens Distortions, LLC. All Rights Reserved.
# LensDistortions.com
# ref-PC1
LUT_3D_SIZE 9
0.0138094 0.0136721 0.0136873
0.061738 0.0255741 0.0246128
0.187213 0.044892 0.0387579
0.37351 0.0661479 0.0492256
0.496071 0.0958877 0.065919
0.612284 0.126864 0.0850385
0.732082 0.158038 0.105211
0.852293 0.187106 0.116823
0.963394 0.209094 0.119951
0.0239109 0.0882429 0.0424506
0.0902724 0.118685 0.0442664
0.242725 0.130877 0.0471504
0.386114 0.141985 0.0585031
0.507424 0.163699 0.0764019
0.626642 0.189303 0.0947738
0.744686 0.215717 0.108522
0.862181 0.241566 0.11632
0.968475 0.261265 0.117693
0.0354314 0.216037 0.109895
0.0649729 0.227848 0.0776226
0.22417 0.251057 0.0914778
0.39675 0.260822 0.0748608
0.522347 0.273548 0.0899672
0.640772 0.291051 0.105638
0.757427 0.310399 0.117006
0.872999 0.330922 0.122728
0.974151 0.347021 0.123781
0.0390021 0.337179 0.161151
0.047715 0.334615 0.111711
0.170428 0.367666 0.133608
0.372061 0.378973 0.131426
0.523079 0.396735 0.113359
0.650843 0.40734 0.115434
0.772671 0.420325 0.123278
0.888563 0.435935 0.127611
0.983658 0.44802 0.12874
0.041825 0.44979 0.193698
0.0420081 0.446448 0.146136
0.144488 0.473426 0.146838
0.341024 0.488609 0.159396
0.499214 0.509026 0.153201
0.647395 0.528023 0.13518
0.777066 0.537942 0.129488
0.898116 0.549386 0.128176
0.990875 0.557778 0.127703
0.0346227 0.555062 0.203845
0.038941 0.558556 0.160281
0.137301 0.571435 0.156359
0.321187 0.591196 0.152636
0.474189 0.615106 0.163012
0.623743 0.635493 0.149233
0.768826 0.654612 0.133562
0.898573 0.667475 0.13138
0.988479 0.674449 0.126986
0.0226139 0.667689 0.199908
0.0391394 0.668116 0.163333
0.136477 0.667521 0.159945
0.309087 0.686931 0.145815
0.454734 0.715175 0.144762
0.601099 0.739559 0.140352
0.746975 0.759945 0.126497
0.887663 0.780133 0.114122
0.987686 0.793164 0.139467
0.0122835 0.778286 0.185321
0.041474 0.775753 0.160616
0.135744 0.773861 0.158526
0.299321 0.778866 0.142611
0.440208 0.808515 0.13901
0.582849 0.836042 0.136675
0.72639 0.859571 0.132815
0.86775 0.880049 0.128344
0.989151 0.898146 0.130953
0.010132 0.870863 0.17174
0.0437171 0.867918 0.168353
0.136812 0.86717 0.169207
0.293843 0.862135 0.155352
0.430762 0.892454 0.15169
0.570947 0.921538 0.150774
0.712322 0.947188 0.148913
0.853147 0.969421 0.149264
0.98175 0.988769 0.156619
0.0151827 0.0151827 0.0631571
0.0734112 0.0263828 0.107149
0.213275 0.0446479 0.13138
0.382757 0.0657206 0.143801
0.498146 0.0954299 0.149966
0.61387 0.126619 0.160327
0.733593 0.157473 0.173205
0.853132 0.186892 0.182788
0.963302 0.208911 0.187655
0.0227359 0.107179 0.145449
0.0937667 0.121019 0.141695
0.227054 0.130938 0.145464
0.375616 0.141573 0.149004
0.498711 0.164508 0.159716
0.618601 0.191577 0.171832
0.737926 0.218921 0.182025
0.856565 0.2448 0.1888
0.96492 0.264942 0.192157
0.0348669 0.228809 0.177462
0.087602 0.238376 0.166827
0.233616 0.250385 0.165347
0.39292 0.257847 0.160082
0.513069 0.27274 0.170306
0.630533 0.290867 0.179461
0.748425 0.311147 0.186679
0.865217 0.331731 0.191028
0.969573 0.348516 0.193011
0.0395666 0.347402 0.206348
0.0848554 0.356268 0.201526
0.179904 0.371115 0.185275
0.376394 0.380041 0.186221
0.521859 0.395132 0.180789
0.646052 0.40621 0.186084
0.764263 0.42034 0.193973
0.879088 0.436377 0.198764
0.977996 0.449332 0.200839
0.0422065 0.458717 0.231022
0.0835737 0.467445 0.227405
0.152148 0.479561 0.197574
0.344579 0.491341 0.205112
0.501259 0.509926 0.205051
0.647578 0.528115 0.199481
0.774655 0.537102 0.198398
0.893004 0.54873 0.20145
0.98793 0.558236 0.205371
0.0346838 0.56257 0.239643
0.0768292 0.568811 0.237293
0.138354 0.582437 0.206134
0.325521 0.595148 0.20557
0.476036 0.617212 0.214115
0.624811 0.636637 0.209842
0.768627 0.654597 0.206607
0.89662 0.666392 0.208835
0.9888 0.673671 0.210178
0.0226291 0.667399 0.238911
0.063508 0.66479 0.23444
0.13698 0.678599 0.216938
0.311345 0.695048 0.204486
0.456977 0.719493 0.207721
0.603021 0.742245 0.206409
0.748562 0.761898 0.199969
0.88806 0.779934 0.205859
0.987976 0.79205 0.224613
0.0123445 0.777829 0.240909
0.0488136 0.773831 0.236042
0.13547 0.773754 0.22826
0.300923 0.789975 0.213275
0.441535 0.817151 0.210529
0.584802 0.842313 0.208988
0.729046 0.863783 0.206683
0.870237 0.882826 0.204425
0.989136 0.899382 0.206134
0.010071 0.870832 0.245075
0.0442512 0.867475 0.242115
0.1355 0.866728 0.241413
0.295949 0.873106 0.228733
0.432715 0.901778 0.227176
0.572473 0.929046 0.227283
0.714656 0.952819 0.228244
0.854841 0.973404 0.22562
0.984573 0.991226 0.234134
0.0180667 0.0182498 0.161395
0.0766766 0.0310521 0.21767
0.244022 0.0454566 0.264469
0.407004 0.0669413 0.268742
0.517159 0.0964675 0.261021
0.62829 0.126925 0.26215
0.744656 0.157595 0.269947
0.861952 0.186801 0.276722
0.968368 0.207462 0.282551
0.0272374 0.115755 0.26305
0.0960861 0.123507 0.263569
0.245075 0.128756 0.262974
0.38822 0.141558 0.256794
0.505379 0.165408 0.260609
0.623133 0.192538 0.26807
0.740826 0.220035 0.275578
0.858625 0.24593 0.281697
0.96585 0.265629 0.286107
0.0224918 0.248188 0.287816
0.0895399 0.248386 0.277897
0.239628 0.254643 0.267506
0.382574 0.260853 0.264073
0.506218 0.275044 0.26865
0.625055 0.293156 0.274754
0.743709 0.313344 0.280766
0.86128 0.333715 0.285451
0.9673 0.351019 0.288853
0.0335546 0.364492 0.303227
0.0895857 0.368048 0.294545
0.21735 0.375647 0.276051
0.383444 0.383551 0.274525
0.521843 0.394583 0.277211
0.639689 0.406775 0.283513
0.756878 0.420722 0.288762
0.872557 0.43682 0.29247
0.974502 0.450614 0.294209
0.0435798 0.474693 0.303807
0.0879377 0.480491 0.302525
0.201923 0.488609 0.294865
0.352178 0.496925 0.282918
0.507225 0.512428 0.289418
0.649195 0.52723 0.289036
0.771267 0.536538 0.292165
0.886244 0.548562 0.298146
0.983291 0.559304 0.301381
0.0353399 0.579599 0.30901
0.0784772 0.584527 0.307698
0.179553 0.596323 0.303471
0.331716 0.60322 0.28574
0.480735 0.6215 0.294652
0.628153 0.638712 0.295964
0.770184 0.65565 0.298329
0.894743 0.665446 0.302342
0.98938 0.673762 0.307301
0.0235294 0.679591 0.309056
0.0641947 0.682078 0.307576
0.150729 0.698314 0.304463
0.315969 0.705089 0.288167
0.461112 0.725689 0.293584
0.60589 0.745907 0.297032
0.75024 0.763592 0.297337
0.888762 0.780682 0.305608
0.988357 0.791241 0.318853
0.0124666 0.778714 0.312917
0.0495308 0.778103 0.310506
0.140047 0.79234 0.311406
0.301778 0.804547 0.295735
0.444511 0.827161 0.29662
0.58764 0.850095 0.295567
0.73254 0.870497 0.290166
0.874159 0.887022 0.286046
0.9897 0.900816 0.300206
0.0102998 0.870558 0.321721
0.0435492 0.867353 0.318486
0.135607 0.875669 0.320546
0.293141 0.890898 0.307134
0.432609 0.916457 0.304723
0.574838 0.94052 0.30544
0.718379 0.961517 0.308675
0.859007 0.97969 0.303563
0.989151 0.995315 0.309346
0.0256352 0.0265507 0.268544
0.0882887 0.0440223 0.332448
0.244358 0.0604868 0.384543
0.414801 0.0686809 0.398245
0.536583 0.097673 0.3906
0.651621 0.12987 0.386297
0.766522 0.158999 0.387686
0.879866 0.186709 0.390631
0.97821 0.204334 0.395285
0.0369421 0.122652 0.382116
0.100359 0.12874 0.380682
0.240375 0.134386 0.382361
0.399603 0.141726 0.385168
0.527581 0.164706 0.384207
0.642237 0.19263 0.383871
0.755169 0.219501 0.386328
0.869307 0.244816 0.390997
0.972198 0.262943 0.39527
0.0274205 0.25716 0.406409
0.0953994 0.256519 0.400305
0.239933 0.256153 0.38854
0.394354 0.259129 0.385107
0.517739 0.274098 0.382452
0.631449 0.293019 0.384329
0.748058 0.313405 0.388708
0.864225 0.333928 0.393515
0.969253 0.350515 0.397513
0.0154574 0.382208 0.416083
0.0781109 0.38056 0.408652
0.227955 0.382971 0.396414
0.385657 0.388128 0.38909
0.503975 0.400137 0.386007
0.63061 0.409339 0.393973
0.750362 0.422599 0.396796
0.867414 0.438224 0.401114
0.974716 0.449027 0.400793
0.028397 0.4934 0.426612
0.0812238 0.495262 0.421897
0.212024 0.498527 0.40882
0.368383 0.50312 0.392035
0.514992 0.514855 0.398901
0.644984 0.526711 0.402731
0.762524 0.536751 0.407965
0.877089 0.548974 0.411521
0.978531 0.56025 0.413733
0.0328679 0.599115 0.414191
0.0759136 0.602304 0.411032
0.190341 0.60885 0.407156
0.348791 0.612543 0.396612
0.486412 0.626947 0.399466
0.6309 0.641337 0.40499
0.770642 0.655619 0.41146
0.889906 0.664775 0.416266
0.988128 0.673945 0.423941
0.0233463 0.700603 0.407996
0.0633707 0.701946 0.406058
0.158343 0.714046 0.407279
0.32752 0.717464 0.397665
0.4645 0.733623 0.398871
0.609247 0.749996 0.405463
0.752972 0.76527 0.409934
0.889403 0.781125 0.420829
0.988067 0.790127 0.430182
0.01355 0.800381 0.412604
0.0501717 0.799405 0.409812
0.140383 0.811444 0.411765
0.305745 0.818952 0.40061
0.446799 0.83714 0.402533
0.59057 0.856519 0.406271
0.734829 0.873472 0.406683
0.875654 0.888106 0.408057
0.989578 0.900511 0.424353
0.0109712 0.885191 0.4177
0.04477 0.884382 0.415579
0.135897 0.895735 0.419318
0.29247 0.907591 0.408225
0.431327 0.930724 0.406577
0.575128 0.953246 0.404242
0.720577 0.973449 0.396277
0.863981 0.988037 0.391135
0.994705 0.999878 0.397238
0.0390478 0.0432746 0.389563
0.103807 0.0639353 0.46302
0.244007 0.0776226 0.504631
0.401679 0.0859693 0.514168
0.541482 0.0992142 0.526375
0.666026 0.129244 0.52517
0.787305 0.159594 0.524666
0.902922 0.186572 0.524758
0.992737 0.199512 0.526314
0.049073 0.132097 0.503532
0.107073 0.137835 0.499596
0.239948 0.142473 0.50312
0.3944 0.150698 0.508766
0.533806 0.165377 0.52047
0.660822 0.191333 0.521324
0.778775 0.218448 0.519173
0.890272 0.243305 0.518502
0.983978 0.257862 0.521263
0.0425727 0.258335 0.525475
0.103243 0.2589 0.522988
0.243839 0.257465 0.515221
0.392584 0.261448 0.512505
0.527886 0.272419 0.517082
0.652171 0.29012 0.515999
0.765682 0.310979 0.512978
0.877211 0.332235 0.514199
0.975723 0.347906 0.518135
0.021561 0.391699 0.539422
0.0867781 0.390372 0.536187
0.233982 0.389334 0.527108
0.385061 0.388388 0.515114
0.518791 0.396704 0.506691
0.641154 0.406806 0.514092
0.756191 0.421424 0.51516
0.870802 0.437491 0.518776
0.976242 0.448035 0.521187
0.0115206 0.510918 0.54255
0.0641794 0.508278 0.537621
0.208103 0.509209 0.531518
0.375174 0.509636 0.519402
0.514717 0.519265 0.522026
0.613001 0.537575 0.50631
0.753933 0.538186 0.524941
0.870558 0.550103 0.527443
0.976104 0.560678 0.529549
0.0215 0.618265 0.54168
0.0635843 0.618585 0.538323
0.186923 0.622248 0.535103
0.354894 0.62182 0.521691
0.497398 0.629038 0.553689
0.655879 0.637263 0.536553
0.765866 0.655238 0.533165
0.881224 0.664668 0.539818
0.982269 0.674998 0.544259
0.0191043 0.721752 0.527535
0.0590066 0.721569 0.524865
0.157244 0.730404 0.526238
0.332738 0.729412 0.515953
0.472602 0.741665 0.519219
0.612909 0.755016 0.524804
0.755154 0.767895 0.531136
0.889387 0.781811 0.542489
0.987564 0.789242 0.550378
0.0114748 0.822324 0.525689
0.0477913 0.820554 0.522637
0.1393 0.830274 0.525551
0.306355 0.834257 0.516716
0.451438 0.847898 0.52047
0.594095 0.863203 0.524346
0.737346 0.877043 0.529473
0.877012 0.889204 0.533196
0.989013 0.900572 0.549889
0.011368 0.908003 0.529274
0.0453956 0.906783 0.526986
0.136645 0.915999 0.530709
0.292103 0.924132 0.521828
0.43003 0.944625 0.521721
0.57586 0.962753 0.523018
0.721996 0.980026 0.520943
0.866743 0.994049 0.510491
0.99469 0.999649 0.505989
0.058732 0.0691844 0.526238
0.116655 0.0872206 0.591134
0.244114 0.0961929 0.616968
0.39469 0.103059 0.629709
0.531792 0.116823 0.645212
0.670314 0.129992 0.659724
0.79823 0.158038 0.662943
0.919829 0.184314 0.664485
1 0.19498 0.665125
0.0635386 0.14255 0.621607
0.116762 0.150759 0.617014
0.245502 0.153506 0.620005
0.392218 0.161257 0.629221
0.528283 0.176272 0.643153
0.665248 0.191821 0.655924
0.792294 0.216632 0.657877
0.911208 0.240787 0.657252
0.998764 0.252781 0.657069
0.0562905 0.260761 0.646708
0.111818 0.262989 0.645075
0.249165 0.260884 0.637491
0.391546 0.265278 0.636973
0.524453 0.276326 0.643122
0.65803 0.289387 0.650492
0.783413 0.308095 0.650645
0.899092 0.329015 0.647898
0.990051 0.340017 0.648325
0.0363775 0.395682 0.666789
0.0987411 0.394919 0.662745
0.23917 0.390219 0.651743
0.386053 0.388678 0.644373
0.518898 0.395392 0.644877
0.651072 0.404166 0.648295
0.775708 0.417395 0.647486
0.888075 0.433982 0.645197
0.983597 0.444709 0.645563
0.0158999 0.521385 0.669184
0.0728466 0.5187 0.666148
0.216876 0.517205 0.661219
0.378485 0.516503 0.65391
0.508659 0.521385 0.645457
0.6374 0.538521 0.560494
0.764477 0.535409 0.646693
0.876234 0.548653 0.646082
0.978149 0.559655 0.649378
0.00924697 0.635798 0.663615
0.0520333 0.632578 0.659403
0.181765 0.634546 0.658167
0.357275 0.630549 0.648402
0.502724 0.637064 0.652583
0.639323 0.647272 0.654856
0.734218 0.666239 0.633341
0.874571 0.665476 0.657404
0.979522 0.6757 0.660624
0.0123445 0.740963 0.655253
0.0515602 0.738918 0.652094
0.146685 0.746044 0.655283
0.332937 0.741039 0.644709
0.477073 0.749538 0.646387
0.620706 0.752438 0.725856
0.786557 0.760128 0.678401
0.884749 0.781125 0.66688
0.986984 0.789487 0.674281
0.00936904 0.842954 0.649119
0.0446784 0.840467 0.645731
0.136843 0.847593 0.648707
0.302968 0.849302 0.641337
0.452735 0.858732 0.644297
0.597025 0.869917 0.649439
0.73991 0.880476 0.654932
0.877974 0.89041 0.66125
0.988418 0.901183 0.677272
0.00961318 0.929778 0.649851
0.0434119 0.927993 0.647105
0.135561 0.935378 0.650278
0.292241 0.940047 0.643748
0.424979 0.958877 0.64538
0.574746 0.97261 0.648524
0.722011 0.98587 0.648798
0.867185 0.996704 0.645685
0.994125 0.998917 0.646143
0.0789807 0.0964218 0.658885
0.126741 0.109926 0.713802
0.252094 0.11487 0.729915
0.392172 0.121538 0.744213
0.527245 0.13492 0.763119
0.664912 0.146181 0.78143
0.802167 0.156786 0.795209
0.92781 0.182879 0.799786
1 0.187335 0.803433
0.0804456 0.157046 0.739452
0.129351 0.166308 0.733272
0.255497 0.166812 0.736065
0.392996 0.174685 0.746456
0.525628 0.188495 0.762264
0.660456 0.202411 0.777905
0.79617 0.216068 0.789746
0.921096 0.238651 0.793164
1 0.23537 0.799344
0.071397 0.265797 0.765209
0.123217 0.26952 0.763867
0.25745 0.266712 0.75552
0.391974 0.271305 0.756893
0.521798 0.282002 0.76556
0.654276 0.294362 0.775051
0.787381 0.307347 0.78294
0.911528 0.326314 0.784756
0.99765 0.328359 0.788876
0.0546273 0.396048 0.783902
0.109133 0.396979 0.782498
0.247181 0.390585 0.775143
0.388113 0.389899 0.769741
0.518517 0.396231 0.771908
0.649577 0.405295 0.775097
0.780941 0.415808 0.77966
0.903349 0.430594 0.779767
0.993317 0.438666 0.779492
0.0228733 0.529015 0.802686
0.0865949 0.527199 0.799191
0.228458 0.521843 0.790417
0.37969 0.517021 0.779812
0.512306 0.519341 0.777325
0.64358 0.525002 0.777142
0.773678 0.532464 0.778256
0.895003 0.543999 0.776989
0.988678 0.554986 0.774685
0.00953689 0.647517 0.794339
0.0522621 0.644297 0.791577
0.186435 0.643641 0.789746
0.36144 0.638209 0.781369
0.50367 0.643961 0.78204
0.629282 0.650385 0.773266
0.759289 0.669108 0.661952
0.884138 0.663005 0.776867
0.982773 0.674174 0.777523
0.0075227 0.757626 0.782437
0.0455329 0.754147 0.778485
0.138857 0.758862 0.782712
0.33373 0.751034 0.772747
0.48098 0.756558 0.774685
0.632334 0.761074 0.791165
0.762509 0.773205 0.78555
0.872129 0.784512 0.774472
0.983612 0.790372 0.789197
0.00848402 0.861082 0.776822
0.0433051 0.857893 0.773236
0.135119 0.863035 0.77641
0.294148 0.862806 0.771389
0.452186 0.868299 0.773617
0.599008 0.87599 0.7776
0.742382 0.883833 0.783017
0.882475 0.890974 0.790784
0.987976 0.900694 0.799329
0.0091249 0.94963 0.774838
0.0426184 0.947417 0.771984
0.134936 0.95317 0.775021
0.292134 0.954299 0.770108
0.414313 0.97174 0.775433
0.570718 0.981903 0.778332
0.720638 0.991257 0.77995
0.866682 0.998505 0.779553
0.993683 0.998428 0.781643
0.0960403 0.12192 0.789441
0.142397 0.133806 0.834607
0.264591 0.133059 0.842985
0.395468 0.140291 0.85658
0.527092 0.15108 0.87744
0.661372 0.164691 0.893965
0.799207 0.17174 0.911131
0.932403 0.179706 0.923445
1 0.184085 0.929244
0.0970169 0.173449 0.854353
0.14548 0.182864 0.84863
0.268193 0.181125 0.850446
0.396384 0.189029 0.859724
0.525719 0.200015 0.877546
0.658122 0.214237 0.89189
0.793835 0.225116 0.906874
0.925078 0.237446 0.917006
1 0.227253 0.928679
0.0865187 0.273915 0.878248
0.135744 0.277714 0.877958
0.267842 0.274067 0.867781
0.395148 0.278828 0.870909
0.521965 0.288472 0.880858
0.652186 0.300557 0.890883
0.784985 0.312779 0.900649
0.914778 0.326131 0.908766
0.997574 0.326513 0.916167
0.067628 0.398413 0.898756
0.119234 0.400076 0.8981
0.255604 0.392752 0.890425
0.390936 0.392752 0.886732
0.519371 0.39884 0.890074
0.648783 0.407736 0.894347
0.77995 0.417792 0.899199
0.90724 0.429953 0.903517
0.99324 0.435737 0.907073
0.0396277 0.530373 0.91574
0.0979019 0.529137 0.912764
0.236301 0.522332 0.904173
0.380957 0.517708 0.898787
0.512901 0.520088 0.896361
0.643183 0.525628 0.897307
0.773281 0.53283 0.898405
0.899794 0.542992 0.900084
0.989822 0.550546 0.901427
0.0131991 0.657252 0.920592
0.0579843 0.653788 0.918242
0.200778 0.650935 0.913741
0.369589 0.645243 0.905715
0.504829 0.645243 0.901442
0.636133 0.647303 0.900618
0.766842 0.652674 0.899611
0.893278 0.66041 0.899977
0.987488 0.668788 0.899199
0.00724804 0.771008 0.910231
0.0439307 0.767056 0.906493
0.137926 0.769696 0.910018
0.335637 0.759991 0.899382
0.486229 0.763378 0.900618
0.628336 0.770336 0.902449
0.760311 0.773922 0.901946
0.887083 0.779141 0.900664
0.986557 0.788128 0.898802
0.00856031 0.877348 0.900786
0.0432136 0.873411 0.896742
0.134234 0.876417 0.899504
0.293172 0.872953 0.895491
0.451057 0.876554 0.897673
0.602579 0.881239 0.899779
0.746914 0.887098 0.902449
0.884291 0.89424 0.907546
0.988083 0.901808 0.908141
0.0115511 0.967544 0.899092
0.0465248 0.964736 0.895415
0.137118 0.968917 0.89807
0.293797 0.967102 0.893065
0.414359 0.979904 0.900191
0.561028 0.990524 0.905013
0.717113 0.996094 0.905974
0.865293 0.998444 0.905348
0.993744 0.998367 0.907744
0.115602 0.147951 0.916915
0.162371 0.155154 0.944854
0.280919 0.151522 0.945861
0.401953 0.159152 0.953536
0.529549 0.167834 0.966583
0.662013 0.177981 0.979065
0.797162 0.187518 0.989761
0.930892 0.191623 1
1 0.180423 0.999863
0.11371 0.192294 0.955337
0.131624 0.166751 0.984497
0.268605 0.161471 0.983307
0.408133 0.167163 0.98526
0.542748 0.175143 0.991516
0.679149 0.183352 0.998779
0.81181 0.198734 1
0.937606 0.219074 1
1 0.227787 0.999863
0.101259 0.284001 0.968353
0.11075 0.269108 0.995056
0.24625 0.259678 0.997772
0.399832 0.261814 0.993698
0.535042 0.271855 0.993393
0.667491 0.285618 0.994049
0.797574 0.300923 0.994797
0.923583 0.318975 0.996857
0.998398 0.327428 0.999802
0.0799573 0.402548 0.982803
0.0898604 0.398093 0.998138
0.23154 0.393149 0.993988
0.386694 0.389349 0.988922
0.522515 0.394842 0.988632
0.6551 0.403601 0.989288
0.785595 0.414786 0.990127
0.911971 0.428244 0.992142
0.994079 0.436133 0.994568
0.0522164 0.531746 0.995041
0.0823682 0.530755 0.99913
0.219776 0.525307 0.994781
0.377157 0.518776 0.988907
0.512779 0.519982 0.988373
0.644953 0.525383 0.987945
0.775509 0.53286 0.988251
0.902022 0.543099 0.989593
0.990799 0.550759 0.992538
0.0274205 0.663691 1
0.0789349 0.66041 1
0.210163 0.655085 0.99852
0.36936 0.646799 0.991058
0.504799 0.646296 0.989578
0.637293 0.648615 0.989349
0.767987 0.653758 0.989517
0.894591 0.661402 0.990692
0.988128 0.668528 0.992798
0.0286259 0.779324 1
0.0620737 0.776593 0.999146
0.150561 0.777905 1
0.347509 0.767514 0.993255
0.495857 0.77055 0.993133
0.631159 0.772992 0.99324
0.761532 0.774853 0.992691
0.887465 0.780209 0.992645
0.987381 0.786389 0.994797
0.0263981 0.888716 0.998947
0.0580453 0.885756 0.996246
0.144854 0.888121 0.998764
0.296254 0.881758 0.996109
0.453376 0.883772 0.997772
0.608118 0.887007 0.998581
0.753887 0.892119 0.99913
0.883177 0.895811 0.99852
0.988861 0.900267 0.999496
0.0166934 0.98262 1
0.0529488 0.980087 0.998077
0.142794 0.983063 1
0.295369 0.978897 0.995712
0.415869 0.987518 1
0.543618 0.99826 1
0.710246 0.999374 1
0.862745 0.999573 1
0.995056 0.999435 1
