code/data/lut/33蓝绿亮色1.cube
TITLE "LD - Pacific Coast 1"
# Copyright (c) 2019 Lens Distortions, LLC. All Rights Reserved.
# LensDistortions.com
# ref-PC1
LUT_3D_SIZE 5
0.0138094 0.0136721 0.0136873
0.187213 0.044892 0.0387579
0.496071 0.0958877 0.065919
0.732082 0.158038 0.105211
0.963394 0.209094 0.119951
0.0354314 0.216037 0.109895
0.22417 0.251057 0.0914778
0.522347 0.273548 0.0899672
0.757427 0.310399 0.117006
0.974151 0.347021 0.123781
0.041825 0.44979 0.193698
0.144488 0.473426 0.146838
0.499214 0.509026 0.153201
0.777066 0.537942 0.129488
0.990875 0.557778 0.127703
0.0226139 0.667689 0.199908
0.136477 0.667521 0.159945
0.454734 0.715175 0.144762
0.746975 0.759945 0.126497
0.987686 0.793164 0.139467
0.010132 0.870863 0.17174
0.136812 0.86717 0.169207
0.430762 0.892454 0.15169
0.712322 0.947188 0.148913
0.98175 0.988769 0.156619
0.0180667 0.0182498 0.161395
0.244022 0.0454566 0.264469
0.517159 0.0964675 0.261021
0.744656 0.157595 0.269947
0.968368 0.207462 0.282551
0.0224918 0.248188 0.287816
0.239628 0.254643 0.267506
0.506218 0.275044 0.26865
0.743709 0.313344 0.280766
0.9673 0.351019 0.288853
0.0435798 0.474693 0.303807
0.201923 0.488609 0.294865
0.507225 0.512428 0.289418
0.771267 0.536538 0.292165
0.983291 0.559304 0.301381
0.0235294 0.679591 0.309056
0.150729 0.698314 0.304463
0.461112 0.725689 0.293584
0.75024 0.763592 0.297337
0.988357 0.791241 0.318853
0.0102998 0.870558 0.321721
0.135607 0.875669 0.320546
0.432609 0.916457 0.304723
0.718379 0.961517 0.308675
0.989151 0.995315 0.309346
0.0390478 0.0432746 0.389563
0.244007 0.0776226 0.504631
0.541482 0.0992142 0.526375
0.787305 0.159594 0.524666
0.992737 0.199512 0.526314
0.0425727 0.258335 0.525475
0.243839 0.257465 0.515221
0.527886 0.272419 0.517082
0.765682 0.310979 0.512978
0.975723 0.347906 0.518135
0.0115206 0.510918 0.54255
0.208103 0.509209 0.531518
0.514717 0.519265 0.522026
0.753933 0.538186 0.524941
0.976104 0.560678 0.529549
0.0191043 0.721752 0.527535
0.157244 0.730404 0.526238
0.472602 0.741665 0.519219
0.755154 0.767895 0.531136
0.987564 0.789242 0.550378
0.011368 0.908003 0.529274
0.136645 0.915999 0.530709
0.43003 0.944625 0.521721
0.721996 0.980026 0.520943
0.99469 0.999649 0.505989
0.0789807 0.0964218 0.658885
0.252094 0.11487 0.729915
0.527245 0.13492 0.763119
0.802167 0.156786 0.795209
1 0.187335 0.803433
0.071397 0.265797 0.765209
0.25745 0.266712 0.75552
0.521798 0.282002 0.76556
0.787381 0.307347 0.78294
0.99765 0.328359 0.788876
0.0228733 0.529015 0.802686
0.228458 0.521843 0.790417
0.512306 0.519341 0.777325
0.773678 0.532464 0.778256
0.988678 0.554986 0.774685
0.0075227 0.757626 0.782437
0.138857 0.758862 0.782712
0.48098 0.756558 0.774685
0.762509 0.773205 0.78555
0.983612 0.790372 0.789197
0.0091249 0.94963 0.774838
0.134936 0.95317 0.775021
0.414313 0.97174 0.775433
0.720638 0.991257 0.77995
0.993683 0.998428 0.781643
0.115602 0.147951 0.916915
0.280919 0.151522 0.945861
0.529549 0.167834 0.966583
0.797162 0.187518 0.989761
1 0.180423 0.999863
0.101259 0.284001 0.968353
0.24625 0.259678 0.997772
0.535042 0.271855 0.993393
0.797574 0.300923 0.994797
0.998398 0.327428 0.999802
0.0522164 0.531746 0.995041
0.219776 0.525307 0.994781
0.512779 0.519982 0.988373
0.775509 0.53286 0.988251
0.990799 0.550759 0.992538
0.0286259 0.779324 1
0.150561 0.777905 1
0.495857 0.77055 0.993133
0.761532 0.774853 0.992691
0.987381 0.786389 0.994797
0.0166934 0.98262 1
0.142794 0.983063 1
0.415869 0.987518 1
0.710246 0.999374 1
0.995056 0.999435 1
