code/data/lut/33蓝绿亮色3.cube
TITLE "LD - Pacific Coast 3"
# Copyright (c) 2019 Lens Distortions, LLC. All Rights Reserved.
# LensDistortions.com
# ref-PC1
LUT_3D_SIZE 33
0.0123293 0.012192 0.0119936
0.0181735 0.0142977 0.0144808
0.0269322 0.016907 0.0166476
0.0393835 0.0198215 0.0194858
0.0601511 0.0234684 0.0226291
0.0852674 0.0271916 0.025803
0.115007 0.0318151 0.0294499
0.150942 0.0364996 0.0327916
0.198764 0.0411231 0.0354925
0.255543 0.0444648 0.0365606
0.313878 0.0487678 0.0383154
0.362005 0.0549325 0.041825
0.403449 0.0636301 0.0469673
0.44036 0.0721141 0.051667
0.474601 0.0805676 0.0554208
0.507408 0.0886549 0.0592508
0.53814 0.0972152 0.0637522
0.569924 0.106325 0.0684825
0.600488 0.115145 0.0733349
0.631571 0.124163 0.0792248
0.66244 0.133364 0.0847181
0.69369 0.142977 0.0907759
0.724559 0.152148 0.0971695
0.755489 0.161822 0.102571
0.785702 0.171237 0.108278
0.815335 0.180652 0.113054
0.845319 0.190097 0.117388
0.873899 0.198871 0.121218
0.902602 0.207904 0.124926
0.930358 0.216953 0.127657
0.957061 0.225513 0.129809
0.983276 0.233951 0.131533
1 0.238041 0.133318
0.0167239 0.0231479 0.0191196
0.0246738 0.0268101 0.0204166
0.036286 0.0305791 0.0224765
0.0540627 0.0347906 0.0245518
0.0772869 0.0374456 0.0277867
0.106493 0.0428931 0.0309911
0.139391 0.0487678 0.0346838
0.18172 0.0545663 0.0381933
0.232425 0.0588846 0.0393835
0.287526 0.062211 0.0395056
0.336416 0.0670481 0.0405737
0.375845 0.0739452 0.0441444
0.410636 0.0813458 0.047776
0.443229 0.0884565 0.0512398
0.475502 0.0959029 0.0554208
0.507927 0.103746 0.0593118
0.539986 0.111757 0.063386
0.571542 0.119799 0.0684215
0.603387 0.12781 0.0731518
0.634913 0.136538 0.0787366
0.666606 0.145083 0.084535
0.698482 0.153948 0.0902724
0.729046 0.162829 0.0958877
0.759518 0.172244 0.101045
0.790173 0.181445 0.105943
0.819608 0.190341 0.110246
0.849149 0.199176 0.114809
0.877821 0.20827 0.118334
0.906096 0.216892 0.121523
0.933654 0.225849 0.124422
0.960143 0.234501 0.126619
0.985931 0.242908 0.128237
1 0.246601 0.130053
0.0189059 0.0373541 0.024567
0.025742 0.0413367 0.0274205
0.0423285 0.0482643 0.0317845
0.0642405 0.0535744 0.0280919
0.0919661 0.0585794 0.0312352
0.122774 0.0649577 0.0353094
0.158587 0.0716259 0.0391241
0.200092 0.0768597 0.0409552
0.248157 0.0804913 0.0415198
0.297871 0.0835126 0.0417029
0.342138 0.0879835 0.0433967
0.376593 0.0933547 0.0458991
0.410681 0.0998245 0.0495003
0.444236 0.106813 0.0538186
0.47657 0.113481 0.0573434
0.508949 0.120943 0.0612192
0.54139 0.128298 0.0660258
0.573571 0.136049 0.070573
0.606104 0.144091 0.0761578
0.638071 0.152209 0.0814069
0.669932 0.16083 0.0874647
0.700954 0.169818 0.092958
0.731853 0.178622 0.0981613
0.762371 0.187442 0.102815
0.792462 0.196094 0.107546
0.821927 0.204929 0.112108
0.851484 0.213703 0.115999
0.87982 0.22237 0.119585
0.907576 0.231022 0.122469
0.935088 0.239582 0.125429
0.961837 0.248112 0.127596
0.98735 0.256535 0.128939
1 0.259937 0.130144
0.0202335 0.0574655 0.0310521
0.0239567 0.061326 0.0271763
0.0364385 0.0715038 0.0302281
0.0636759 0.0814374 0.0322271
0.0969253 0.0897688 0.0353704
0.129061 0.0953384 0.0385595
0.16527 0.100542 0.0409552
0.207843 0.104494 0.0430762
0.256046 0.106462 0.0435798
0.303456 0.108217 0.0437018
0.343771 0.111513 0.0450904
0.37911 0.116976 0.0484016
0.412695 0.122484 0.0523384
0.446006 0.129198 0.0561074
0.479271 0.135042 0.0602426
0.512291 0.141802 0.0650492
0.54522 0.149111 0.0697642
0.577462 0.156359 0.0748608
0.609979 0.164385 0.0800946
0.641978 0.172747 0.0857862
0.672938 0.18085 0.090837
0.704372 0.189181 0.0961318
0.735119 0.197833 0.100847
0.76527 0.205966 0.105516
0.795102 0.21445 0.109743
0.824598 0.223117 0.113619
0.853193 0.231388 0.117449
0.881865 0.239826 0.120714
0.909682 0.248432 0.12372
0.936858 0.256794 0.126238
0.962676 0.26511 0.127779
0.988174 0.273365 0.129381
1 0.276356 0.130495
0.0216831 0.0867933 0.0390631
0.0233463 0.0902419 0.0307469
0.0343633 0.0979477 0.0348669
0.0567178 0.111223 0.0404517
0.0919814 0.12079 0.041886
0.129076 0.129381 0.0437018
0.168109 0.133944 0.0454566
0.212299 0.13518 0.0453346
0.261433 0.134997 0.0447089
0.308904 0.135927 0.0452125
0.348684 0.138857 0.0476539
0.384024 0.143404 0.051667
0.417914 0.148669 0.0558633
0.45156 0.154498 0.0603647
0.484535 0.16054 0.0649424
0.517449 0.167193 0.0695201
0.549905 0.174304 0.0746166
0.582437 0.181338 0.0794842
0.614084 0.188678 0.084535
0.645762 0.196323 0.0901503
0.677241 0.20415 0.0953384
0.707576 0.21181 0.0996262
0.73846 0.219776 0.104479
0.768231 0.227909 0.108705
0.797864 0.235798 0.11249
0.826856 0.244099 0.116258
0.85568 0.252262 0.119585
0.883848 0.260395 0.122591
0.911101 0.268452 0.124987
0.938094 0.2766 0.126802
0.964157 0.284932 0.128466
0.989593 0.293187 0.129778
1 0.295628 0.130678
0.0245823 0.121538 0.0537575
0.0249485 0.124773 0.0399481
0.0336767 0.128664 0.0414435
0.0522774 0.141909 0.0474098
0.0847791 0.152926 0.0532082
0.123049 0.160174 0.0538796
0.165331 0.166552 0.0514229
0.213931 0.168399 0.0511177
0.266514 0.167315 0.0487678
0.314351 0.167529 0.0482795
0.354498 0.169955 0.0507362
0.389685 0.174121 0.0548714
0.423911 0.17882 0.0594339
0.457328 0.184375 0.0642405
0.490654 0.190036 0.0689708
0.522896 0.195789 0.0739452
0.555276 0.202213 0.0791638
0.586969 0.208621 0.0840925
0.618311 0.215351 0.0890974
0.650172 0.222309 0.0944076
0.680552 0.229648 0.0988327
0.711192 0.236667 0.103243
0.741466 0.24416 0.10779
0.771008 0.252018 0.111482
0.800671 0.259709 0.115373
0.829389 0.267155 0.118822
0.857679 0.275166 0.121584
0.885725 0.28307 0.124422
0.913176 0.290929 0.126925
0.939574 0.298451 0.12871
0.965438 0.306508 0.130358
0.98999 0.314519 0.131304
1 0.316915 0.132403
0.028336 0.158846 0.0715343
0.0284581 0.158953 0.0564736
0.0340581 0.162203 0.0504311
0.0496376 0.17293 0.0553597
0.0775311 0.183749 0.0609751
0.113436 0.192432 0.0672313
0.156298 0.19852 0.066865
0.207813 0.202396 0.0590677
0.266468 0.202487 0.0558022
0.316915 0.201831 0.0535134
0.357183 0.20415 0.0545052
0.393668 0.207736 0.0582589
0.42855 0.21178 0.0626993
0.462272 0.216388 0.0674907
0.495689 0.221149 0.0726482
0.52755 0.226291 0.0778058
0.560006 0.231891 0.0831617
0.591501 0.237919 0.0881514
0.622782 0.243915 0.0932784
0.653819 0.250538 0.0980392
0.68423 0.256794 0.102449
0.714748 0.263737 0.106371
0.744503 0.270817 0.11043
0.774243 0.277913 0.114427
0.803372 0.285115 0.117891
0.831708 0.292424 0.121019
0.860212 0.299626 0.124041
0.887755 0.307317 0.126864
0.915038 0.314977 0.129259
0.94107 0.322606 0.130983
0.966857 0.330114 0.132387
0.9906 0.337316 0.133196
1 0.339803 0.134066
0.0312352 0.195346 0.0910658
0.0316014 0.19501 0.0751507
0.032929 0.19704 0.0599832
0.0465858 0.202899 0.0632029
0.0706188 0.214054 0.0679026
0.103868 0.223728 0.0750439
0.142657 0.230823 0.0840009
0.195773 0.23537 0.0794232
0.257374 0.236881 0.066392
0.314305 0.237781 0.0619669
0.356909 0.239567 0.0615396
0.394247 0.242435 0.0632029
0.430076 0.24596 0.0660258
0.464958 0.249607 0.0711223
0.498924 0.253956 0.0757305
0.53196 0.258335 0.0809796
0.564004 0.263371 0.0864729
0.595666 0.268528 0.091722
0.626902 0.274113 0.0963149
0.657572 0.279835 0.101167
0.688121 0.286046 0.10515
0.71841 0.292393 0.109377
0.748119 0.298772 0.113176
0.777462 0.305394 0.116762
0.80592 0.312108 0.12015
0.834669 0.318883 0.123659
0.86244 0.326085 0.12636
0.890303 0.333211 0.128893
0.917113 0.34052 0.130526
0.943008 0.347585 0.132158
0.968582 0.355215 0.133745
0.991455 0.361685 0.13492
0.999252 0.36437 0.136309
0.032929 0.230076 0.109392
0.0332341 0.229206 0.0945296
0.0336156 0.229374 0.0763104
0.0430762 0.232685 0.0716564
0.0638743 0.243748 0.075227
0.0941482 0.254093 0.0816052
0.130877 0.262715 0.0922713
0.179324 0.268208 0.100404
0.242237 0.26949 0.090135
0.304692 0.270924 0.0754864
0.35288 0.275273 0.0715496
0.393011 0.278096 0.0719158
0.429953 0.281132 0.0729686
0.465263 0.284062 0.0754864
0.49987 0.28748 0.0794842
0.533639 0.291508 0.0841535
0.566354 0.295781 0.089662
0.59884 0.300511 0.0944076
0.630304 0.305333 0.099321
0.661585 0.310597 0.103426
0.691905 0.316335 0.107851
0.722011 0.321981 0.111864
0.75172 0.327947 0.115633
0.780529 0.333898 0.119463
0.809567 0.340215 0.122911
0.837858 0.346777 0.125246
0.865522 0.353414 0.128206
0.893233 0.360189 0.130816
0.919402 0.366964 0.132433
0.945434 0.374044 0.13463
0.970489 0.38146 0.136004
0.992569 0.387228 0.137316
0.998001 0.389868 0.138628
0.0334936 0.264088 0.125475
0.0337377 0.26331 0.112947
0.0341802 0.262242 0.0961471
0.0393835 0.263737 0.0806897
0.0580148 0.273213 0.0837262
0.0859541 0.283848 0.0889754
0.120424 0.293919 0.0991073
0.165255 0.300603 0.109773
0.223362 0.302861 0.112581
0.290593 0.303456 0.101106
0.343679 0.306798 0.0878614
0.38732 0.312413 0.0831922
0.427329 0.316197 0.0831617
0.464179 0.318715 0.0839094
0.49984 0.321874 0.0857862
0.534447 0.32549 0.0885328
0.568353 0.329183 0.0928969
0.601144 0.333272 0.0971084
0.633249 0.337545 0.100969
0.664668 0.342016 0.106126
0.69514 0.347082 0.109911
0.725765 0.3523 0.113985
0.75523 0.357824 0.11809
0.784497 0.363592 0.121508
0.813291 0.36939 0.124392
0.841428 0.37554 0.127672
0.869047 0.381704 0.130373
0.896132 0.387961 0.132753
0.922362 0.394583 0.13518
0.948196 0.401404 0.137133
0.973144 0.408408 0.138567
0.994263 0.413504 0.139574
0.99707 0.415976 0.140398
0.0342412 0.297856 0.141543
0.0344244 0.297078 0.129641
0.0346227 0.296544 0.115297
0.0357519 0.295995 0.0923476
0.052903 0.30222 0.0938582
0.0791943 0.313161 0.0971542
0.111452 0.323842 0.104631
0.153262 0.331701 0.116732
0.208499 0.335622 0.12314
0.273899 0.335775 0.122866
0.332494 0.338384 0.112123
0.378515 0.343771 0.10042
0.421683 0.349081 0.0949111
0.461692 0.353765 0.0951553
0.498863 0.356344 0.0953994
0.534234 0.359121 0.096437
0.568673 0.362539 0.0974289
0.602289 0.3664 0.100587
0.635187 0.370108 0.105058
0.667109 0.374426 0.108782
0.698726 0.378912 0.112947
0.729259 0.383627 0.116945
0.759075 0.388769 0.12015
0.788525 0.393668 0.123781
0.81677 0.399054 0.126802
0.845106 0.4047 0.130114
0.872572 0.41059 0.132555
0.899535 0.416724 0.134691
0.925704 0.423041 0.136873
0.951278 0.429435 0.138567
0.975647 0.436316 0.140383
0.995499 0.440833 0.141054
0.995926 0.443137 0.141985
0.0348058 0.331746 0.155673
0.0349889 0.330922 0.145708
0.0351873 0.329778 0.132738
0.0358129 0.328023 0.111208
0.049012 0.331945 0.10312
0.0730297 0.342168 0.106065
0.104067 0.353124 0.110552
0.143282 0.362203 0.121462
0.195972 0.367041 0.131441
0.259586 0.368063 0.133593
0.319677 0.370092 0.134234
0.368277 0.374502 0.124346
0.41323 0.380301 0.113176
0.455985 0.385946 0.106188
0.496345 0.390967 0.106249
0.533257 0.393881 0.105776
0.568627 0.396567 0.105943
0.602991 0.399664 0.10663
0.636057 0.403174 0.108843
0.668788 0.406806 0.11252
0.700587 0.410773 0.115663
0.731823 0.415106 0.118837
0.762066 0.419577 0.122454
0.791424 0.424475 0.125933
0.820523 0.429496 0.128985
0.848829 0.434821 0.131502
0.875975 0.440406 0.134005
0.902907 0.446097 0.13637
0.928908 0.452018 0.138247
0.953857 0.457923 0.139757
0.977966 0.4645 0.141314
0.995056 0.468757 0.142214
0.99501 0.470985 0.143175
0.0363012 0.364477 0.168322
0.0364385 0.363684 0.159152
0.0363775 0.362661 0.147875
0.0368048 0.360922 0.128771
0.0455329 0.361913 0.11284
0.0692149 0.370993 0.115312
0.0984054 0.381918 0.118334
0.13521 0.39173 0.126558
0.185046 0.397711 0.136858
0.247135 0.399527 0.141939
0.308324 0.401541 0.143557
0.357244 0.405783 0.145022
0.403693 0.411063 0.135607
0.448112 0.416434 0.124712
0.489647 0.421942 0.116793
0.530556 0.427298 0.116365
0.567269 0.430747 0.115465
0.602625 0.433356 0.115373
0.63679 0.436423 0.115862
0.669703 0.439872 0.116777
0.701762 0.443534 0.118746
0.733547 0.447333 0.121889
0.764172 0.451575 0.12491
0.793896 0.455695 0.127352
0.823331 0.460395 0.130175
0.85127 0.465278 0.132647
0.879179 0.470359 0.134844
0.905821 0.475853 0.13695
0.931594 0.481437 0.138659
0.956771 0.487312 0.140703
0.980835 0.493523 0.141985
0.994125 0.496956 0.14255
0.994064 0.499489 0.143893
0.0378119 0.39646 0.180606
0.0378729 0.39585 0.172
0.0378119 0.394888 0.160967
0.0379339 0.392981 0.144274
0.0431373 0.392706 0.124361
0.0668803 0.399268 0.124315
0.0945907 0.410132 0.126192
0.12845 0.420829 0.132174
0.17586 0.427726 0.141421
0.235615 0.430289 0.147311
0.296895 0.432166 0.149691
0.347951 0.436393 0.153033
0.393576 0.441871 0.154116
0.438758 0.446723 0.144274
0.482353 0.452094 0.134417
0.523323 0.457832 0.126192
0.563577 0.462928 0.125002
0.600946 0.467079 0.124315
0.635843 0.469841 0.123598
0.669566 0.472694 0.123629
0.702312 0.47602 0.123781
0.734066 0.479667 0.124788
0.765209 0.483482 0.127108
0.79556 0.487373 0.129381
0.82504 0.491768 0.13135
0.853864 0.496223 0.133745
0.881529 0.50103 0.135836
0.908217 0.506172 0.13756
0.934661 0.511452 0.139528
0.95935 0.517021 0.141054
0.98323 0.522774 0.142596
0.993362 0.525811 0.143587
0.993362 0.527977 0.144305
0.0390631 0.427955 0.190906
0.0391241 0.4271 0.182696
0.0390631 0.425925 0.172625
0.0390631 0.424048 0.156237
0.0415198 0.423499 0.134646
0.0646067 0.427741 0.132753
0.0914015 0.43801 0.134585
0.123552 0.448981 0.138186
0.167895 0.457023 0.145449
0.225483 0.460227 0.15079
0.287648 0.462119 0.154864
0.339559 0.466468 0.15816
0.384848 0.471641 0.161624
0.429099 0.477272 0.16173
0.473915 0.482216 0.152087
0.515923 0.487556 0.142107
0.556741 0.493202 0.134218
0.596475 0.498589 0.132616
0.634028 0.50309 0.131991
0.66865 0.506127 0.130663
0.701946 0.508843 0.129564
0.734279 0.511925 0.129488
0.765515 0.515465 0.129793
0.795987 0.519173 0.130495
0.826032 0.52314 0.132387
0.854841 0.527352 0.134142
0.882948 0.531792 0.135775
0.910246 0.536446 0.13785
0.936187 0.541466 0.139528
0.960952 0.54699 0.140978
0.98526 0.552438 0.142489
0.992538 0.554818 0.143038
0.992416 0.557229 0.144335
0.0398871 0.458579 0.199542
0.0399481 0.457755 0.191775
0.0400092 0.456611 0.182086
0.0399481 0.454627 0.166384
0.0401312 0.453803 0.143587
0.0628214 0.456306 0.140764
0.0895857 0.465843 0.141558
0.120119 0.476616 0.144778
0.161852 0.485557 0.148363
0.217136 0.489754 0.153384
0.279088 0.491508 0.156634
0.332036 0.495796 0.162081
0.37734 0.501213 0.165957
0.421408 0.50692 0.168429
0.464393 0.512169 0.167849
0.508186 0.517205 0.157656
0.549645 0.522774 0.14818
0.590066 0.528161 0.140215
0.628534 0.533593 0.137285
0.666819 0.538872 0.137423
0.700862 0.541863 0.13608
0.7337 0.544762 0.134539
0.765652 0.547738 0.134371
0.796475 0.551217 0.134127
0.826413 0.554986 0.134447
0.855512 0.558877 0.135515
0.884062 0.562844 0.137087
0.911238 0.567437 0.138186
0.937499 0.572091 0.139712
0.962936 0.576974 0.141314
0.986465 0.582162 0.142123
0.991531 0.584497 0.142962
0.991531 0.586496 0.143816
0.0398871 0.488457 0.206653
0.039826 0.487526 0.19884
0.0400092 0.486534 0.189548
0.0399481 0.484627 0.174746
0.0400702 0.484825 0.152453
0.0616007 0.485374 0.148043
0.0884718 0.49337 0.147646
0.118029 0.504112 0.14992
0.157717 0.51342 0.152697
0.21059 0.518395 0.155428
0.271626 0.520531 0.157855
0.325521 0.524392 0.16289
0.370474 0.530312 0.168536
0.414511 0.535897 0.17203
0.456931 0.541588 0.173053
0.499641 0.546929 0.172076
0.542107 0.552087 0.161395
0.582727 0.557275 0.152331
0.622507 0.562799 0.144335
0.660655 0.568307 0.141375
0.698039 0.573449 0.141604
0.732418 0.577127 0.140581
0.76463 0.579934 0.13872
0.796063 0.582986 0.137865
0.826459 0.586374 0.137179
0.85568 0.589975 0.137041
0.884077 0.593881 0.137316
0.911711 0.598001 0.138308
0.93817 0.602411 0.1393
0.963272 0.607248 0.140459
0.987762 0.612192 0.141588
0.990768 0.613962 0.142428
0.990768 0.616205 0.142824
0.0395056 0.517678 0.21239
0.0393835 0.516625 0.204532
0.0393225 0.515312 0.194842
0.0392615 0.514061 0.180911
0.0393835 0.515679 0.158724
0.0610971 0.515068 0.154269
0.0879683 0.520882 0.153628
0.116732 0.531197 0.154681
0.154681 0.540459 0.156054
0.205325 0.546502 0.157351
0.26569 0.548699 0.158846
0.319448 0.552651 0.162768
0.364523 0.558511 0.168872
0.40795 0.564614 0.173144
0.450675 0.570291 0.175036
0.492531 0.575936 0.176135
0.534386 0.580896 0.174304
0.575708 0.586252 0.163638
0.615976 0.591562 0.155062
0.65449 0.596948 0.146838
0.692363 0.602365 0.143969
0.728939 0.607797 0.143664
0.763348 0.612039 0.143648
0.795102 0.615061 0.142077
0.825757 0.618006 0.140749
0.855589 0.62121 0.139635
0.884123 0.62475 0.13904
0.911879 0.62887 0.1393
0.93814 0.632975 0.139284
0.963775 0.637293 0.140307
0.987686 0.642115 0.140749
0.990143 0.644083 0.141329
0.990082 0.645884 0.14049
0.0381933 0.546197 0.215824
0.0382544 0.545083 0.208164
0.0378729 0.544015 0.198825
0.0378729 0.544198 0.184863
0.037995 0.546365 0.163027
0.0606699 0.545129 0.159228
0.087602 0.54818 0.158724
0.116335 0.557961 0.158526
0.153414 0.56701 0.159823
0.201358 0.573754 0.159838
0.259785 0.576608 0.159152
0.314443 0.580377 0.161837
0.359121 0.586343 0.167376
0.402457 0.592615 0.172656
0.444465 0.598337 0.17557
0.486442 0.604334 0.176547
0.52752 0.609537 0.176837
0.568627 0.614862 0.174426
0.609003 0.619959 0.16408
0.648539 0.625238 0.155489
0.686336 0.630838 0.14847
0.723629 0.636164 0.144976
0.758907 0.641443 0.144732
0.793713 0.64654 0.145769
0.824674 0.649516 0.143969
0.854658 0.652522 0.142504
0.883711 0.655756 0.14139
0.911681 0.659312 0.140612
0.93817 0.663355 0.140276
0.963653 0.667567 0.140368
0.987976 0.672099 0.140444
0.989425 0.673838 0.140856
0.989425 0.675685 0.140444
0.0361181 0.574075 0.218128
0.035935 0.573175 0.210605
0.035874 0.573739 0.201907
0.0358129 0.575082 0.187564
0.0376287 0.576822 0.167193
0.0607919 0.57528 0.163912
0.0878462 0.575952 0.163073
0.115755 0.584558 0.162387
0.152087 0.593408 0.163027
0.19852 0.600381 0.161776
0.255253 0.603815 0.159396
0.309621 0.607797 0.160708
0.354482 0.613565 0.164904
0.397101 0.61976 0.170169
0.439353 0.626001 0.17406
0.480613 0.631937 0.175509
0.521721 0.63769 0.175906
0.562448 0.643122 0.175311
0.602075 0.64831 0.172122
0.641993 0.653361 0.16202
0.680476 0.658824 0.154253
0.717525 0.663951 0.147784
0.753964 0.669352 0.144244
0.788724 0.674815 0.144427
0.822751 0.679973 0.145861
0.853544 0.683436 0.145037
0.882689 0.686488 0.143404
0.910597 0.689784 0.142016
0.937865 0.693263 0.141238
0.963455 0.697246 0.141039
0.987549 0.701595 0.140383
0.988922 0.703624 0.140902
0.988922 0.70518 0.141176
0.0334173 0.602823 0.219547
0.0332952 0.603525 0.212451
0.0332952 0.604334 0.203403
0.0332799 0.605615 0.188617
0.0374762 0.606943 0.170687
0.0615091 0.60528 0.167666
0.0884108 0.604822 0.166278
0.115999 0.611032 0.165484
0.151461 0.61944 0.165026
0.196704 0.626352 0.16379
0.251835 0.630335 0.160464
0.305745 0.634562 0.159396
0.350225 0.640604 0.162203
0.392569 0.646845 0.166308
0.434684 0.653162 0.170794
0.475288 0.659281 0.172702
0.516426 0.664973 0.173449
0.556619 0.670512 0.173144
0.59649 0.675929 0.171695
0.635767 0.681346 0.168048
0.674464 0.686076 0.158251
0.712032 0.691539 0.151019
0.748638 0.696864 0.144839
0.783581 0.702083 0.141329
0.818158 0.707347 0.142077
0.850828 0.712825 0.144244
0.881773 0.717098 0.145892
0.909926 0.720211 0.143938
0.937041 0.723522 0.142626
0.962844 0.727092 0.14168
0.987396 0.731136 0.141176
0.988647 0.732998 0.14136
0.988586 0.734661 0.141924
0.0303655 0.633112 0.220462
0.0303044 0.633844 0.212879
0.0301061 0.634775 0.203449
0.0300603 0.63621 0.18732
0.0377203 0.636759 0.172747
0.0623484 0.634867 0.170443
0.0891585 0.634394 0.168856
0.116442 0.637415 0.168246
0.1514 0.645502 0.166995
0.195743 0.652094 0.165362
0.249363 0.656031 0.161669
0.302235 0.660746 0.158968
0.34696 0.666773 0.159655
0.388296 0.673259 0.162341
0.429847 0.679759 0.165881
0.470939 0.685924 0.168475
0.511254 0.692027 0.169787
0.551507 0.69749 0.168994
0.591043 0.703105 0.167758
0.630152 0.708583 0.166079
0.668513 0.713558 0.161471
0.706722 0.718624 0.151949
0.743358 0.724071 0.145235
0.778851 0.729122 0.139635
0.81323 0.734554 0.136172
0.84686 0.739773 0.137713
0.878309 0.744915 0.140978
0.908904 0.749828 0.145022
0.93611 0.753033 0.143999
0.961883 0.75642 0.142763
0.986297 0.760235 0.142107
0.988174 0.762097 0.142168
0.988113 0.763775 0.144839
0.0270848 0.663417 0.22034
0.0270848 0.664164 0.212116
0.0268864 0.665034 0.201678
0.0264134 0.66627 0.184298
0.0377661 0.666285 0.174929
0.0626993 0.664271 0.172412
0.0900282 0.663523 0.170993
0.117327 0.664576 0.170794
0.151766 0.670863 0.168887
0.194888 0.677363 0.166644
0.247379 0.681392 0.162478
0.299687 0.685924 0.15903
0.343908 0.692164 0.158221
0.385031 0.699138 0.159213
0.425818 0.705882 0.161151
0.4663 0.712139 0.162783
0.506752 0.718379 0.164446
0.546471 0.724147 0.163958
0.586206 0.729778 0.162203
0.624811 0.735302 0.159899
0.663493 0.740505 0.157321
0.701366 0.745724 0.152193
0.737987 0.750469 0.142763
0.773861 0.755673 0.136843
0.808698 0.761212 0.13106
0.842206 0.766308 0.128069
0.874662 0.771511 0.130327
0.905501 0.776715 0.13576
0.934691 0.781704 0.144228
0.960967 0.78529 0.144884
0.985519 0.78883 0.14374
0.988006 0.791119 0.143557
0.98793 0.792294 0.14786
0.0244297 0.693278 0.219287
0.0243534 0.694026 0.210544
0.0242161 0.694835 0.198901
0.0245365 0.69601 0.179492
0.0390784 0.695338 0.176837
0.0640116 0.693462 0.174136
0.0913405 0.692592 0.172778
0.118395 0.692851 0.17261
0.152178 0.695949 0.170474
0.194537 0.702205 0.16733
0.245686 0.70634 0.162844
0.297536 0.710735 0.159335
0.341558 0.716793 0.157595
0.381994 0.723995 0.15758
0.422415 0.73106 0.157961
0.462455 0.737545 0.158022
0.502327 0.744137 0.158556
0.542168 0.749935 0.158709
0.581476 0.755764 0.157092
0.620249 0.761257 0.154421
0.658457 0.766522 0.151705
0.696223 0.771725 0.149401
0.732738 0.776654 0.144045
0.768826 0.781552 0.137407
0.803738 0.78674 0.132433
0.837308 0.791959 0.127138
0.870466 0.797253 0.123598
0.901793 0.802747 0.123339
0.931807 0.807736 0.128511
0.959304 0.81297 0.140536
0.984833 0.817151 0.146975
0.987945 0.819318 0.146548
0.987884 0.820493 0.151156
0.0222477 0.722927 0.218067
0.0222477 0.723613 0.208194
0.0221256 0.724468 0.194659
0.0251469 0.725155 0.179675
0.0407111 0.72398 0.177584
0.0654154 0.721935 0.175113
0.0928054 0.72137 0.17438
0.119951 0.721508 0.173846
0.152819 0.721675 0.171817
0.19408 0.726833 0.168017
0.244434 0.730877 0.163149
0.29604 0.735088 0.159152
0.340002 0.741115 0.15729
0.379767 0.748425 0.156786
0.419181 0.755291 0.156512
0.458793 0.762188 0.156115
0.49865 0.768551 0.155886
0.537835 0.774701 0.155779
0.577173 0.780545 0.154986
0.615702 0.785946 0.152667
0.653483 0.791638 0.150179
0.691341 0.796841 0.148226
0.727718 0.801663 0.145235
0.763729 0.806775 0.140673
0.798627 0.811521 0.135149
0.83238 0.816617 0.130266
0.865354 0.822095 0.126772
0.897368 0.82742 0.123476
0.927657 0.832807 0.122026
0.957031 0.838285 0.123507
0.983063 0.843427 0.135973
0.987839 0.846906 0.148714
0.987778 0.848264 0.15581
0.0203403 0.752377 0.215534
0.0203403 0.753048 0.204288
0.0201572 0.753857 0.188617
0.0263218 0.753613 0.179919
0.0422827 0.75256 0.178439
0.0667887 0.750561 0.175937
0.0935073 0.74963 0.17464
0.121462 0.749935 0.17435
0.153872 0.749279 0.172366
0.193591 0.751247 0.168215
0.24361 0.755047 0.163088
0.294209 0.759274 0.158846
0.337789 0.765026 0.156481
0.377523 0.772366 0.155856
0.416678 0.779248 0.155169
0.455741 0.785992 0.154498
0.495048 0.792569 0.154101
0.534157 0.79855 0.15346
0.57322 0.804608 0.153079
0.611368 0.810315 0.15172
0.649195 0.815824 0.149264
0.686351 0.821027 0.147036
0.723171 0.826047 0.144869
0.758633 0.831235 0.141939
0.793774 0.835874 0.138155
0.82771 0.840848 0.132967
0.860639 0.846067 0.130037
0.892561 0.851225 0.127733
0.923201 0.856748 0.125109
0.952789 0.862074 0.125124
0.980163 0.867643 0.12462
0.988022 0.872236 0.128557
0.987961 0.874418 0.149294
0.0181888 0.781064 0.212512
0.0182498 0.781811 0.199725
0.0187381 0.782742 0.181704
0.0280461 0.781811 0.180163
0.0439307 0.780499 0.178546
0.0682383 0.77879 0.176303
0.0950484 0.777768 0.174914
0.122301 0.777783 0.17435
0.155047 0.777218 0.172671
0.193454 0.775952 0.168643
0.242344 0.779034 0.16321
0.292439 0.783093 0.158846
0.336416 0.788739 0.156146
0.375662 0.795789 0.155093
0.41442 0.802686 0.154238
0.453544 0.809552 0.153628
0.49221 0.815885 0.152758
0.530663 0.822049 0.152087
0.569406 0.828122 0.151125
0.607401 0.833753 0.150225
0.644938 0.839567 0.148241
