code/data/lut/33蓝绿亮色2.cube
TITLE "LD - Pacific Coast 2"
# Copyright (c) 2019 Lens Distortions, LLC. All Rights Reserved.
# LensDistortions.com
# ref-PC1
LUT_3D_SIZE 5
0.0138094 0.0136721 0.0136873
0.179507 0.0465248 0.0400702
0.460014 0.0979019 0.0661631
0.68246 0.147433 0.102235
0.922957 0.183597 0.109804
0.0370642 0.208484 0.114336
0.209232 0.235676 0.0929427
0.482628 0.25333 0.0905318
0.710079 0.282628 0.114122
0.940948 0.308446 0.114626
0.0416419 0.415076 0.185534
0.133303 0.436027 0.144396
0.460319 0.469947 0.14905
0.732601 0.495628 0.12668
0.969512 0.50779 0.120256
0.0201572 0.619394 0.185718
0.122026 0.618906 0.151812
0.415869 0.669367 0.139223
0.701732 0.714702 0.123644
0.980087 0.742779 0.1299
0.00579843 0.818814 0.15494
0.116335 0.816098 0.153674
0.386908 0.847837 0.139422
0.659525 0.91075 0.137484
0.952682 0.959686 0.144091
0.018204 0.0182956 0.158526
0.235279 0.0488899 0.257374
0.478386 0.0972763 0.244831
0.694759 0.146883 0.246143
0.929061 0.182101 0.249744
0.0237125 0.23711 0.273335
0.223499 0.238407 0.251102
0.467399 0.254734 0.249973
0.696971 0.286122 0.257435
0.934249 0.313329 0.257572
0.0433356 0.438071 0.281193
0.186282 0.450797 0.272602
0.46865 0.474037 0.267704
0.727779 0.49543 0.268788
0.959365 0.511269 0.272251
0.0207065 0.631464 0.281178
0.135302 0.650095 0.277012
0.423087 0.681147 0.269337
0.7066 0.719936 0.27303
0.980392 0.742977 0.2869
0.00637827 0.819745 0.286244
0.11606 0.826017 0.285252
0.388724 0.874693 0.271733
0.666529 0.929366 0.274739
0.964599 0.970886 0.275074
0.0404974 0.0446479 0.363226
0.233158 0.0814069 0.472984
0.50016 0.0988479 0.486137
0.736721 0.146914 0.478172
0.956832 0.173053 0.471794
0.0433967 0.243534 0.489021
0.226612 0.240375 0.477317
0.487633 0.251881 0.477653
0.719097 0.283528 0.470588
0.943771 0.310887 0.468452
0.0112764 0.473045 0.503273
0.191852 0.4701 0.491493
0.474968 0.481071 0.485954
0.711177 0.498039 0.485374
0.952331 0.513848 0.483833
0.0160983 0.672847 0.482841
0.141421 0.682322 0.482322
0.434669 0.698039 0.47921
0.712978 0.725734 0.491661
0.97641 0.742931 0.506172
0.00677501 0.858671 0.476677
0.115618 0.868391 0.47837
0.385702 0.906554 0.472389
0.671687 0.953216 0.47483
0.982559 0.987274 0.459892
0.0816663 0.0990005 0.618112
0.233158 0.114244 0.6851
0.483543 0.128985 0.715267
0.749996 0.142885 0.742229
0.983078 0.159121 0.741115
0.0716716 0.246571 0.7205
0.237415 0.246784 0.710918
0.480629 0.259419 0.720653
0.739696 0.278676 0.734569
0.979171 0.289235 0.731823
0.0216068 0.48777 0.758099
0.2094 0.481102 0.746197
0.473411 0.480415 0.735149
0.730816 0.491951 0.734997
0.967651 0.507408 0.724422
0.00505074 0.707897 0.732906
0.12372 0.710018 0.734127
0.442405 0.713237 0.731487
0.720256 0.731945 0.744152
0.966888 0.745663 0.744106
0.00492866 0.902068 0.71426
0.111452 0.90811 0.715572
0.368734 0.937423 0.719875
0.671229 0.969589 0.731075
0.98761 0.992248 0.736889
0.10901 0.142153 0.876173
0.256077 0.143435 0.909056
0.483482 0.15465 0.931579
0.742809 0.166842 0.954177
0.990341 0.150576 0.965591
0.096025 0.259861 0.935958
0.223468 0.237186 0.972595
0.490135 0.246601 0.96817
0.746288 0.271122 0.965393
0.986267 0.285618 0.963134
0.0488899 0.486625 0.969421
0.199191 0.481743 0.972168
0.472023 0.478569 0.968521
0.730602 0.490288 0.967575
0.982086 0.500694 0.965087
0.011368 0.72726 0.973938
0.128038 0.727062 0.978622
0.454429 0.725521 0.975952
0.718517 0.731899 0.977508
0.981643 0.740017 0.975784
0.00782788 0.93579 0.956771
0.112551 0.939361 0.958816
0.370642 0.954269 0.972305
0.661036 0.980987 0.993591
0.991165 0.99559 1
