code/data/lut/33蓝绿亮色3.cube
TITLE "LD - Pacific Coast 3"
# Copyright (c) 2019 Lens Distortions, LLC. All Rights Reserved.
# LensDistortions.com
# ref-PC1
LUT_3D_SIZE 5
0.0123293 0.012192 0.0119936
0.198764 0.0411231 0.0354925
0.53814 0.0972152 0.0637522
0.785702 0.171237 0.108278
1 0.238041 0.133318
0.032929 0.230076 0.109392
0.242237 0.26949 0.090135
0.566354 0.295781 0.089662
0.809567 0.340215 0.122911
0.998001 0.389868 0.138628
0.0398871 0.488457 0.206653
0.157717 0.51342 0.152697
0.542107 0.552087 0.161395
0.826459 0.586374 0.137179
0.990768 0.616205 0.142824
0.0222477 0.722927 0.218067
0.152819 0.721675 0.171817
0.49865 0.768551 0.155886
0.798627 0.811521 0.135149
0.987778 0.848264 0.15581
0.0138094 0.93138 0.200168
0.165835 0.924697 0.19472
0.482033 0.941482 0.173159
0.772045 0.983749 0.166079
0.993042 0.999893 0.184543
0.0158389 0.0162203 0.167819
0.260227 0.041825 0.279225
0.560922 0.0981613 0.280583
0.797925 0.171252 0.293889
1 0.235966 0.317784
0.0205081 0.264485 0.307301
0.259129 0.273472 0.286854
0.548821 0.297063 0.289281
0.795743 0.342794 0.306569
0.998199 0.392889 0.323659
0.0420081 0.515541 0.329213
0.219745 0.5299 0.3187
0.550301 0.555459 0.313191
0.820111 0.584054 0.319249
0.991531 0.616114 0.337316
0.0239109 0.735332 0.339605
0.169574 0.753277 0.334142
0.504982 0.77821 0.322042
0.799939 0.813291 0.325063
0.988327 0.843992 0.354131
0.0151064 0.930144 0.366491
0.164172 0.931685 0.363012
0.483299 0.961807 0.343374
0.775891 0.993545 0.339712
0.994324 0.999893 0.34548
0.0352789 0.0395666 0.41886
0.263615 0.0761578 0.545846
0.587411 0.101732 0.570809
0.840116 0.174792 0.573434
1 0.229831 0.585382
0.0398871 0.277729 0.568109
0.263584 0.277089 0.557321
0.572427 0.294728 0.560525
0.817304 0.340795 0.560174
0.997772 0.390417 0.574762
0.0101625 0.553628 0.587396
0.226825 0.552193 0.575998
0.556863 0.562539 0.567285
0.80264 0.584772 0.570703
0.990555 0.615976 0.582986
0.0203403 0.778851 0.578683
0.177447 0.785718 0.575891
0.516655 0.792554 0.565911
0.802548 0.815183 0.576303
0.987549 0.839216 0.600595
0.0164034 0.965286 0.594034
0.166339 0.968383 0.592416
0.481285 0.984512 0.579324
0.777646 1 0.571038
0.99469 0.999649 0.553262
0.0793622 0.0971237 0.708949
0.273381 0.11812 0.780575
0.573114 0.143221 0.81416
0.856352 0.174197 0.851179
1 0.219257 0.870771
0.0730602 0.287495 0.81532
0.279393 0.288594 0.805142
0.567239 0.306538 0.815442
0.839719 0.338949 0.836881
0.997635 0.372457 0.853544
0.0220035 0.575692 0.852445
0.249928 0.567086 0.838788
0.556481 0.563546 0.82472
0.822309 0.579812 0.827985
0.989853 0.610956 0.832242
0.00924697 0.816022 0.840101
0.159792 0.815152 0.838315
0.525536 0.806729 0.824338
0.808591 0.818998 0.83154
0.986557 0.838346 0.837919
0.0220188 1 0.848234
0.169116 1 0.843946
0.46482 0.999512 0.837034
0.77438 0.998642 0.832105
0.993683 0.998428 0.829694
0.12549 0.157687 0.957443
0.307469 0.163531 0.981964
0.578393 0.184878 0.998383
0.85449 0.211215 1
1 0.215351 0.999863
0.110689 0.310307 1
0.271763 0.284703 1
0.585382 0.299168 1
0.853422 0.335683 1
0.998398 0.375067 0.999863
0.0560616 0.582055 1
0.24387 0.574075 1
0.560189 0.567361 1
0.826978 0.58294 1
0.990799 0.609522 0.999985
0.035996 0.841047 1
0.175784 0.836576 1
0.543435 0.821881 0.999191
0.808759 0.82211 0.999313
0.987457 0.835767 0.99968
0.0247807 1 1
0.175433 1 1
0.467018 0.999939 1
0.764752 0.999374 1
0.995056 0.999435 1
