code/data/lut/33蓝绿亮色2.cube
TITLE "LD - Pacific Coast 2"
# Copyright (c) 2019 Lens Distortions, LLC. All Rights Reserved.
# LensDistortions.com
# ref-PC1
LUT_3D_SIZE 9
0.0138094 0.0136721 0.0136873
0.0632029 0.0253605 0.0245518
0.179507 0.0465248 0.0400702
0.353262 0.0709087 0.05243
0.460014 0.0979019 0.0661631
0.56669 0.123552 0.0832227
0.68246 0.147433 0.102235
0.803281 0.168917 0.110552
0.922957 0.183597 0.109804
0.0238346 0.089662 0.0422675
0.0919356 0.120226 0.0444648
0.227665 0.131868 0.0475929
0.357198 0.140063 0.0585031
0.468284 0.157015 0.0762951
0.580896 0.176898 0.0934005
0.695872 0.197543 0.105638
0.814939 0.217319 0.110491
0.930846 0.230396 0.108156
0.0370642 0.208484 0.114336
0.0674144 0.216968 0.0790875
0.209232 0.235676 0.0929427
0.366354 0.243183 0.0756085
0.482628 0.25333 0.0905318
0.59556 0.267216 0.104921
0.710079 0.282628 0.114122
0.828687 0.298314 0.117067
0.940948 0.308446 0.114626
0.039765 0.313924 0.160159
0.0487678 0.311254 0.113924
0.158785 0.339651 0.133852
0.342733 0.349248 0.131243
0.483238 0.364874 0.113725
0.606332 0.373465 0.114748
0.726955 0.383871 0.12076
0.847593 0.395651 0.122362
0.955444 0.402594 0.119905
0.0416419 0.415076 0.185534
0.0417639 0.411841 0.144778
0.133303 0.436027 0.144396
0.31342 0.450568 0.154513
0.460319 0.469947 0.14905
0.603342 0.487297 0.132616
0.732601 0.495628 0.12668
0.860121 0.50396 0.123781
0.969512 0.50779 0.120256
0.03299 0.512566 0.192096
0.0370642 0.515557 0.154376
0.125277 0.527352 0.150729
0.293797 0.547402 0.146899
0.43566 0.571725 0.156359
0.579904 0.591562 0.144579
0.724453 0.609613 0.130251
0.86154 0.619883 0.126146
0.977188 0.62237 0.119173
0.0201572 0.619394 0.185718
0.036347 0.619013 0.153826
0.122026 0.618906 0.151812
0.280812 0.639735 0.139422
0.415869 0.669367 0.139223
0.556848 0.694331 0.135729
0.701732 0.714702 0.123644
0.849348 0.733318 0.110552
0.980087 0.742779 0.1299
0.00895705 0.726772 0.17023
0.0354162 0.723354 0.148318
0.119326 0.722667 0.14789
0.269947 0.730327 0.134432
0.399985 0.762188 0.132189
0.5364 0.791547 0.1308
0.678614 0.816815 0.127474
0.825833 0.838117 0.122835
0.968063 0.854826 0.123217
0.00579843 0.818814 0.15494
0.0357977 0.815351 0.151598
0.116335 0.816098 0.153674
0.261189 0.814099 0.142321
0.386908 0.847837 0.139422
0.52015 0.880812 0.13875
0.659525 0.91075 0.137484
0.80528 0.937392 0.138186
0.952682 0.959686 0.144091
0.0151827 0.0151827 0.0635996
0.0746471 0.0262913 0.108522
0.204227 0.0469062 0.136599
0.360739 0.0699016 0.149554
0.460945 0.0968032 0.149355
0.56759 0.122545 0.154635
0.683833 0.146883 0.163546
0.804303 0.168688 0.16875
0.923201 0.183337 0.168566
0.0230411 0.109377 0.146532
0.0945296 0.122011 0.142473
0.211902 0.130709 0.146044
0.346731 0.138689 0.14789
0.459709 0.156924 0.155993
0.573175 0.17847 0.164858
0.68925 0.200534 0.171267
0.809216 0.220554 0.174029
0.927489 0.233921 0.172473
0.0363012 0.219211 0.176959
0.088777 0.224384 0.164736
0.217639 0.234546 0.163439
0.362371 0.240192 0.157107
0.473625 0.252384 0.164797
0.585672 0.26717 0.171115
0.701411 0.283711 0.175433
0.820935 0.299672 0.176364
0.936385 0.310369 0.173709
0.0403296 0.323018 0.198871
0.0847486 0.328893 0.192584
0.167254 0.342824 0.17882
0.34667 0.350332 0.178332
0.482383 0.363684 0.17293
0.601831 0.372717 0.176425
0.718791 0.38436 0.18201
0.838102 0.396765 0.183658
0.949508 0.404639 0.181186
0.0422065 0.423316 0.21767
0.0823682 0.429999 0.212833
0.140734 0.441932 0.1879
0.316854 0.453361 0.19382
0.462623 0.471138 0.193744
0.603937 0.487831 0.18819
0.730663 0.495323 0.186221
0.85507 0.504097 0.186511
0.964523 0.509163 0.185977
0.033051 0.519615 0.222934
0.0747082 0.5243 0.219287
0.126192 0.538064 0.193057
0.297765 0.551583 0.192264
0.437644 0.57406 0.200244
0.581399 0.593118 0.196643
0.724971 0.610346 0.193317
0.860151 0.619608 0.19295
0.97586 0.622492 0.1906
0.0206455 0.619333 0.219669
0.0599222 0.615351 0.214298
0.122683 0.630106 0.200031
0.283238 0.648203 0.189532
0.418479 0.674174 0.193469
0.559167 0.697581 0.193118
0.70399 0.717342 0.187091
0.850858 0.734127 0.190677
0.980087 0.742718 0.203632
0.00924697 0.726772 0.218601
0.0433051 0.721798 0.213062
0.119387 0.723171 0.207645
0.271504 0.742016 0.194903
0.401556 0.771588 0.193561
0.538796 0.79881 0.192599
0.681941 0.82208 0.190845
0.829633 0.842176 0.188266
0.973007 0.857359 0.187427
0.00596628 0.819364 0.218357
0.0359197 0.815534 0.214725
0.115999 0.816342 0.215473
0.263066 0.826123 0.204776
0.388785 0.858442 0.203555
0.521874 0.88986 0.203967
0.662608 0.918242 0.205173
0.808301 0.94345 0.204242
0.957732 0.96434 0.208927
0.018204 0.0182956 0.158526
0.0786297 0.0312352 0.208789
0.235279 0.0488899 0.257374
0.382696 0.0706951 0.259083
0.478386 0.0972763 0.244831
0.581643 0.123171 0.241505
0.694759 0.146883 0.246143
0.813519 0.168322 0.249363
0.929061 0.182101 0.249744
0.0280308 0.118853 0.250187
0.0971542 0.124819 0.248981
0.22829 0.128588 0.247364
0.358068 0.138354 0.240803
0.466117 0.157748 0.242863
0.577722 0.17937 0.247532
0.692348 0.20174 0.25214
0.811872 0.221744 0.254353
0.929061 0.23476 0.254032
0.0237125 0.23711 0.273335
0.0905318 0.233158 0.260578
0.223499 0.238407 0.251102
0.353002 0.243061 0.24683
0.467399 0.254734 0.249973
0.580743 0.26952 0.253773
0.696971 0.286122 0.257435
0.817151 0.302037 0.259022
0.934249 0.313329 0.257572
0.0342412 0.338766 0.283497
0.0891737 0.339727 0.27361
0.201892 0.346807 0.257282
0.353491 0.353765 0.255528
0.482567 0.363333 0.257267
0.596139 0.373785 0.261921
0.711955 0.385458 0.265126
0.83154 0.397879 0.266178
0.945724 0.406821 0.264073
0.0433356 0.438071 0.281193
0.0862287 0.442237 0.278767
0.186282 0.450797 0.272602
0.324117 0.459052 0.261875
0.46865 0.474037 0.267704
0.606027 0.48748 0.266835
0.727779 0.49543 0.268788
0.848402 0.504875 0.271946
0.959365 0.511269 0.272251
0.0331731 0.535958 0.28365
0.075761 0.53933 0.28101
0.163653 0.552132 0.278462
0.303731 0.559792 0.262608
0.442664 0.578759 0.271427
0.585351 0.595819 0.272725
0.727214 0.612009 0.274556
0.858961 0.619516 0.275868
0.973541 0.623545 0.277165
0.0207065 0.631464 0.281178
0.0604868 0.632517 0.278279
0.135302 0.650095 0.277012
0.28777 0.658717 0.263096
0.423087 0.681147 0.269337
0.562737 0.702068 0.27303
0.7066 0.719936 0.27303
0.85275 0.735866 0.279042
0.980392 0.742977 0.2869
0.00947585 0.727993 0.282139
0.0444495 0.726513 0.278767
0.123232 0.742367 0.280858
0.272526 0.757229 0.267338
0.404913 0.782528 0.269322
0.542275 0.807691 0.268956
0.686229 0.830137 0.264866
0.835111 0.847776 0.260822
0.978408 0.86041 0.270863
0.00637827 0.819745 0.286244
0.0356146 0.816037 0.282353
0.11606 0.826017 0.285252
0.260471 0.84477 0.273274
0.388724 0.874693 0.271733
0.524224 0.903334 0.272953
0.666529 0.929366 0.274739
0.813748 0.952239 0.274723
0.964599 0.970886 0.275074
0.0261845 0.0271 0.252781
0.0919966 0.0452125 0.312123
0.235401 0.0645914 0.363775
0.389242 0.072282 0.374075
0.496406 0.0981003 0.359915
0.603891 0.124666 0.351751
0.716487 0.147494 0.350973
0.832166 0.167895 0.350652
0.940322 0.178836 0.350347
0.0381323 0.125994 0.356817
0.10074 0.129259 0.35285
0.223728 0.133501 0.353689
0.368093 0.138231 0.354971
0.486686 0.156664 0.352789
0.595972 0.179049 0.350683
0.706554 0.201038 0.35108
0.823163 0.220661 0.352621
0.936172 0.232303 0.351904
0.0285801 0.244221 0.379446
0.0955215 0.240269 0.370184
0.223239 0.239704 0.359274
0.363729 0.241367 0.355322
0.478264 0.253788 0.351934
0.586999 0.269642 0.352239
0.70161 0.286336 0.354665
0.820447 0.302281 0.356558
0.936065 0.313909 0.356405
0.016083 0.356008 0.386999
0.0786297 0.35082 0.376516
0.21146 0.353414 0.365698
0.356115 0.358038 0.358328
0.46566 0.36907 0.355352
0.587655 0.376486 0.362127
0.705806 0.387503 0.363317
0.826535 0.399802 0.365301
0.94641 0.405753 0.3608
0.0279698 0.456107 0.393484
0.0798505 0.455894 0.387167
0.195712 0.460136 0.376043
0.33933 0.464973 0.361975
0.476234 0.476509 0.367727
0.602319 0.487419 0.370596
0.7196 0.496178 0.374701
0.839368 0.506111 0.376104
0.954589 0.513054 0.37464
0.0310521 0.554742 0.379049
0.0732128 0.55642 0.374731
0.173816 0.564538 0.372595
0.319905 0.569482 0.363638
0.448493 0.584604 0.367254
0.588556 0.598856 0.372625
0.728359 0.612604 0.378149
0.854383 0.619562 0.380743
0.968109 0.624811 0.385595
0.0203861 0.652049 0.37084
0.0595865 0.652186 0.367727
0.141863 0.665919 0.370352
0.298619 0.671641 0.362875
0.426719 0.689555 0.365515
0.566644 0.706859 0.372351
0.710018 0.722438 0.376608
0.85452 0.737301 0.385275
0.979141 0.742855 0.390768
0.0101015 0.74995 0.372396
0.0447089 0.748196 0.368734
0.123613 0.761944 0.371862
0.276097 0.772442 0.362844
0.407263 0.793423 0.366018
0.545739 0.815229 0.37055
0.68957 0.834531 0.371695
0.838117 0.850416 0.372808
0.980652 0.861692 0.385458
0.00656138 0.83505 0.373037
0.036286 0.833814 0.370291
0.115496 0.847089 0.374548
0.259297 0.862882 0.364675
0.387152 0.890791 0.364157
0.524437 0.918349 0.362829
0.668971 0.944167 0.355627
0.819959 0.963623 0.356893
0.973892 0.979294 0.354253
0.0404974 0.0446479 0.363226
0.108583 0.0666514 0.433799
0.233158 0.0814069 0.472984
0.372961 0.0887007 0.478172
0.50016 0.0988479 0.486137
0.617319 0.123445 0.480903
0.736721 0.146914 0.478172
0.856229 0.166705 0.474876
0.956832 0.173053 0.471794
0.0501259 0.133608 0.468986
0.105821 0.136645 0.462837
0.223102 0.140093 0.465904
0.362936 0.145663 0.470069
0.49189 0.156741 0.479515
0.613535 0.177401 0.478508
0.729778 0.199069 0.47451
0.844877 0.218128 0.470817
0.949416 0.227161 0.468788
0.0433967 0.243534 0.489021
0.101671 0.241779 0.484703
0.226612 0.240375 0.477317
0.361807 0.243168 0.474235
0.487633 0.251881 0.477653
0.607004 0.26627 0.475044
0.719097 0.283528 0.470588
0.834134 0.300252 0.469078
0.943771 0.310887 0.468452
0.0219883 0.363348 0.501823
0.0860304 0.359472 0.496162
0.216953 0.359045 0.48835
0.354803 0.358297 0.476905
0.478904 0.366094 0.466102
0.597864 0.374029 0.474845
0.711666 0.386297 0.47451
0.83032 0.399069 0.475746
0.948775 0.404822 0.473884
0.0112764 0.473045 0.503273
0.0636912 0.468009 0.496025
0.191852 0.4701 0.491493
0.345205 0.471382 0.480598
0.474968 0.481071 0.485954
0.574563 0.497017 0.469291
0.711177 0.498039 0.485374
0.833066 0.507454 0.485725
0.952331 0.513848 0.483833
0.0196078 0.573281 0.499123
0.0613413 0.572091 0.494301
0.17026 0.577417 0.492958
0.325429 0.578759 0.481529
0.458778 0.587808 0.505165
0.610651 0.596353 0.495933
0.724056 0.61265 0.493736
0.845151 0.62034 0.498283
0.961624 0.626642 0.499199
0.0160983 0.672847 0.482841
0.0552224 0.671611 0.479072
0.141421 0.682322 0.482322
0.303532 0.684123 0.47454
0.434669 0.698039 0.47921
0.570703 0.712367 0.485374
0.712978 0.725734 0.491661
0.8551 0.738735 0.501656
0.97641 0.742931 0.506172
0.00831617 0.772137 0.478264
0.0429084 0.76965 0.474357
0.122545 0.781216 0.478584
0.276539 0.788449 0.47187
0.411597 0.805158 0.47747
0.549111 0.823072 0.482216
0.692851 0.839368 0.487907
0.840818 0.852857 0.492454
0.982147 0.863447 0.505959
0.00677501 0.858671 0.476677
0.0365148 0.857114 0.473838
0.115618 0.868391 0.47837
0.258061 0.880949 0.470878
0.385702 0.906554 0.472389
0.524865 0.930236 0.474998
0.671687 0.953216 0.47483
0.824445 0.972976 0.468406
0.982559 0.987274 0.459892
0.0622721 0.0722972 0.493523
0.117952 0.0902724 0.553582
0.228702 0.0985275 0.576318
0.363424 0.103532 0.586465
0.488914 0.114519 0.599145
0.620554 0.123232 0.610407
0.747021 0.144778 0.611185
0.873854 0.163088 0.608911
0.972976 0.166827 0.604776
0.0645457 0.141329 0.580407
0.112993 0.147158 0.574899
0.227481 0.148745 0.577356
0.360327 0.154421 0.585718
0.486198 0.16556 0.597772
0.617136 0.177081 0.608194
0.742687 0.196521 0.607858
0.86688 0.214466 0.60383
0.966628 0.220401 0.598886
0.0569619 0.243854 0.604547
0.108141 0.244846 0.601694
0.23061 0.24239 0.594644
0.360082 0.245945 0.593957
0.483848 0.254932 0.599207
0.612085 0.264988 0.604944
0.736187 0.279988 0.602991
0.85716 0.29604 0.59736
0.960525 0.302235 0.592798
0.0361181 0.365362 0.624155
0.0958114 0.363073 0.618662
0.220966 0.359152 0.608789
0.355276 0.358007 0.602029
0.4795 0.363867 0.602274
0.607172 0.371069 0.604639
0.731136 0.38201 0.602472
0.8486 0.395224 0.597681
0.957549 0.401251 0.593561
0.0152285 0.481804 0.625498
0.0715953 0.47718 0.620478
0.19942 0.477272 0.617304
0.347967 0.477607 0.611307
0.471015 0.482536 0.603647
0.594598 0.498589 0.527413
0.721752 0.495171 0.603555
0.83888 0.506127 0.601419
0.954971 0.51281 0.600381
0.00788891 0.590066 0.617502
0.0496376 0.585382 0.611887
0.165118 0.588937 0.612299
0.327443 0.587076 0.604761
0.463371 0.595178 0.608835
0.596246 0.605524 0.614054
0.69247 0.623896 0.59086
0.838422 0.621378 0.613458
0.958785 0.627726 0.612818
0.00987259 0.691752 0.60647
0.0475776 0.688777 0.602304
0.131273 0.697704 0.607309
0.303792 0.695644 0.599664
0.438941 0.706111 0.603037
0.579141 0.711528 0.66807
0.74696 0.718151 0.631922
0.850629 0.738689 0.623102
0.970413 0.744121 0.628061
0.00701915 0.792859 0.59707
0.0396735 0.789883 0.593088
0.119432 0.798932 0.597406
0.272984 0.804074 0.592447
0.412894 0.816785 0.597818
0.552758 0.830732 0.604486
0.695872 0.843839 0.611093
0.843122 0.855253 0.617823
0.982895 0.865476 0.632029
0.00567636 0.88127 0.59173
0.034287 0.879347 0.588525
0.113237 0.889128 0.592782
0.257252 0.89839 0.588174
0.379904 0.922744 0.591333
0.524056 0.942382 0.596658
0.672358 0.9617 0.599527
0.826581 0.978363 0.6
0.985519 0.990143 0.59881
0.0816663 0.0990005 0.618112
0.122377 0.11104 0.669886
0.233158 0.114244 0.6851
0.35906 0.11902 0.698009
0.483543 0.128985 0.715267
0.614801 0.136904 0.731365
0.749996 0.142885 0.742229
0.881712 0.160891 0.742809
0.983078 0.159121 0.741115
0.0805829 0.151919 0.694575
0.122789 0.159762 0.688258
0.235325 0.159274 0.690745
0.360159 0.164675 0.700801
0.482963 0.17525 0.715511
0.611933 0.18587 0.729397
0.745785 0.195163 0.738643
0.876844 0.211566 0.738293
0.98349 0.202548 0.738857
0.0716716 0.246571 0.7205
0.116564 0.249882 0.718944
0.237415 0.246784 0.710918
0.359777 0.250538 0.712642
0.480629 0.259419 0.720653
0.607752 0.268971 0.728618
0.739696 0.278676 0.734569
0.870146 0.292714 0.732952
0.979171 0.289235 0.731823
0.0543221 0.36376 0.739361
0.103746 0.364248 0.737621
0.227634 0.358724 0.731258
0.356603 0.358404 0.726543
0.47863 0.364157 0.728557
0.605234 0.37171 0.730999
0.735988 0.380026 0.734112
0.8654 0.390936 0.731426
0.973495 0.39411 0.726055
0.0216068 0.48777 0.758099
0.0829175 0.48455 0.753201
0.2094 0.481102 0.746197
0.34876 0.477699 0.736996
0.473411 0.480415 0.735149
0.600824 0.485618 0.73463
0.730816 0.491951 0.734997
0.85922 0.500755 0.731472
0.967651 0.507408 0.724422
0.00889601 0.60058 0.747478
0.0501259 0.596139 0.743374
0.168963 0.597498 0.743694
0.331029 0.5944 0.737713
0.464973 0.601434 0.739956
0.588403 0.607813 0.732387
0.720851 0.62472 0.625803
0.848981 0.618662 0.733257
0.963027 0.626123 0.729854
0.00505074 0.707897 0.732906
0.0411383 0.703624 0.728206
0.12372 0.710018 0.734127
0.304265 0.705516 0.727428
0.442405 0.713237 0.731487
0.587625 0.71986 0.745708
0.720256 0.731945 0.744152
0.830854 0.746105 0.719936
0.966888 0.745663 0.744106
0.00503548 0.811185 0.723186
0.0363165 0.807492 0.719173
0.117113 0.814542 0.723827
0.264103 0.817731 0.721492
0.411948 0.827039 0.726864
0.554742 0.837674 0.732937
0.70045 0.846342 0.757717
0.858412 0.853544 0.756268
0.980926 0.866163 0.756268
0.00492866 0.902068 0.71426
0.0321813 0.89987 0.711055
0.111452 0.90811 0.715572
0.255833 0.914137 0.712963
0.368734 0.937423 0.719875
0.5196 0.953857 0.726024
0.671229 0.969589 0.731075
0.827573 0.982803 0.73431
0.98761 0.992248 0.736889
0.0948043 0.120806 0.744472
0.13283 0.131395 0.789273
0.242496 0.128923 0.798047
0.361089 0.13431 0.812284
0.482521 0.141756 0.832792
0.610605 0.151125 0.848157
0.74609 0.15462 0.863432
0.884947 0.156741 0.871794
0.987335 0.156191 0.872007
0.0944839 0.164569 0.81059
0.134936 0.172915 0.804395
0.246052 0.170016 0.806714
0.362417 0.176135 0.816388
0.482155 0.184527 0.834134
0.608743 0.195026 0.847608
0.742412 0.201968 0.86099
0.879774 0.209125 0.867628
0.990372 0.194415 0.873503
0.0843824 0.252399 0.836164
0.126131 0.256184 0.835874
0.245838 0.252308 0.826078
0.361685 0.256077 0.829679
0.47982 0.264134 0.83975
0.604898 0.273808 0.849104
0.736278 0.282795 0.857618
0.872541 0.29131 0.862821
0.984665 0.286427 0.865049
0.0665751 0.364187 0.858396
0.110628 0.366262 0.857984
0.234379 0.359686 0.850904
0.358099 0.359991 0.848249
0.478386 0.365499 0.85153
0.60351 0.372992 0.855604
0.734005 0.38114 0.859556
0.868452 0.389395 0.861341
0.981582 0.390036 0.859968
0.0372168 0.487358 0.876722
0.0919509 0.485557 0.872984
0.215839 0.480583 0.866056
0.348852 0.477272 0.862135
0.47303 0.480415 0.859907
0.599603 0.485435 0.861585
0.729702 0.491768 0.861479
0.863752 0.498909 0.861173
0.979431 0.501778 0.857679
0.0122377 0.608927 0.880507
0.0547189 0.604273 0.876829
0.181399 0.603891 0.874907
0.337697 0.600626 0.86949
0.465385 0.602075 0.866331
0.593469 0.604517 0.865965
0.72433 0.609613 0.8645
0.85832 0.615351 0.862684
0.977386 0.619501 0.857542
0.00469978 0.720363 0.866667
0.0387274 0.715709 0.862119
0.121874 0.720104 0.867842
0.30515 0.713878 0.860929
0.446433 0.719585 0.864652
0.585382 0.72781 0.867887
0.718013 0.732357 0.867918
0.851789 0.740291 0.840513
0.974487 0.742992 0.860655
0.00444038 0.827115 0.851575
0.0354162 0.822889 0.847105
0.115251 0.82768 0.851835
0.262364 0.827817 0.851423
0.4103 0.835386 0.857374
0.558053 0.843153 0.862303
0.704738 0.851698 0.867948
0.850874 0.861097 0.874205
0.976669 0.868223 0.873808
0.00544747 0.920668 0.841108
0.0339818 0.91812 0.837446
0.111513 0.924758 0.842023
0.255634 0.928222 0.840604
0.368658 0.94667 0.850996
0.510338 0.963958 0.859907
0.66804 0.976196 0.865248
0.827085 0.98674 0.868772
0.989349 0.993927 0.873152
0.10901 0.142153 0.876173
0.148363 0.14815 0.906752
0.256077 0.143435 0.909056
0.365469 0.148638 0.917617
0.483482 0.15465 0.931579
0.61004 0.161151 0.944259
0.742809 0.166842 0.954177
0.882445 0.165408 0.961746
0.990341 0.150576 0.965591
0.106981 0.179217 0.919249
0.12105 0.15668 0.952712
0.243946 0.151507 0.952361
0.370367 0.154726 0.955001
0.495583 0.159655 0.962356
0.626413 0.164782 0.968734
0.757717 0.176211 0.970459
0.890761 0.190112 0.969223
0.99205 0.19292 0.967437
0.096025 0.259861 0.935958
0.103471 0.24596 0.967559
0.223468 0.237186 0.972595
0.363684 0.238331 0.969329
0.490135 0.246601 0.96817
0.617395 0.258167 0.967208
0.746288 0.271122 0.965393
0.879789 0.28336 0.965164
0.986267 0.285618 0.963134
0.0762646 0.366293 0.954223
0.0845808 0.361913 0.973266
0.21033 0.358373 0.970291
0.353109 0.354757 0.966415
0.480568 0.359808 0.966094
0.608286 0.367361 0.966094
0.737865 0.376806 0.965469
0.871473 0.386709 0.964996
0.983413 0.388998 0.962844
0.0488899 0.486625 0.969421
0.0767224 0.485145 0.974685
0.199191 0.481743 0.972168
0.344182 0.476646 0.968261
0.472023 0.478569 0.968521
0.600397 0.483558 0.968063
0.730602 0.490288 0.967575
0.86421 0.498024 0.966705
0.982086 0.500694 0.965087
0.0187991 0.613382 0.982956
0.0698711 0.609155 0.978668
0.188693 0.606531 0.976577
0.336049 0.600687 0.971542
0.463981 0.601648 0.971481
0.593347 0.604303 0.971756
0.724346 0.609232 0.97171
0.858198 0.615152 0.970916
0.980789 0.617899 0.968887
0.011368 0.72726 0.973938
0.0472419 0.723766 0.971649
0.128038 0.727062 0.978622
0.313863 0.720195 0.973175
0.454429 0.725521 0.975952
0.587091 0.729229 0.977432
0.718517 0.731899 0.977508
0.852735 0.736751 0.976745
0.981643 0.740017 0.975784
0.00872816 0.837461 0.965118
0.0398108 0.834119 0.962295
0.118273 0.838575 0.968032
0.262318 0.835843 0.970459
0.410056 0.84181 0.97734
0.561898 0.848386 0.981933
0.710155 0.856687 0.985443
0.8495 0.862074 0.986175
0.98439 0.865782 0.98587
0.00782788 0.93579 0.956771
0.0366827 0.933486 0.954025
0.112551 0.939361 0.958816
0.256229 0.940291 0.959564
0.370642 0.954269 0.972305
0.492073 0.971496 0.987213
0.661036 0.980987 0.993591
0.824491 0.989258 0.997955
0.991165 0.99559 1
