code/data/lut/33蓝绿亮色3.cube
TITLE "LD - Pacific Coast 3"
# Copyright (c) 2019 Lens Distortions, LLC. All Rights Reserved.
# LensDistortions.com
# ref-PC1
LUT_3D_SIZE 9
0.0123293 0.012192 0.0119936
0.0601511 0.0234684 0.0226291
0.198764 0.0411231 0.0354925
0.403449 0.0636301 0.0469673
0.53814 0.0972152 0.0637522
0.66244 0.133364 0.0847181
0.785702 0.171237 0.108278
0.902602 0.207904 0.124926
1 0.238041 0.133318
0.0216831 0.0867933 0.0390631
0.0919814 0.12079 0.041886
0.261433 0.134997 0.0447089
0.417914 0.148669 0.0558633
0.549905 0.174304 0.0746166
0.677241 0.20415 0.0953384
0.797864 0.235798 0.11249
0.911101 0.268452 0.124987
1 0.295628 0.130678
0.032929 0.230076 0.109392
0.0638743 0.243748 0.075227
0.242237 0.26949 0.090135
0.429953 0.281132 0.0729686
0.566354 0.295781 0.089662
0.691905 0.316335 0.107851
0.809567 0.340215 0.122911
0.919402 0.366964 0.132433
0.998001 0.389868 0.138628
0.0363012 0.364477 0.168322
0.0455329 0.361913 0.11284
0.185046 0.397711 0.136858
0.403693 0.411063 0.135607
0.567269 0.430747 0.115465
0.701762 0.443534 0.118746
0.823331 0.460395 0.130175
0.931594 0.481437 0.138659
0.994064 0.499489 0.143893
0.0398871 0.488457 0.206653
0.0400702 0.484825 0.152453
0.157717 0.51342 0.152697
0.370474 0.530312 0.168536
0.542107 0.552087 0.161395
0.698039 0.573449 0.141604
0.826459 0.586374 0.137179
0.93817 0.602411 0.1393
0.990768 0.616205 0.142824
0.0334173 0.602823 0.219547
0.0374762 0.606943 0.170687
0.151461 0.61944 0.165026
0.350225 0.640604 0.162203
0.516426 0.664973 0.173449
0.674464 0.686076 0.158251
0.818158 0.707347 0.142077
0.937041 0.723522 0.142626
0.988586 0.734661 0.141924
0.0222477 0.722927 0.218067
0.0407111 0.72398 0.177584
0.152819 0.721675 0.171817
0.340002 0.741115 0.15729
0.49865 0.768551 0.155886
0.653483 0.791638 0.150179
0.798627 0.811521 0.135149
0.927657 0.832807 0.122026
0.987778 0.848264 0.15581
0.0148623 0.837827 0.208011
0.0475776 0.835813 0.180423
0.158282 0.831785 0.175463
0.334417 0.834928 0.157839
0.487404 0.861494 0.153536
0.638239 0.885252 0.14963
0.781598 0.905562 0.144427
0.911955 0.9243 0.139742
0.989258 0.942473 0.144518
0.0138094 0.93138 0.200168
0.0548867 0.92842 0.196963
0.165835 0.924697 0.19472
0.333608 0.916503 0.178668
0.482033 0.941482 0.173159
0.630106 0.964324 0.169787
0.772045 0.983749 0.166079
0.902739 1 0.1626
0.993042 0.999893 0.184543
0.0135653 0.0136873 0.0599832
0.0727855 0.0238804 0.105806
0.227451 0.0409552 0.130922
0.413703 0.063508 0.147448
0.540322 0.0962844 0.155383
0.664118 0.133043 0.168414
0.786847 0.170733 0.185367
0.903044 0.207706 0.200793
1 0.23772 0.212131
0.0206455 0.107515 0.147921
0.0961318 0.123766 0.144152
0.245228 0.135225 0.149218
0.406592 0.148623 0.154131
0.540459 0.175158 0.166873
0.668971 0.206302 0.181415
0.791089 0.238926 0.196124
0.905501 0.271717 0.208255
1 0.299245 0.21709
0.0322271 0.244282 0.184985
0.0900282 0.255344 0.173419
0.252079 0.269001 0.172061
0.42594 0.277821 0.167315
0.55639 0.294652 0.179644
0.681102 0.315847 0.191043
0.800565 0.340734 0.202075
0.912108 0.367391 0.211322
0.997955 0.391089 0.218387
0.0369421 0.375891 0.219394
0.0882429 0.385534 0.213748
0.195193 0.401495 0.195285
0.408255 0.411994 0.197757
0.566033 0.429023 0.191959
0.696849 0.442267 0.198962
0.814923 0.459953 0.210269
0.922835 0.481315 0.219791
0.994308 0.500145 0.22649
0.0403296 0.498207 0.24799
0.0875105 0.507286 0.243732
0.165988 0.520027 0.210285
0.374456 0.533104 0.219562
0.544198 0.552987 0.219364
0.698024 0.573266 0.214206
0.823743 0.585168 0.215091
0.933303 0.601068 0.222477
0.991165 0.615763 0.230381
0.0334936 0.610986 0.259327
0.0815442 0.617151 0.256413
0.152773 0.631281 0.221546
0.35491 0.644556 0.221637
0.518181 0.666972 0.230808
0.675105 0.686976 0.226184
0.817441 0.706844 0.224292
0.934462 0.72163 0.229725
0.988922 0.732952 0.234485
0.0227054 0.722545 0.261265
0.0679942 0.719707 0.256291
0.15407 0.733181 0.236057
0.342565 0.749096 0.223667
0.500816 0.772412 0.226764
0.654948 0.793683 0.224613
0.799329 0.812619 0.217624
0.92665 0.83151 0.225788
0.987961 0.846021 0.251194
0.0148623 0.837232 0.26952
0.055848 0.833265 0.264485
0.157351 0.831266 0.253895
0.336263 0.845487 0.238437
0.488716 0.869215 0.234485
0.639643 0.89041 0.231174
0.783215 0.908431 0.227405
0.913008 0.92549 0.225391
0.989166 0.94226 0.230213
0.0141299 0.930892 0.281483
0.0549325 0.927428 0.27866
0.164157 0.92369 0.275029
0.336172 0.926345 0.260685
0.483879 0.949126 0.257511
0.631174 0.969818 0.255604
0.773342 0.98735 0.253697
0.903334 1 0.250965
0.993591 0.999893 0.26482
0.0158389 0.0162203 0.167819
0.0754864 0.0279698 0.228412
0.260227 0.041825 0.279225
0.440848 0.0650339 0.288045
0.560922 0.0981613 0.280583
0.679377 0.133608 0.283055
0.797925 0.171252 0.293889
0.911177 0.207843 0.305898
1 0.235966 0.317784
0.0248875 0.117082 0.279896
0.0991073 0.126818 0.281605
0.264286 0.132753 0.281086
0.420356 0.148363 0.275181
0.547799 0.176074 0.279881
0.673396 0.207279 0.289265
0.793622 0.240375 0.300313
0.90724 0.272923 0.311345
1 0.298924 0.321035
0.0205081 0.264485 0.307301
0.0921645 0.266194 0.297749
0.259129 0.273472 0.286854
0.414328 0.281025 0.283574
0.548821 0.297063 0.289281
0.675303 0.318379 0.297383
0.795743 0.342794 0.306569
0.908232 0.369162 0.315663
0.998199 0.392889 0.323659
0.0310521 0.394446 0.326848
0.0937209 0.398413 0.317449
0.235584 0.406668 0.296941
0.415473 0.415702 0.295628
0.565789 0.428183 0.299489
0.690028 0.442405 0.307362
0.807446 0.459968 0.31545
0.91664 0.481117 0.323262
0.994675 0.500877 0.329641
0.0420081 0.515541 0.329213
0.0926528 0.52134 0.327276
0.219745 0.5299 0.3187
0.382513 0.538933 0.30602
0.550301 0.555459 0.313191
0.699321 0.571908 0.313527
0.820111 0.584054 0.319249
0.926879 0.600198 0.329076
0.991531 0.616114 0.337316
0.0346227 0.629221 0.336767
0.0834974 0.633997 0.335134
0.197208 0.645869 0.330053
0.361318 0.65272 0.310628
0.522942 0.671138 0.32015
0.678111 0.68864 0.321553
0.818158 0.707225 0.325719
0.931991 0.719905 0.332555
0.989303 0.73196 0.342153
0.0239109 0.735332 0.339605
0.0694591 0.737606 0.338216
0.169574 0.753277 0.334142
0.347494 0.758953 0.316732
0.504982 0.77821 0.322042
0.657206 0.796414 0.324804
0.799939 0.813291 0.325063
0.92607 0.830961 0.3355
0.988327 0.843992 0.354131
0.0149233 0.837736 0.34934
0.0564736 0.837217 0.347372
0.163134 0.849485 0.347173
0.337087 0.85922 0.330282
0.491249 0.878019 0.329778
0.641917 0.896574 0.326558
0.78558 0.913329 0.319081
0.915175 0.927932 0.315053
0.989715 0.941909 0.333028
0.0151064 0.930144 0.366491
0.0541695 0.926879 0.363012
0.164172 0.931685 0.363012
0.33286 0.94229 0.348165
0.483299 0.961807 0.343374
0.6327 0.978927 0.342
0.775891 0.993545 0.339712
0.905913 1 0.336782
0.994324 0.999893 0.34548
0.0229191 0.0238346 0.286671
0.0881514 0.0403296 0.355688
0.262486 0.0575875 0.414115
0.449302 0.0670939 0.431022
0.581918 0.0996262 0.423926
0.703792 0.136812 0.4206
0.81973 0.173144 0.424674
0.928054 0.208652 0.432227
1 0.233722 0.442756
0.0342412 0.1252 0.411826
0.104311 0.132616 0.410849
0.259464 0.139361 0.413123
0.432914 0.148608 0.417029
0.571618 0.175662 0.416419
0.693599 0.207645 0.417517
0.808026 0.240131 0.422965
0.917174 0.272221 0.432288
1 0.296803 0.442267
0.0251316 0.275166 0.438621
0.0992905 0.275364 0.432807
0.2589 0.275135 0.420081
0.427283 0.279088 0.417029
0.561334 0.296162 0.414816
0.68191 0.318166 0.418097
0.799985 0.342962 0.425513
0.91075 0.369314 0.434531
0.998138 0.392706 0.444175
0.0136721 0.41268 0.449638
0.0796521 0.412177 0.442985
0.246662 0.414572 0.429496
0.41857 0.420722 0.421363
0.546593 0.433982 0.418982
0.680552 0.444938 0.428458
0.800839 0.46157 0.433661
0.911559 0.482124 0.442191
0.994537 0.498909 0.446677
0.0264897 0.535698 0.463661
0.0854658 0.537346 0.458305
0.230655 0.540505 0.443992
0.400183 0.545419 0.425971
0.559182 0.557565 0.434211
0.694697 0.571038 0.437858
0.811307 0.583642 0.445411
0.91812 0.599878 0.452277
0.991135 0.616312 0.459174
0.0313268 0.650095 0.452445
0.0809796 0.652934 0.448676
0.209003 0.659083 0.443702
0.380224 0.662165 0.432197
0.52874 0.676402 0.434699
0.680446 0.69073 0.440436
0.817884 0.706569 0.448676
0.926986 0.71809 0.455772
0.988983 0.730999 0.468223
0.024155 0.757076 0.44892
0.0691691 0.75819 0.446967
0.177707 0.769146 0.447257
0.360296 0.771084 0.436851
0.508339 0.78529 0.436912
0.660029 0.799573 0.442786
0.801526 0.813794 0.447318
0.925292 0.830076 0.460395
0.988037 0.841489 0.473487
0.0167391 0.859464 0.459892
0.058381 0.858412 0.457328
0.164309 0.868025 0.457801
0.341604 0.872404 0.44538
0.493156 0.886564 0.445182
0.64387 0.901213 0.446891
0.78648 0.914427 0.445548
0.914702 0.927031 0.446799
0.989593 0.93962 0.466392
0.0171817 0.943923 0.472313
0.0558022 0.942733 0.470253
0.165301 0.950088 0.471885
0.332753 0.956878 0.459205
0.48249 0.973419 0.455131
0.632547 0.988678 0.449638
0.777447 1 0.436423
0.909194 1 0.432486
0.994629 0.999893 0.438056
0.0352789 0.0395666 0.41886
0.107301 0.0610361 0.49955
0.263615 0.0761578 0.545846
0.435645 0.0862135 0.557061
0.587411 0.101732 0.570809
0.718883 0.137163 0.57113
0.840116 0.174792 0.573434
0.949264 0.209842 0.578317
1 0.229831 0.585382
0.0460975 0.1364 0.544137
0.111803 0.142855 0.53994
0.259129 0.148806 0.544244
0.427329 0.159457 0.550744
0.578698 0.176715 0.563989
0.712856 0.206775 0.566522
0.83125 0.239628 0.567178
0.936461 0.271565 0.570855
1 0.29276 0.579019
0.0398871 0.277729 0.568109
0.108736 0.277928 0.565255
0.263584 0.277089 0.557321
0.425727 0.281987 0.554879
0.572427 0.294728 0.560525
0.703655 0.315419 0.560662
0.817304 0.340795 0.560174
0.922728 0.368078 0.565469
0.997772 0.390417 0.574762
0.0182803 0.42388 0.5832
0.090898 0.423117 0.580285
0.253605 0.421927 0.570581
0.417807 0.421195 0.557794
0.562203 0.430549 0.549096
0.691447 0.44242 0.557992
0.806378 0.460578 0.561257
0.914549 0.481392 0.568811
0.994049 0.497963 0.576638
0.0101625 0.553628 0.587396
0.0659037 0.551965 0.583246
0.226825 0.552193 0.575998
0.407523 0.552514 0.562722
0.556863 0.562539 0.567285
0.659937 0.582818 0.547951
0.80264 0.584772 0.570703
0.912352 0.600137 0.576074
0.990555 0.615976 0.582986
0.019791 0.670161 0.589471
0.0672313 0.670466 0.585977
0.20557 0.672999 0.581353
0.386954 0.671855 0.566674
0.540795 0.677394 0.606058
0.70869 0.6851 0.582269
0.812726 0.705547 0.578515
0.91841 0.717128 0.586908
0.988296 0.730846 0.59556
0.0203403 0.778851 0.578683
0.0650339 0.778424 0.575753
0.177447 0.785718 0.575891
0.36614 0.782742 0.564172
0.516655 0.792554 0.565911
0.663127 0.803632 0.570138
0.802548 0.815183 0.576303
0.923888 0.82948 0.589822
0.987549 0.839216 0.600595
0.0149233 0.881285 0.583169
0.0562753 0.879286 0.57995
0.163775 0.886122 0.581079
0.34255 0.886534 0.570275
0.497719 0.895598 0.57145
0.646036 0.906218 0.572732
0.787457 0.916167 0.575463
0.914076 0.926207 0.580148
0.989029 0.937697 0.59881
0.0164034 0.965286 0.594034
0.0564584 0.963439 0.591363
0.166339 0.968383 0.592416
0.33228 0.971115 0.581567
0.481285 0.984512 0.579324
0.632776 0.995178 0.577096
0.777646 1 0.571038
0.909911 0.999878 0.55877
0.99469 0.999649 0.553262
0.0556039 0.0670634 0.568399
0.123323 0.0864729 0.637766
0.264347 0.0966964 0.665919
0.428321 0.105577 0.679118
0.577478 0.121965 0.696071
0.723812 0.13846 0.712764
0.851347 0.174304 0.719463
0.965087 0.209018 0.726238
1 0.225742 0.732311
0.0615702 0.14963 0.670146
0.124422 0.158099 0.664759
0.26537 0.16173 0.668376
0.425208 0.171618 0.678126
0.573388 0.189044 0.693385
0.71812 0.208026 0.708309
0.844968 0.238895 0.713771
0.956069 0.270314 0.717906
1 0.288655 0.723064
0.0550546 0.281102 0.696254
0.119127 0.282994 0.693889
0.269657 0.281285 0.686442
0.424949 0.286503 0.686
0.569162 0.299351 0.693049
0.709941 0.31516 0.702113
0.834882 0.338704 0.705333
0.942809 0.365835 0.707073
0.997467 0.383383 0.712612
0.0342412 0.429709 0.71751
0.105028 0.428489 0.712978
0.259556 0.423331 0.701366
0.419348 0.421897 0.693538
0.56286 0.429435 0.694133
0.701793 0.439933 0.698741
0.82565 0.456901 0.700648
0.930068 0.478721 0.701823
0.993439 0.495125 0.707347
0.0146334 0.565957 0.720455
0.0764019 0.563455 0.71754
0.236515 0.561227 0.711559
0.411414 0.560113 0.703471
0.55111 0.565332 0.693049
0.686305 0.584665 0.593988
0.812924 0.582132 0.698146
0.916884 0.598886 0.700832
0.990021 0.614862 0.708095
0.00880446 0.688334 0.716747
0.054139 0.685725 0.713085
0.200626 0.686137 0.710246
0.389761 0.680858 0.69897
0.547692 0.68574 0.704158
0.688167 0.696315 0.703807
0.788754 0.713787 0.677485
0.912001 0.717144 0.708934
0.98761 0.730678 0.715541
0.0135805 0.79855 0.713283
0.057023 0.796506 0.710048
0.167086 0.801724 0.711788
0.366583 0.794095 0.698787
0.521096 0.799802 0.698192
0.668299 0.799741 0.783093
0.827222 0.807858 0.732967
0.919051 0.827802 0.717037
0.987045 0.838163 0.727199
0.0127565 0.901656 0.713939
0.0538949 0.898787 0.710307
0.161975 0.902663 0.710781
0.339132 0.900328 0.700969
0.498833 0.90483 0.700343
0.648905 0.911086 0.702327
0.788708 0.917845 0.705455
0.913542 0.925673 0.711208
0.988418 0.9364 0.728862
0.0157778 0.985397 0.721981
0.0562753 0.982864 0.718608
0.166354 0.985458 0.718547
0.333043 0.984573 0.709224
0.475883 0.996033 0.708293
0.631388 0.999573 0.707362
0.776745 0.999252 0.704402
0.908202 0.999191 0.698466
0.994125 0.998917 0.698329
0.0793622 0.0971237 0.708949
0.136309 0.112383 0.765301
0.273381 0.11812 0.780575
0.426352 0.126802 0.795026
0.573114 0.143221 0.81416
0.719051 0.157977 0.833997
0.856352 0.174197 0.851179
0.973404 0.208591 0.861357
1 0.219257 0.870771
0.0816968 0.166171 0.789899
0.139498 0.176318 0.783581
0.276646 0.17789 0.786328
0.426795 0.187396 0.796704
0.571298 0.203784 0.81297
0.714092 0.220447 0.830106
0.849653 0.239185 0.845029
0.965988 0.269383 0.853727
1 0.271427 0.866011
0.0730602 0.287495 0.81532
0.133516 0.291127 0.813703
0.279393 0.288594 0.805142
0.426398 0.294316 0.806745
0.567239 0.306538 0.815442
0.707088 0.321355 0.826093
0.839719 0.338949 0.836881
0.954696 0.364599 0.843519
0.997635 0.372457 0.853544
0.0550393 0.431067 0.833585
0.118883 0.431464 0.831724
0.26891 0.424765 0.823789
0.422415 0.424216 0.818235
0.563378 0.431281 0.820539
0.701259 0.441993 0.824552
0.831586 0.456062 0.831617
0.944625 0.476402 0.836149
0.993301 0.490227 0.841031
0.0220035 0.575692 0.852445
0.0931716 0.573465 0.848661
0.249928 0.567086 0.838788
0.413672 0.561563 0.82771
0.556481 0.563546 0.82472
0.693812 0.569924 0.824781
0.822309 0.579812 0.827985
0.933562 0.595453 0.830076
0.989853 0.610956 0.832242
0.00972 0.701762 0.846387
0.0556497 0.698848 0.843824
0.206546 0.696315 0.840055
0.395117 0.689403 0.830091
0.547707 0.693904 0.829206
0.680369 0.698528 0.824765
0.810636 0.715389 0.72694
0.920317 0.715038 0.826261
0.987366 0.729305 0.829877
0.00924697 0.816022 0.840101
0.0508583 0.812741 0.836378
0.159792 0.815152 0.838315
0.368231 0.80415 0.825315
0.525536 0.806729 0.824338
0.686992 0.807736 0.832853
0.808591 0.818998 0.83154
0.910628 0.828473 0.829313
0.986557 0.838346 0.837919
0.0126497 0.9196 0.842161
0.0529183 0.915969 0.838193
0.161151 0.91751 0.838224
0.330251 0.913069 0.829999
0.498604 0.913237 0.827771
0.650584 0.915923 0.827146
0.790402 0.919982 0.829145
0.91397 0.926085 0.83444
0.987976 0.934844 0.845747
0.0220188 1 0.848234
0.0623484 1 0.844572
0.169116 1 0.843946
0.333577 0.99678 0.834699
0.46482 0.999512 0.837034
0.626963 0.998825 0.834821
0.77438 0.998642 0.832105
0.906096 0.998505 0.828824
0.993683 0.998428 0.829694
0.101076 0.126619 0.839399
0.155291 0.139605 0.883101
0.288197 0.140826 0.890028
0.431235 0.150011 0.90251
0.574365 0.16321 0.922148
0.71667 0.180301 0.938766
0.854887 0.192248 0.958129
0.979416 0.206882 0.975494
1 0.217395 0.986847
0.1028 0.186297 0.900649
0.158862 0.196292 0.895033
0.291981 0.195315 0.896529
0.432288 0.204715 0.905089
0.572747 0.217884 0.921523
0.712978 0.235126 0.935973
0.848829 0.250553 0.953292
0.971222 0.269963 0.968078
1 0.264652 0.98555
0.0919814 0.297719 0.921965
0.149523 0.301427 0.921691
0.292119 0.298207 0.911696
0.431235 0.303716 0.914153
0.568719 0.314992 0.923171
0.706218 0.329732 0.933349
0.838911 0.346044 0.945403
0.959243 0.36614 0.957824
0.997589 0.372259 0.970886
0.071397 0.435111 0.939986
0.131945 0.436301 0.939101
0.279774 0.428656 0.931014
0.426993 0.428794 0.926726
0.565713 0.435554 0.929702
0.701808 0.44593 0.934569
0.831907 0.459449 0.941604
0.94931 0.477287 0.949905
0.993255 0.488716 0.958801
0.0391852 0.579019 0.956008
0.10782 0.576867 0.952392
0.259586 0.569055 0.942901
0.416541 0.563607 0.936522
0.558831 0.56553 0.93402
0.695003 0.571679 0.93492
0.822995 0.581415 0.937697
0.938796 0.595499 0.942916
0.989837 0.607874 0.949035
0.014023 0.713787 0.962341
0.0629129 0.710185 0.959609
0.223453 0.705364 0.952956
0.405447 0.697887 0.943053
0.549966 0.696437 0.937591
0.686229 0.697597 0.936004
0.81416 0.703334 0.935943
0.929107 0.713268 0.938064
0.987488 0.725002 0.941238
0.00926223 0.830884 0.958495
0.0509346 0.826932 0.954681
0.160342 0.826917 0.955169
0.371389 0.81384 0.9411
0.531579 0.81387 0.938247
0.678645 0.817716 0.937407
0.806653 0.820096 0.936065
0.920409 0.825696 0.936019
0.986557 0.836423 0.936645
0.0137331 0.93611 0.958007
0.0534524 0.931701 0.95349
0.161151 0.930632 0.952255
0.329961 0.923033 0.943908
0.498543 0.920958 0.940612
0.654047 0.920623 0.938079
0.794568 0.922591 0.93727
0.917967 0.927474 0.941039
0.988098 0.935241 0.942321
0.0214542 1 0.965057
0.0625467 1 0.960525
0.17113 1 0.958663
0.335348 1 0.949065
0.464973 0.999252 0.951675
0.61738 0.998566 0.950622
0.770703 0.998444 0.945846
0.904005 0.998444 0.94168
0.993744 0.998383 0.942123
0.12549 0.157687 0.957443
0.179065 0.165972 0.982483
0.307469 0.163531 0.981964
0.439979 0.173602 0.987655
0.578393 0.184878 0.998383
0.718975 0.197284 1
0.85449 0.211215 1
0.979644 0.221958 1
1 0.215351 0.999863
0.124529 0.208606 0.990585
0.146166 0.179797 1
0.29572 0.177127 1
0.447456 0.184497 1
0.593545 0.193194 1
0.737408 0.203601 1
0.869047 0.224063 1
0.985016 0.252491 1
1 0.267216 0.999863
0.110689 0.310307 1
0.122896 0.294438 1
0.271763 0.284703 1
0.438727 0.287541 1
0.585382 0.299168 1
0.724498 0.315404 1
0.853422 0.335683 1
0.969497 0.360449 1
0.998398 0.375067 0.999863
0.0878614 0.441123 1
0.0991836 0.436606 1
0.256184 0.431083 1
0.424552 0.427131 1
0.571069 0.433219 1
0.710338 0.443534 1
0.839307 0.458015 1
0.955627 0.47715 1
0.994141 0.490883 0.999908
0.0560616 0.582055 1
0.0908522 0.580713 1
0.24387 0.574075 1
0.414221 0.566583 1
0.560189 0.567361 1
0.698268 0.573266 1
0.826978 0.58294 1
0.942687 0.59704 1
0.990799 0.609522 0.999985
0.0317082 0.722499 1
0.0896773 0.718532 1
0.235538 0.711284 1
0.406561 0.701091 1
0.551232 0.699031 1
0.688884 0.700175 1
0.816648 0.705684 1
0.931426 0.715373 1
0.988205 0.725994 0.999985
0.035996 0.841047 1
0.0743572 0.837812 1
0.175784 0.836576 1
0.386114 0.822416 1
0.543435 0.821881 0.999191
0.682521 0.821393 0.999069
0.808759 0.82211 0.999313
0.921965 0.827527 0.999435
0.987457 0.835767 0.99968
0.0314183 0.948196 1
0.0702831 0.944305 1
0.172305 0.942611 1
0.334112 0.932403 1
0.501106 0.92874 1
0.660731 0.926497 0.999313
0.801907 0.927642 0.999313
0.916991 0.929519 0.999435
0.988846 0.934371 0.999878
0.0247807 1 1
0.0686046 1 1
0.175433 1 1
0.338369 1 1
0.467018 0.999939 1
0.600153 0.999435 1
0.764752 0.999374 1
0.901946 0.999573 1
0.995056 0.999435 1
