code/data/lut/34蓝绿沙色1.cube
TITLE "LD - Explorer Teal 1"
# Copyright (c) 2019 Lens Distortions, LLC. All Rights Reserved.
# LensDistortions.com
# ref-EXTL14
LUT_3D_SIZE 33
0.0167544 0.0120851 0.0122225
0.0212253 0.0154116 0.0158846
0.0339666 0.0173342 0.0178225
0.0572518 0.019089 0.020325
0.0816052 0.0207065 0.0220035
0.11632 0.0224002 0.0233768
0.154467 0.024155 0.024506
0.194003 0.0263218 0.0249332
0.233829 0.0291295 0.0254063
0.273426 0.0325933 0.0254215
0.310735 0.0356756 0.0244297
0.344884 0.0394293 0.0225223
0.37702 0.0448005 0.0212711
0.408087 0.0508583 0.0199435
0.43888 0.0572366 0.0188449
0.469108 0.0637217 0.0175937
0.499794 0.0698711 0.0168002
0.531655 0.0765698 0.0162509
0.563653 0.0830091 0.0157778
0.595987 0.0888685 0.0155337
0.627939 0.0947433 0.0153811
0.659831 0.100404 0.0149996
0.691585 0.105837 0.0150607
0.720989 0.110155 0.0149844
0.745785 0.113603 0.0149691
0.767178 0.116457 0.0148013
0.789136 0.118746 0.0149233
0.810956 0.121019 0.0151064
0.832563 0.123247 0.0149386
0.854368 0.125353 0.0149538
0.876219 0.126741 0.0149538
0.882155 0.126757 0.0149691
0.886458 0.126879 0.0150301
0.0233158 0.0218967 0.0238346
0.0279393 0.0254063 0.0239719
0.0449378 0.0274815 0.0249485
0.066453 0.0286717 0.0251011
0.0936294 0.0311131 0.0260777
0.128374 0.0339666 0.0265202
0.16527 0.0373846 0.0269322
0.201709 0.0410468 0.0270237
0.235157 0.0437629 0.0260319
0.268574 0.046891 0.0247807
0.30042 0.0502022 0.0231327
0.333257 0.053727 0.0221866
0.365774 0.0574807 0.0201419
0.398383 0.0622721 0.018555
0.430198 0.0676738 0.0176242
0.46215 0.0734569 0.016907
0.494057 0.0792248 0.0164034
0.526101 0.0849622 0.0157168
0.558328 0.0905776 0.0154116
0.590799 0.0965744 0.0152285
0.623102 0.102098 0.0149233
0.654978 0.107607 0.0148013
0.687068 0.112673 0.0149386
0.716793 0.117403 0.0145724
0.743786 0.120668 0.014725
0.765103 0.123537 0.0148928
0.787045 0.125719 0.0149233
0.809094 0.127932 0.0149996
0.830625 0.129961 0.0150454
0.852644 0.131838 0.0152132
0.874647 0.13315 0.0151064
0.881941 0.133425 0.0151827
0.886137 0.133455 0.015198
0.0255894 0.0373541 0.0377813
0.0285801 0.0408026 0.0349889
0.0425574 0.0471504 0.0297704
0.0771649 0.0483711 0.0307317
0.105089 0.051133 0.0302739
0.138109 0.0536355 0.0289616
0.169726 0.0557565 0.0272221
0.20116 0.0577554 0.0258183
0.23209 0.0606394 0.0243992
0.262684 0.0634928 0.0231632
0.294209 0.0666514 0.0218662
0.326085 0.0698253 0.0205997
0.359655 0.073228 0.0191806
0.392691 0.0769055 0.0179751
0.425681 0.0806439 0.0168612
0.458122 0.0854353 0.0162509
0.490257 0.0904097 0.0158541
0.522591 0.0953384 0.0153811
0.554742 0.100984 0.0148623
0.586755 0.106203 0.0146029
0.618982 0.11136 0.0144656
0.651102 0.116808 0.0144503
0.682994 0.121386 0.014725
0.713237 0.12575 0.0148165
0.741848 0.129046 0.0150301
0.763485 0.131228 0.0149691
0.785275 0.133639 0.0149386
0.80705 0.13547 0.0150454
0.828809 0.137469 0.0153353
0.85098 0.138964 0.0152285
0.872877 0.140383 0.0152285
0.88188 0.140658 0.015259
0.886 0.140642 0.0153048
0.024445 0.0624094 0.0597391
0.0264897 0.0635996 0.0558633
0.0344396 0.0727092 0.0424353
0.0656443 0.0759899 0.0343023
0.108431 0.0741131 0.0352636
0.139681 0.0748302 0.0325322
0.170123 0.0762493 0.0297398
0.199451 0.078294 0.0280919
0.229435 0.0803998 0.0268406
0.260151 0.0829328 0.0252537
0.2916 0.0852674 0.0235904
0.324651 0.0876326 0.0216831
0.357946 0.0910048 0.0194247
0.390753 0.0940566 0.0178073
0.423224 0.0979629 0.016907
0.455985 0.101701 0.0160525
0.488167 0.106355 0.0150912
0.5205 0.111025 0.014786
0.552499 0.116167 0.0142977
0.584665 0.120897 0.0141146
0.616892 0.125917 0.0143282
0.649363 0.130571 0.0146487
0.681651 0.13489 0.0148013
0.7122 0.138781 0.0149233
0.740902 0.141756 0.0149538
0.764111 0.143435 0.0151217
0.785779 0.14522 0.0151675
0.80705 0.146685 0.0151369
0.82855 0.148226 0.0153201
0.850568 0.149416 0.0152285
0.872282 0.150484 0.0153201
0.882185 0.1505 0.0153048
0.886275 0.15021 0.0153811
0.0225681 0.0916762 0.0826276
0.0234836 0.0916915 0.0802625
0.0335546 0.0948043 0.073991
0.0444038 0.103334 0.0489052
0.0930953 0.101244 0.0421912
0.143267 0.0987564 0.0435187
0.171984 0.0996414 0.0396735
0.201358 0.100832 0.0366674
0.230411 0.102861 0.0334783
0.259068 0.105852 0.0304265
0.290288 0.10811 0.0282597
0.323079 0.11017 0.026215
0.35613 0.112337 0.0234684
0.389029 0.11548 0.0205997
0.422415 0.118227 0.0186313
0.454994 0.121996 0.0163882
0.487282 0.125887 0.0154269
0.51931 0.130098 0.0145876
0.551629 0.134203 0.0142214
0.583719 0.138338 0.0144045
0.616281 0.142641 0.0145113
0.648478 0.147021 0.0145876
0.681025 0.150759 0.0146944
0.71191 0.154162 0.0149386
0.740597 0.156695 0.0150301
0.765316 0.158556 0.015198
0.787106 0.159686 0.0152285
0.808957 0.160815 0.0155489
0.830381 0.162081 0.0158083
0.852125 0.162615 0.0157015
0.874022 0.163455 0.0157168
0.883757 0.163348 0.0157778
0.887755 0.162768 0.0158236
0.0202945 0.119402 0.100389
0.0203403 0.119371 0.0985885
0.0289921 0.120027 0.0941024
0.0497292 0.123949 0.0824445
0.0580453 0.134737 0.0468757
0.125917 0.129152 0.0530861
0.175967 0.12636 0.0548409
0.202899 0.128618 0.0508888
0.232166 0.129396 0.0461738
0.261479 0.131106 0.0419471
0.291096 0.133577 0.0385595
0.322042 0.136049 0.0346838
0.355184 0.138094 0.0320745
0.388235 0.140093 0.0287022
0.42179 0.142412 0.0263371
0.454673 0.14493 0.02327
0.487251 0.147784 0.0196078
0.520088 0.150515 0.0171664
0.552132 0.153857 0.0157321
0.584222 0.15758 0.0146487
0.616602 0.161578 0.0149081
0.64828 0.165103 0.0148318
0.681239 0.16846 0.0153506
0.712398 0.171542 0.0155795
0.741344 0.173693 0.0157473
0.767819 0.174929 0.0158236
0.789487 0.175891 0.0159915
0.811337 0.176715 0.0162509
0.832959 0.177447 0.0162356
0.854261 0.178058 0.0162356
0.876356 0.178363 0.0162966
0.885664 0.178103 0.0163729
0.890013 0.177493 0.0163729
0.020798 0.146654 0.119951
0.0206455 0.146166 0.117983
0.0255741 0.146487 0.113878
0.0454566 0.149081 0.105562
0.06392 0.156146 0.0853132
0.0894484 0.163012 0.0587167
0.159716 0.157687 0.0662242
0.206729 0.155764 0.0673991
0.234287 0.158312 0.0643931
0.264149 0.158709 0.0602884
0.294408 0.159472 0.0550088
0.324758 0.161273 0.0504005
0.356008 0.163745 0.0459602
0.388678 0.165698 0.0417639
0.421668 0.167285 0.0388037
0.454765 0.169406 0.0350195
0.487587 0.171527 0.0316625
0.520256 0.173709 0.028397
0.553246 0.17615 0.0244907
0.585779 0.178759 0.0209659
0.618387 0.181476 0.0180667
0.650858 0.184115 0.0169375
0.682948 0.187564 0.0159915
0.714275 0.190204 0.016022
0.743084 0.192111 0.0162509
0.771435 0.193149 0.0165103
0.792874 0.193805 0.0167697
0.814221 0.1944 0.0168917
0.835981 0.194553 0.016846
0.857542 0.194812 0.016968
0.879194 0.195102 0.0170138
0.887938 0.194644 0.0170901
0.892561 0.193881 0.0170291
0.0217136 0.172885 0.141588
0.0216068 0.171969 0.139116
0.0245518 0.172641 0.136156
0.0408942 0.17435 0.128923
0.0737316 0.177508 0.116106
0.0756542 0.189303 0.0820172
0.127016 0.190677 0.073579
0.19115 0.187091 0.0786145
0.237629 0.185214 0.0803693
0.267399 0.187747 0.0773632
0.297139 0.188006 0.0738231
0.329152 0.187762 0.0693065
0.360586 0.188663 0.0645609
0.392111 0.190311 0.0605478
0.422904 0.192859 0.0555428
0.45539 0.194522 0.0515602
0.488289 0.19617 0.0480812
0.521324 0.197894 0.0444343
0.554101 0.199634 0.04094
0.586694 0.20174 0.036286
0.619394 0.203784 0.0320897
0.652277 0.20589 0.0276493
0.68545 0.208087 0.0237888
0.7178 0.209888 0.0204166
0.746349 0.210712 0.0185702
0.774899 0.212024 0.0178073
0.796689 0.21268 0.017731
0.818082 0.213153 0.0178225
0.839368 0.213382 0.0180972
0.861265 0.213428 0.0180972
0.88304 0.213535 0.018265
0.890898 0.212741 0.0181582
0.894926 0.211826 0.0180972
0.0233463 0.19855 0.16463
0.0233005 0.197772 0.162432
0.0241245 0.198306 0.159884
0.0379034 0.199496 0.15378
0.0717021 0.201877 0.143771
0.0936904 0.209628 0.123827
0.098909 0.220325 0.084535
0.163714 0.219013 0.0883803
0.221256 0.216602 0.0920729
0.269322 0.214466 0.0944381
0.3019 0.216709 0.0910658
0.332341 0.217029 0.0869612
0.365576 0.216175 0.0823377
0.397238 0.216419 0.0780499
0.428153 0.217639 0.0742809
0.458885 0.219364 0.0707713
0.490288 0.221683 0.0664378
0.522499 0.222889 0.0633707
0.555276 0.224292 0.0594949
0.588312 0.226001 0.0563821
0.620966 0.227619 0.0518502
0.653788 0.229145 0.0476692
0.686625 0.230732 0.0431373
0.719234 0.232181 0.0383612
0.748867 0.232807 0.0328679
0.777737 0.232868 0.0275273
0.801984 0.232731 0.0234836
0.823636 0.23238 0.0207065
0.844678 0.232319 0.0196384
0.865888 0.232578 0.0193027
0.887495 0.232593 0.0194858
0.894713 0.232029 0.0194705
0.8981 0.231235 0.019501
0.0251316 0.224002 0.188937
0.0250553 0.223148 0.187015
0.0249485 0.223682 0.184024
0.0354009 0.224323 0.179171
0.0672923 0.22652 0.17084
0.104479 0.231357 0.158907
0.10782 0.242359 0.125093
0.130007 0.249821 0.0914778
0.197116 0.24799 0.102815
0.252537 0.245777 0.10602
0.301823 0.243427 0.108125
0.337774 0.245289 0.103807
0.368368 0.24593 0.100206
0.401511 0.244617 0.0952926
0.433433 0.244465 0.0910353
0.464622 0.245304 0.087602
0.495567 0.246387 0.0841688
0.526116 0.248249 0.0802777
0.557458 0.250034 0.0771496
0.589837 0.251225 0.0742046
0.62269 0.252247 0.0719463
0.655451 0.253407 0.0686961
0.687984 0.254566 0.0656596
0.720439 0.255589 0.0612192
0.751003 0.25594 0.0563516
0.779522 0.255695 0.0505531
0.805722 0.255604 0.0449989
0.827161 0.255009 0.0396887
0.849134 0.254582 0.0346838
0.870756 0.253819 0.0297398
0.892439 0.25301 0.0253147
0.899413 0.252125 0.0241093
0.902678 0.251057 0.0234379
0.0271153 0.249439 0.213581
0.0270695 0.248646 0.211627
0.0270848 0.24889 0.208927
0.0335241 0.249607 0.204852
0.0637064 0.250813 0.19733
0.101045 0.255421 0.188205
0.12726 0.262684 0.169741
0.125475 0.274479 0.124544
0.167559 0.278294 0.105791
0.228992 0.277302 0.118471
0.284657 0.274891 0.120256
0.336156 0.271916 0.124193
0.37319 0.273594 0.118959
0.403693 0.274937 0.114183
0.437049 0.273777 0.10901
0.469322 0.272862 0.103975
0.500572 0.273503 0.10071
0.531289 0.274266 0.0972763
0.562158 0.275517 0.0937362
0.593103 0.277043 0.090837
0.624979 0.278584 0.0876936
0.657359 0.279301 0.0856794
0.68983 0.280034 0.0831617
0.722408 0.280583 0.0807355
0.753399 0.28072 0.0777295
0.782086 0.279973 0.0744335
0.809735 0.279347 0.0699168
0.830961 0.278508 0.0657664
0.852399 0.277684 0.0607462
0.874144 0.277058 0.0559091
0.895888 0.276204 0.0506752
0.902449 0.275212 0.048127
0.905821 0.274067 0.0467079
0.0287633 0.275273 0.237949
0.028687 0.274266 0.235508
0.028687 0.274174 0.232807
0.0319066 0.275044 0.230228
0.0598306 0.275929 0.223285
0.0956588 0.28014 0.215732
0.136629 0.285191 0.203464
0.14522 0.29453 0.174517
0.145342 0.306142 0.12314
0.20264 0.307637 0.122698
0.260975 0.306691 0.134707
0.317922 0.303777 0.1355
0.370596 0.30045 0.139513
0.407584 0.302266 0.134524
0.438468 0.304082 0.129671
0.471336 0.30312 0.124102
0.50428 0.301823 0.117998
0.535805 0.301915 0.113985
0.566705 0.302327 0.110292
0.597513 0.303181 0.106767
0.628473 0.304494 0.103792
0.659632 0.305791 0.100771
0.691508 0.306767 0.0985275
0.724086 0.307118 0.0963607
0.755474 0.307118 0.0940719
0.784451 0.306035 0.0911116
0.813275 0.305241 0.088304
0.835157 0.304112 0.0856641
0.856352 0.302815 0.0824445
0.877516 0.301717 0.0796063
0.899275 0.300786 0.0763561
0.905653 0.299535 0.0749523
0.908675 0.298482 0.0737011
0.0302281 0.301137 0.260548
0.0300755 0.300023 0.258244
0.0300298 0.299687 0.256031
0.0313878 0.300832 0.253315
0.0547341 0.301274 0.247822
0.0916762 0.30425 0.240497
0.131579 0.309697 0.231052
0.161517 0.316014 0.215213
0.1617 0.327184 0.175189
0.174243 0.336751 0.126879
0.23592 0.337316 0.140185
0.293477 0.335821 0.150851
0.350759 0.332784 0.150256
0.403067 0.329534 0.154971
0.440192 0.331289 0.149905
0.472297 0.333593 0.144869
0.503868 0.332998 0.139178
0.53785 0.331258 0.132876
0.569848 0.330739 0.128405
0.600961 0.330892 0.124636
0.632029 0.33138 0.120699
0.663294 0.332311 0.117601
0.69427 0.333165 0.114153
0.725811 0.334066 0.111391
0.757107 0.334218 0.108843
0.786801 0.333364 0.106142
0.815595 0.332143 0.104112
0.838941 0.330861 0.101549
0.860212 0.329534 0.0996414
0.881865 0.328099 0.0971847
0.902922 0.326787 0.0944076
0.90927 0.325536 0.0932784
0.912322 0.324239 0.092195
0.0311589 0.327153 0.281422
0.0310369 0.325963 0.279561
0.0310063 0.325841 0.277394
0.0317388 0.32668 0.274952
0.0493782 0.327611 0.270512
0.0886244 0.32929 0.263294
0.125673 0.334936 0.255909
0.16788 0.339345 0.24448
0.179355 0.348135 0.220096
0.17702 0.359976 0.170703
0.210742 0.366384 0.144167
0.268605 0.366598 0.157748
0.326711 0.364721 0.166491
0.383597 0.361761 0.16527
0.433677 0.359258 0.169894
0.47277 0.360403 0.165606
0.505455 0.363165 0.1608
0.536217 0.362753 0.155093
0.570642 0.361059 0.149065
0.603754 0.359808 0.143755
0.635126 0.35967 0.139681
0.666407 0.359731 0.136156
0.697459 0.360037 0.132601
0.729 0.360769 0.129656
0.759869 0.361196 0.126406
0.789044 0.361089 0.123262
0.817624 0.359808 0.120256
0.842847 0.358618 0.117769
0.864012 0.357061 0.115267
0.885298 0.355718 0.112963
0.906905 0.354055 0.11078
0.913512 0.352728 0.109667
0.916182 0.351614 0.108568
0.0316014 0.353658 0.300694
0.0316014 0.35259 0.298802
0.0315862 0.352346 0.296971
0.0318456 0.353017 0.295216
0.0451514 0.353643 0.290944
0.0855421 0.354025 0.283803
0.121386 0.359716 0.27779
0.16318 0.364431 0.268559
0.193652 0.370245 0.25481
0.195544 0.380911 0.220829
0.197986 0.392126 0.168612
0.245945 0.395544 0.161944
0.302327 0.395422 0.175448
0.36141 0.393286 0.182055
0.415991 0.390738 0.180484
0.464302 0.388769 0.184955
0.503807 0.389761 0.181292
0.537743 0.392157 0.176654
0.568887 0.392554 0.171466
0.602884 0.390951 0.165179
0.636545 0.389151 0.159548
0.668742 0.388571 0.155428
0.700008 0.388296 0.151675
0.731594 0.38854 0.148501
0.762982 0.388586 0.145312
0.792554 0.388174 0.141695
0.820539 0.387472 0.138674
0.846571 0.386404 0.135622
0.867643 0.384985 0.133272
0.888685 0.383459 0.130663
0.910246 0.382055 0.128435
0.917449 0.380713 0.127337
0.920577 0.37937 0.126375
0.0319524 0.380194 0.319097
0.0319371 0.379202 0.317266
0.0319219 0.379095 0.315297
0.0319982 0.379416 0.313176
0.0438239 0.379934 0.31017
0.0830091 0.379492 0.302998
0.120012 0.384436 0.298024
0.159213 0.389822 0.290379
0.197314 0.394156 0.280278
0.211963 0.402335 0.259998
0.211353 0.413825 0.217807
0.227802 0.422889 0.176242
0.281697 0.424567 0.181018
0.338186 0.423896 0.193179
0.39588 0.421576 0.197253
0.448249 0.419669 0.195773
0.495003 0.41825 0.200183
0.534798 0.419135 0.196963
0.569223 0.421714 0.192615
0.601221 0.422385 0.18735
0.635004 0.420539 0.181048
0.6692 0.418723 0.175967
0.701854 0.4177 0.171801
0.733532 0.417044 0.168261
0.765194 0.416602 0.16466
0.795636 0.416236 0.161868
0.823957 0.415305 0.157961
0.85124 0.414084 0.15494
0.871885 0.412894 0.152331
0.892638 0.411673 0.149447
0.913649 0.410178 0.146944
0.921706 0.408743 0.145693
0.92459 0.407446 0.144396
0.0327611 0.407218 0.336065
0.0324102 0.406149 0.33431
0.0323796 0.405814 0.332311
0.0324407 0.405905 0.330022
0.0429999 0.406027 0.327062
0.0813458 0.405249 0.320607
0.119509 0.409094 0.315679
0.15555 0.415244 0.309316
0.195087 0.419547 0.301122
0.225071 0.42504 0.28957
0.228809 0.435111 0.260746
0.229664 0.446311 0.213794
0.265034 0.452201 0.191867
0.318349 0.453376 0.200153
0.374289 0.452415 0.210132
0.430076 0.450401 0.21294
0.480278 0.449012 0.211536
0.525444 0.447822 0.21503
0.565438 0.448585 0.212436
0.600397 0.451041 0.207691
0.633387 0.451865 0.202853
0.666835 0.450477 0.197055
0.701427 0.448432 0.192416
0.734264 0.446677 0.188006
0.766461 0.446021 0.184695
0.797955 0.445426 0.18146
0.826749 0.443824 0.178119
0.853819 0.442557 0.174792
0.876188 0.441001 0.17203
0.896895 0.439857 0.16965
0.917311 0.438514 0.166674
0.925887 0.437064 0.165042
0.928923 0.435798 0.163912
0.0329595 0.434318 0.351461
0.0329595 0.43299 0.34992
0.0329595 0.432364 0.347951
0.0331426 0.432074 0.345922
0.0431067 0.432212 0.342748
0.0808576 0.431083 0.336553
0.119402 0.434272 0.331685
0.154696 0.440223 0.326818
0.192554 0.444846 0.319677
0.227634 0.449577 0.310872
0.244892 0.457069 0.293767
0.245243 0.468101 0.257588
0.2551 0.478111 0.214557
0.302846 0.48127 0.209186
0.356771 0.481559 0.218708
0.410315 0.480659 0.226749
0.463447 0.479194 0.227741
0.511543 0.478447 0.226856
0.555962 0.477699 0.229694
0.595865 0.478523 0.227344
0.631205 0.480674 0.222858
0.665537 0.481666 0.218494
0.698589 0.480339 0.212757
0.732631 0.47805 0.208545
0.766735 0.476188 0.204837
0.799237 0.474937 0.201587
0.829145 0.473289 0.197879
0.856535 0.471931 0.195132
0.879393 0.470161 0.191821
0.900465 0.468711 0.189242
0.921279 0.467124 0.18674
0.930968 0.465568 0.185031
0.933684 0.464439 0.183886
0.0333257 0.461219 0.365423
0.0332647 0.459876 0.363531
0.0332647 0.458946 0.36144
0.0338903 0.458854 0.359792
0.045594 0.45864 0.356954
0.0815137 0.456901 0.351003
0.119493 0.45977 0.346624
0.155245 0.465049 0.342
0.190005 0.470268 0.335805
0.225864 0.47509 0.328664
0.257954 0.480186 0.318853
0.262058 0.490013 0.293797
0.261982 0.500969 0.251362
0.294286 0.507103 0.229191
0.342428 0.509468 0.227848
0.394766 0.509453 0.236454
0.446281 0.509117 0.242878
0.496864 0.508156 0.242695
0.542779 0.50782 0.241596
0.58616 0.50724 0.243687
0.626017 0.508141 0.241413
0.661753 0.51043 0.237263
0.697017 0.51162 0.233219
0.729976 0.510201 0.228855
0.764218 0.507973 0.225299
0.798566 0.505776 0.221653
0.83032 0.503883 0.218128
0.859236 0.501762 0.214572
0.882872 0.499947 0.211627
0.903517 0.498222 0.209232
0.92462 0.496483 0.206348
0.934676 0.495003 0.204685
0.937896 0.493492 0.203632
0.0335393 0.487922 0.377295
0.0334478 0.486534 0.375875
0.033463 0.485863 0.374121
0.0345312 0.486 0.372442
0.0494698 0.48484 0.369055
0.0839857 0.483055 0.363561
0.120485 0.485527 0.359869
0.155779 0.490089 0.355489
0.189044 0.496101 0.350225
0.223682 0.500725 0.343938
0.257343 0.505394 0.336248
0.276936 0.512383 0.321599
0.279194 0.522713 0.289174
0.290547 0.53225 0.252689
0.334142 0.535637 0.244404
0.382895 0.537194 0.246784
0.432761 0.537453 0.253758
0.481987 0.537301 0.257984
0.530205 0.537057 0.25742
0.57438 0.537133 0.256382
0.616861 0.537041 0.257954
0.656336 0.537957 0.25536
0.693019 0.53994 0.251469
0.728985 0.541314 0.248341
0.762051 0.540215 0.245533
0.796231 0.537697 0.242115
0.829908 0.53518 0.238285
0.860746 0.532296 0.234684
0.885756 0.530175 0.231586
0.906508 0.528161 0.228977
0.927398 0.526497 0.226886
0.939116 0.524773 0.224643
0.942061 0.523537 0.223667
0.034226 0.514611 0.388495
0.0341955 0.513405 0.387015
0.0341039 0.513069 0.385367
0.0361944 0.512963 0.383978
0.0552071 0.510781 0.37995
0.087068 0.509087 0.375219
0.12166 0.511345 0.371527
0.156878 0.515511 0.367819
0.189181 0.52134 0.362875
0.222309 0.526131 0.357366
0.255909 0.53109 0.351171
0.286763 0.536202 0.342367
0.295827 0.545113 0.320012
0.297185 0.555398 0.282094
0.331365 0.560678 0.266209
0.375494 0.563546 0.260807
0.422446 0.564858 0.264759
0.469825 0.565744 0.270405
0.517113 0.565988 0.273152
0.563424 0.565942 0.271489
0.606394 0.566278 0.270481
0.647593 0.566751 0.271305
0.687236 0.567651 0.268986
0.724544 0.569284 0.265187
0.760571 0.570748 0.264118
0.794354 0.569589 0.262074
0.828244 0.567407 0.258671
0.861006 0.564462 0.255344
0.88777 0.561242 0.252079
0.909697 0.558816 0.249073
0.930495 0.557 0.246891
0.943282 0.555291 0.245212
0.946563 0.553826 0.243977
0.0348974 0.542016 0.398413
0.0348821 0.540856 0.397024
0.0344091 0.540536 0.395605
0.0400854 0.539391 0.393332
0.0617533 0.536767 0.389441
0.0902724 0.535317 0.385748
0.123857 0.537072 0.382498
0.158175 0.54081 0.378531
0.189914 0.546487 0.374792
0.221927 0.551873 0.370016
0.254749 0.556588 0.364034
0.28777 0.561425 0.35761
0.31075 0.567498 0.345006
0.314336 0.577401 0.31545
0.329915 0.585534 0.286748
0.373693 0.588617 0.281712
0.416175 0.591409 0.27837
0.461448 0.592859 0.282414
0.50721 0.593866 0.286595
0.552331 0.594644 0.28806
0.597208 0.595117 0.286213
0.639292 0.59585 0.284916
0.679728 0.596246 0.28455
0.719173 0.597147 0.281956
0.75552 0.598642 0.279423
0.792432 0.599893 0.27982
0.82678 0.599207 0.278553
0.8607 0.596872 0.275761
0.889418 0.593469 0.272343
0.912444 0.590875 0.269566
0.93373 0.588663 0.267247
0.947906 0.586557 0.265217
0.951095 0.584955 0.263859
0.0362554 0.569238 0.407523
0.035996 0.568017 0.405859
0.03682 0.567407 0.404486
0.0453956 0.565499 0.402106
0.0685283 0.562783 0.39823
0.096025 0.561547 0.394949
0.126436 0.562844 0.392111
0.160159 0.566308 0.388891
0.191241 0.571511 0.385275
0.222232 0.577188 0.380789
0.253925 0.581857 0.376165
0.286885 0.586892 0.370748
0.318761 0.59173 0.363455
0.330953 0.599756 0.343175
0.336706 0.60911 0.311345
0.373571 0.613458 0.301152
0.414832 0.616648 0.297002
0.45594 0.619211 0.295567
0.500008 0.621103 0.299168
0.54406 0.622522 0.301839
0.587503 0.623453 0.302129
0.630671 0.623972 0.299687
0.671702 0.624949 0.298207
0.711833 0.625803 0.296971
0.750698 0.626703 0.295216
0.787274 0.627955 0.294957
0.824582 0.628992 0.295613
0.859541 0.628626 0.295247
0.890669 0.625711 0.292149
0.91577 0.622995 0.289464
0.937285 0.620478 0.287144
0.952651 0.618341 0.284825
0.955444 0.616938 0.283986
0.0374304 0.596399 0.415442
0.0371862 0.595254 0.414328
0.0415503 0.593637 0.412619
0.0528878 0.591302 0.409979
0.0755474 0.58854 0.406012
0.100847 0.588006 0.403555
0.129305 0.588724 0.400702
0.161837 0.591714 0.397757
0.192782 0.596597 0.394949
0.222309 0.602502 0.391028
0.253803 0.607492 0.386923
0.285985 0.612268 0.382239
0.319158 0.616876 0.376532
0.345693 0.622171 0.366201
0.350484 0.631739 0.337987
0.374197 0.638209 0.319036
0.415564 0.641352 0.31577
0.454994 0.644755 0.312291
0.495491 0.647547 0.312413
0.537392 0.649226 0.314748
0.57995 0.651057 0.316289
0.622461 0.652445 0.315694
0.664286 0.653452 0.312581
0.704265 0.65449 0.310201
0.743816 0.655344 0.3093
0.781979 0.655848 0.309361
0.819242 0.656809 0.309346
0.856138 0.657832 0.310552
0.891508 0.657511 0.310994
0.919188 0.655116 0.308721
0.940612 0.652476 0.306523
0.956786 0.650278 0.304555
0.960235 0.648661 0.303319
0.0388037 0.623087 0.422614
0.0399329 0.62153 0.421225
0.0475471 0.619287 0.419318
0.0617838 0.616739 0.416587
0.0822766 0.614801 0.413703
0.106111 0.614221 0.41117
0.132052 0.614603 0.408774
0.163424 0.617227 0.405936
0.194125 0.621744 0.403449
0.222995 0.627817 0.400183
0.253422 0.632944 0.396582
0.284977 0.637568 0.392279
0.317906 0.642298 0.387839
0.351629 0.646799 0.3823
0.366125 0.654307 0.363882
0.375952 0.662867 0.336065
0.416815 0.666468 0.33315
0.455665 0.669779 0.330358
0.492988 0.673213 0.327184
0.533089 0.676097 0.328435
0.573861 0.678401 0.329427
0.615152 0.680003 0.329595
0.656596 0.681498 0.327703
0.697612 0.682719 0.324422
0.737041 0.684031 0.322301
0.775692 0.684733 0.322957
0.814023 0.685359 0.323369
0.85095 0.686366 0.323995
0.887648 0.687083 0.325643
0.920684 0.686854 0.326879
0.943069 0.684733 0.32578
0.961334 0.682307 0.323613
0.964813 0.680613 0.322698
0.0406958 0.649454 0.429191
0.0444343 0.647379 0.427771
0.0536507 0.645243 0.425895
0.068986 0.64271 0.42295
0.0877394 0.640833 0.420142
0.109422 0.640528 0.418112
0.13431 0.64097 0.416022
0.164706 0.643061 0.414054
0.194934 0.647013 0.411276
0.223514 0.652644 0.408453
0.252445 0.658381 0.405158
0.283726 0.66331 0.401816
0.316381 0.668055 0.398108
0.349844 0.67248 0.393271
0.379004 0.67744 0.385046
0.385626 0.68658 0.358221
0.41799 0.691371 0.349203
0.45658 0.694911 0.34725
0.493614 0.698787 0.344869
0.530587 0.70222 0.341894
0.569635 0.704936 0.342321
0.609628 0.707485 0.342504
0.649836 0.709728 0.34139
0.690639 0.711421 0.33872
0.730724 0.712612 0.334981
0.769131 0.713222 0.334859
0.807782 0.713817 0.335653
0.845731 0.714504 0.336492
0.882597 0.715343 0.337682
0.917784 0.715663 0.339513
0.944427 0.715373 0.341497
0.965469 0.714122 0.341695
0.96878 0.712612 0.340856
0.0435798 0.675837 0.435035
0.0492561 0.673701 0.43386
0.0601053 0.671427 0.431785
0.0759289 0.668956 0.429023
0.0931411 0.667216 0.426429
0.112078 0.666804 0.424475
0.135943 0.666987 0.422736
0.165118 0.668711 0.420676
0.195071 0.672557 0.418448
0.223468 0.677607 0.41622
0.251575 0.683848 0.413275
0.282322 0.689052 0.4103
0.314244 0.693706 0.407019
0.347738 0.698116 0.402899
0.381765 0.702571 0.398749
