code/data/lut/34蓝绿沙色3.cube
TITLE "LD - Explorer Teal 3"
# Copyright (c) 2019 Lens Distortions, LLC. All Rights Reserved.
# LensDistortions.com
# ref-EXTL14
LUT_3D_SIZE 9
0.024918 0.0236057 0.0241855
0.0716106 0.0314488 0.0327611
0.226246 0.0331884 0.0307927
0.392752 0.0454108 0.0284428
0.540352 0.0697337 0.0285649
0.678187 0.0979629 0.0293126
0.797284 0.121691 0.0309758
0.881071 0.136095 0.0328832
0.930922 0.142855 0.0341955
0.0289158 0.0866407 0.0779278
0.08542 0.10013 0.049485
0.238575 0.101518 0.0429236
0.383322 0.111437 0.0348974
0.52842 0.127016 0.0276951
0.665721 0.148775 0.027985
0.79115 0.169482 0.0305028
0.878096 0.180285 0.0332647
0.931548 0.184253 0.034699
0.0294347 0.203098 0.166354
0.0663005 0.21413 0.14876
0.228794 0.231769 0.0920272
0.395315 0.231968 0.0829175
0.532616 0.239582 0.0689403
0.670756 0.249042 0.0603647
0.798444 0.25803 0.0477607
0.889876 0.26128 0.036347
0.939101 0.262852 0.0374304
0.0368811 0.323186 0.278218
0.0555428 0.327626 0.268101
0.158618 0.359884 0.186526
0.377371 0.364981 0.155657
0.546075 0.366354 0.143877
0.680659 0.366567 0.124514
0.805814 0.373465 0.115145
0.9037 0.372366 0.108766
0.951217 0.369131 0.102846
0.0404517 0.443961 0.366873
0.0485084 0.444572 0.358648
0.198825 0.462837 0.332784
0.281376 0.498039 0.20676
0.520333 0.492866 0.228275
0.680903 0.497292 0.219593
0.812055 0.493614 0.200381
0.915129 0.492042 0.189853
0.962524 0.48864 0.182391
0.0434119 0.562432 0.428595
0.0601358 0.561669 0.422843
0.19379 0.573343 0.40441
0.3178 0.596582 0.354864
0.459022 0.615717 0.290791
0.652964 0.616114 0.296696
0.805264 0.621942 0.290776
0.922591 0.615091 0.279393
0.974807 0.609827 0.272404
0.0500343 0.677928 0.47039
0.0848249 0.674052 0.466026
0.202533 0.678752 0.452659
0.344762 0.696208 0.432456
0.454749 0.718608 0.370489
0.620752 0.727916 0.364126
0.782849 0.732906 0.355505
0.921553 0.737209 0.360739
0.988952 0.732754 0.359228
0.0631876 0.785824 0.5028
0.10576 0.780575 0.4972
0.204654 0.781537 0.487953
0.337423 0.798642 0.475303
0.471702 0.814832 0.448081
0.612116 0.829221 0.427802
0.758724 0.839414 0.413184
0.90219 0.843412 0.410315
0.993439 0.843442 0.413306
0.0679026 0.854673 0.522072
0.107485 0.854643 0.520104
0.182391 0.855558 0.511879
0.317357 0.871565 0.504494
0.458106 0.891798 0.492912
0.593973 0.908232 0.474052
0.73373 0.917967 0.461479
0.873899 0.925231 0.459556
0.983383 0.930678 0.459068
0.0336309 0.039765 0.0600443
0.103731 0.0400092 0.0946975
0.260151 0.0381933 0.10045
0.417655 0.0348669 0.0887465
0.564324 0.0313573 0.0640574
0.702327 0.0319524 0.0324102
0.816693 0.068864 0.0356146
0.893858 0.0910811 0.0349126
0.94078 0.105257 0.0363775
0.026688 0.113558 0.116014
0.0949569 0.113008 0.109422
0.2477 0.106752 0.0988327
0.394049 0.106416 0.087068
0.535515 0.117922 0.0766308
0.670359 0.136278 0.0684367
0.796399 0.154131 0.0589914
0.882673 0.1608 0.0475624
0.93611 0.162448 0.0390021
0.0310216 0.228412 0.207279
0.0571298 0.237171 0.207919
0.240162 0.240192 0.145174
0.400122 0.234745 0.118807
0.538598 0.238041 0.100862
0.674342 0.245151 0.0917678
0.800778 0.254963 0.0825208
0.892592 0.257435 0.0723125
0.942946 0.256153 0.064744
0.037644 0.34165 0.30486
0.0428168 0.345571 0.300938
0.213245 0.358923 0.256001
0.38143 0.369375 0.196109
0.547021 0.3673 0.178531
0.682414 0.36669 0.15259
0.808286 0.371756 0.139635
0.906889 0.370245 0.131289
0.954879 0.366979 0.125093
0.0405432 0.458335 0.385214
0.041825 0.457725 0.378332
0.20058 0.470451 0.359213
0.292927 0.500771 0.250889
0.521645 0.49543 0.257618
0.680293 0.4981 0.248539
0.813718 0.492805 0.223178
0.916991 0.490944 0.211307
0.965515 0.487053 0.203677
0.043946 0.575402 0.444526
0.0502632 0.573526 0.439078
0.193194 0.581277 0.425422
0.345098 0.597375 0.391577
0.462745 0.618524 0.317754
0.653849 0.617777 0.320928
0.805875 0.62237 0.311818
0.924773 0.614542 0.297536
0.977417 0.608408 0.289723
0.0515908 0.688319 0.486046
0.0760815 0.685084 0.481849
0.199268 0.687083 0.471138
0.345953 0.701717 0.453056
0.459159 0.721614 0.396338
0.6224 0.729549 0.38613
0.783246 0.73373 0.376532
0.923064 0.737438 0.376532
0.991577 0.732525 0.373724
0.0611734 0.795712 0.51902
0.0999924 0.791104 0.514733
0.200946 0.789929 0.506188
0.336522 0.804685 0.495247
0.485695 0.816556 0.479988
0.613596 0.831724 0.450385
0.75996 0.841779 0.432258
0.902937 0.844709 0.423682
0.996292 0.844358 0.429328
0.0666819 0.864469 0.539742
0.102708 0.864332 0.537667
0.179156 0.865034 0.530907
0.315602 0.879408 0.524758
0.457115 0.89781 0.514015
0.593881 0.91548 0.494728
0.732906 0.924132 0.475517
0.874159 0.929808 0.471778
0.986633 0.934417 0.471168
0.0296941 0.0875105 0.152956
0.0894789 0.0843671 0.238727
0.282048 0.0780804 0.254307
0.445197 0.0733043 0.245197
0.587884 0.0688029 0.231724
0.722057 0.0664378 0.212619
0.84239 0.0632029 0.193576
0.921889 0.0567178 0.177188
0.971649 0.0514687 0.165225
0.0272221 0.156344 0.212497
0.0708934 0.153017 0.204501
0.259266 0.138766 0.24445
0.419791 0.131044 0.22855
0.567315 0.121614 0.213718
0.704448 0.114931 0.189899
0.830732 0.114 0.168933
0.915312 0.108797 0.152499
0.970016 0.103319 0.140459
0.0332494 0.262135 0.27718
0.0542458 0.261402 0.278981
0.248707 0.259174 0.25716
0.404395 0.25069 0.237461
0.545022 0.248997 0.223636
0.680186 0.252766 0.2121
0.810147 0.256168 0.195331
0.90486 0.252506 0.176944
0.959014 0.251209 0.169589
0.038529 0.37557 0.356146
0.0384833 0.37351 0.352331
0.223087 0.381826 0.345846
0.394675 0.383291 0.291325
0.557641 0.373861 0.262531
0.687877 0.372656 0.242023
0.81619 0.371283 0.22179
0.916579 0.366247 0.201266
0.965652 0.362997 0.192416
0.0417487 0.490455 0.427359
0.0412757 0.485985 0.420233
0.212757 0.496345 0.417411
0.363195 0.50341 0.366674
0.534508 0.504952 0.333135
0.695247 0.498085 0.304555
0.820462 0.493843 0.281102
0.924727 0.489189 0.258366
0.973205 0.48481 0.250858
0.0449989 0.601465 0.477378
0.045182 0.59707 0.471595
0.196002 0.603021 0.465568
0.35491 0.609491 0.442069
0.482292 0.625727 0.378256
0.660578 0.62385 0.371664
0.8103 0.624765 0.355047
0.932067 0.614679 0.331044
0.984268 0.608286 0.32372
0.0532235 0.709148 0.515526
0.0628672 0.704662 0.510796
0.191394 0.704021 0.501564
0.349004 0.713207 0.488991
0.478264 0.727153 0.445502
0.627558 0.734386 0.424079
0.786603 0.737041 0.413306
0.927764 0.740093 0.402884
0.997208 0.733028 0.397345
0.0614176 0.812268 0.546975
0.0903334 0.80708 0.542397
0.194369 0.803418 0.534035
0.336004 0.815061 0.52575
0.488365 0.823957 0.511925
0.617945 0.836637 0.484794
0.761242 0.844648 0.463844
0.90576 0.847944 0.446693
1 0.846143 0.45211
0.0648051 0.878096 0.565164
0.096376 0.878065 0.563775
0.17409 0.877241 0.556619
0.313237 0.889281 0.55198
0.456535 0.906645 0.543267
0.595254 0.922148 0.526528
0.733227 0.932845 0.501305
0.875547 0.936828 0.488426
0.991363 0.939986 0.486641
0.0290837 0.156039 0.268421
0.0873884 0.166537 0.302373
0.285801 0.138781 0.405035
0.458351 0.13518 0.398306
0.608576 0.129229 0.385626
0.740124 0.124514 0.374304
0.858808 0.121935 0.367681
0.937316 0.11754 0.357427
0.986374 0.113817 0.349905
0.0307012 0.215946 0.318837
0.0691844 0.210178 0.314733
0.234333 0.195346 0.400351
0.431281 0.181445 0.381842
0.587228 0.173724 0.371557
0.722194 0.162478 0.35938
0.846082 0.159075 0.348837
0.929961 0.154574 0.337316
0.982925 0.149371 0.327993
0.03682 0.308431 0.387701
0.051667 0.303304 0.38204
0.217304 0.295003 0.364446
0.418357 0.28011 0.384878
0.568627 0.272953 0.365713
0.706386 0.266087 0.355901
0.836164 0.258015 0.340932
0.933196 0.240299 0.322148
0.987457 0.234195 0.312032
0.0399023 0.408865 0.424048
0.0396429 0.403433 0.418967
0.220523 0.402625 0.417777
0.404623 0.402548 0.396445
0.554299 0.392584 0.376593
0.691829 0.38703 0.36524
0.815213 0.387594 0.357107
0.925643 0.380163 0.34255
0.987259 0.368505 0.32665
0.0424506 0.521019 0.4813
0.0419623 0.514076 0.474372
0.177111 0.518837 0.475929
0.383627 0.521813 0.458564
0.543099 0.520912 0.420539
0.697734 0.510048 0.396338
0.823011 0.505211 0.380484
0.935134 0.497459 0.363806
0.991547 0.486824 0.345678
0.0471046 0.631037 0.529198
0.0467231 0.624887 0.523064
0.174105 0.628367 0.51957
0.380346 0.63418 0.519554
0.512276 0.636545 0.474845
0.672343 0.635828 0.46009
0.835691 0.623438 0.424582
0.941985 0.61944 0.412116
1 0.6112 0.391653
0.0560311 0.738033 0.564721
0.0555886 0.732067 0.55848
0.172366 0.729168 0.551034
0.377432 0.737758 0.556298
0.512642 0.738781 0.537774
0.648661 0.745846 0.51371
0.798779 0.745922 0.496315
0.948852 0.740017 0.470512
1 0.735668 0.456153
0.0634928 0.838834 0.593484
0.0768902 0.832792 0.589075
0.181765 0.826032 0.579919
0.351019 0.838743 0.584833
0.487358 0.840253 0.573465
0.633707 0.847349 0.55523
0.76817 0.853666 0.535698
0.915297 0.85568 0.506157
1 0.851987 0.503777
0.0660563 0.899199 0.608011
0.0855879 0.899138 0.606302
0.166827 0.898085 0.600198
0.318166 0.91107 0.601877
0.456977 0.923735 0.594903
0.605859 0.934035 0.582544
0.740063 0.945693 0.557351
0.879469 0.950103 0.517601
1 0.950164 0.513664
0.0369268 0.236759 0.388769
0.0943923 0.248493 0.417639
0.232837 0.235599 0.546075
0.464775 0.206271 0.544594
0.62179 0.202182 0.534203
0.762005 0.19884 0.524742
0.879805 0.194553 0.513497
0.95639 0.190326 0.505333
1 0.186557 0.498482
0.0390173 0.283818 0.434623
0.0791943 0.279133 0.434287
0.220905 0.274311 0.473381
0.440146 0.235798 0.532174
0.601297 0.23241 0.519966
0.743664 0.226749 0.510201
0.866957 0.217502 0.4981
0.949432 0.21239 0.488945
1 0.208469 0.481987
0.0392615 0.356588 0.483803
0.0578775 0.350195 0.476387
0.199145 0.339391 0.458671
0.392294 0.324544 0.532998
0.580621 0.313512 0.512215
0.724407 0.308827 0.499809
0.854765 0.297017 0.489265
0.9523 0.277226 0.478584
1 0.271733 0.470314
0.0413214 0.453285 0.537728
0.0411994 0.445792 0.533028
0.199771 0.440085 0.525124
0.378515 0.433097 0.509606
0.568414 0.420325 0.515618
0.707805 0.412253 0.493843
0.835904 0.405234 0.485969
0.947036 0.392111 0.472953
1 0.375647 0.459464
0.0438392 0.552178 0.558404
0.0433661 0.544152 0.551598
0.172869 0.542 0.55407
0.379675 0.539345 0.544915
0.553079 0.538933 0.525582
0.693141 0.529534 0.507027
0.82208 0.521218 0.494163
0.944442 0.509682 0.479072
1 0.494957 0.46154
0.0493629 0.659586 0.594812
0.0488289 0.652384 0.588739
0.126009 0.652598 0.587488
0.352911 0.651865 0.589807
0.540093 0.651545 0.569207
0.682887 0.649699 0.548455
0.828153 0.639353 0.524666
0.945647 0.63183 0.511315
1 0.619608 0.491081
0.0585794 0.763989 0.625879
0.0580148 0.757107 0.62002
0.139712 0.753674 0.61413
0.365911 0.757855 0.620249
0.536034 0.75964 0.623682
0.660716 0.75903 0.599008
0.8047 0.757687 0.58349
0.951308 0.749706 0.567269
1 0.741115 0.545022
0.0656596 0.865232 0.651453
0.0694285 0.858763 0.646174
0.16466 0.851026 0.638071
0.343969 0.860777 0.643091
0.536095 0.862425 0.651545
0.665492 0.861814 0.641138
0.789609 0.864759 0.632547
0.92224 0.865492 0.614755
1 0.86038 0.578454
0.0670176 0.923629 0.661387
0.0786145 0.9234 0.659068
0.166918 0.92134 0.653941
0.316564 0.930922 0.654673
0.475639 0.945846 0.655879
0.621164 0.951446 0.647898
0.756527 0.95903 0.632425
0.886717 0.966781 0.596002
1 0.964431 0.560693
0.0481117 0.319081 0.518288
0.106661 0.328557 0.542046
0.250126 0.332204 0.580667
0.455543 0.289067 0.667247
0.630472 0.273045 0.658732
0.77612 0.27129 0.6542
0.904799 0.270085 0.650263
0.97998 0.2645 0.64181
1 0.261097 0.636057
0.0492561 0.355718 0.557275
0.0902876 0.350744 0.555367
0.230503 0.345281 0.573114
0.423133 0.309865 0.658061
0.610193 0.291752 0.647349
0.756786 0.290532 0.641688
0.88954 0.285283 0.63714
0.972473 0.277546 0.628046
1 0.272602 0.621408
0.0439155 0.412421 0.587015
0.070985 0.405295 0.581369
0.199557 0.390661 0.56347
0.354299 0.390768 0.612055
0.575006 0.360739 0.641245
0.732677 0.357656 0.630198
0.87129 0.351614 0.627176
0.970962 0.330007 0.618631
1 0.319997 0.611414
0.0433356 0.497002 0.637247
0.0431373 0.489525 0.63209
0.188205 0.47744 0.612665
0.352926 0.471366 0.602411
0.55082 0.455711 0.642252
0.718166 0.448737 0.627787
0.849409 0.44416 0.616892
0.962341 0.427985 0.606241
1 0.409613 0.59675
0.0465858 0.593393 0.664042
0.0462501 0.585519 0.657816
0.163073 0.578546 0.656291
0.364965 0.57319 0.649409
0.538735 0.56434 0.634852
0.704845 0.55581 0.631174
0.833539 0.547189 0.611063
0.958022 0.533211 0.605951
1 0.517433 0.595178
0.0528267 0.688472 0.673732
0.0521859 0.680812 0.667506
0.112337 0.677928 0.66685
0.356222 0.672038 0.669871
0.535164 0.667308 0.65391
0.694377 0.667369 0.642847
0.824948 0.657206 0.626856
0.950347 0.645121 0.614069
1 0.630854 0.601144
0.0618296 0.79118 0.696818
0.0611887 0.783627 0.690974
0.112917 0.779065 0.68603
0.326467 0.776944 0.689189
0.518349 0.77377 0.690822
0.685389 0.772808 0.672877
0.817075 0.770611 0.660914
0.9514 0.761227 0.647059
1 0.749111 0.63006
0.0677043 0.891127 0.717525
0.0668498 0.883619 0.711482
0.138354 0.875883 0.703563
0.320653 0.878752 0.706279
0.519921 0.879377 0.714534
0.679316 0.878264 0.714687
0.802304 0.876341 0.702129
0.927886 0.876051 0.690669
1 0.868437 0.659678
0.0685893 0.945403 0.722377
0.0704662 0.944518 0.719554
0.144076 0.941909 0.713146
0.307912 0.948806 0.713405
0.464302 0.967346 0.717021
0.623453 0.968933 0.710185
0.764614 0.972992 0.700694
0.892714 0.978485 0.674205
1 0.980087 0.62742
0.060914 0.389425 0.62536
0.118288 0.397498 0.643503
0.258198 0.401953 0.672038
0.418036 0.36762 0.780102
0.637079 0.340337 0.76704
0.782864 0.338842 0.761929
0.915908 0.339651 0.760784
1 0.339117 0.759228
1 0.335103 0.753216
0.0633555 0.423896 0.662425
0.103685 0.419699 0.661173
0.237461 0.414771 0.672328
0.384436 0.391043 0.754849
0.614923 0.356878 0.759167
0.763485 0.352926 0.751583
0.898924 0.353353 0.74844
0.993591 0.351415 0.746273
1 0.341604 0.739269
0.0567941 0.471275 0.690242
0.0865644 0.463844 0.68365
0.211048 0.450202 0.669444
0.359808 0.449393 0.698192
0.573037 0.415854 0.753063
0.738094 0.406973 0.742428
0.878752 0.406485 0.736324
0.986038 0.401999 0.734585
1 0.381018 0.72871
0.0468757 0.542596 0.729061
0.0554818 0.535698 0.721782
0.197238 0.522835 0.703334
0.346838 0.513191 0.689616
0.508247 0.508293 0.733883
0.711482 0.489067 0.738094
0.857267 0.486656 0.726894
0.974014 0.481682 0.722133
1 0.463462 0.714397
0.0512703 0.636271 0.771206
0.0506752 0.628122 0.763699
0.171283 0.616342 0.751369
0.350759 0.605829 0.733639
0.516075 0.597009 0.719692
0.693843 0.585885 0.740078
0.844038 0.581048 0.72604
0.970291 0.572366 0.7178
1 0.555825 0.70901
0.0582895 0.726635 0.780621
0.0576181 0.718944 0.773709
0.110719 0.713344 0.771771
0.344839 0.703059 0.769528
0.530663 0.695537 0.757092
0.688029 0.688716 0.742809
0.83415 0.683452 0.734127
0.958801 0.67248 0.718074
1 0.657679 0.709789
0.0651713 0.817746 0.782528
0.0644694 0.809964 0.775723
0.108278 0.803693 0.770718
0.317586 0.798215 0.774319
0.521706 0.790661 0.775143
0.678065 0.786892 0.755108
0.827604 0.787701 0.746624
0.951385 0.775769 0.73051
1 0.762158 0.719692
0.069398 0.916304 0.796674
0.0691081 0.908766 0.790204
0.123064 0.901289 0.782925
0.296086 0.89688 0.782376
0.471183 0.896742 0.791211
0.671382 0.889418 0.784741
0.814435 0.889097 0.77528
0.936477 0.886931 0.762737
1 0.87657 0.739849
0.0697032 0.96817 0.796872
0.0692912 0.967056 0.79295
0.125673 0.964355 0.786694
0.278355 0.964645 0.78143
0.43856 0.977081 0.784192
0.606668 0.986206 0.781308
0.769451 0.98703 0.776638
0.902464 0.989197 0.762356
1 0.989609 0.73019
0.0729686 0.442374 0.704768
0.129427 0.448508 0.720836
0.264958 0.452659 0.747097
0.407446 0.433371 0.823865
0.625193 0.397284 0.85388
0.783612 0.387106 0.848386
0.916854 0.387762 0.845975
1 0.387625 0.843976
1 0.387076 0.841901
0.0750439 0.471901 0.740124
0.114046 0.467704 0.738003
0.243229 0.462776 0.746929
0.396551 0.451072 0.784344
0.59794 0.413474 0.849226
0.764431 0.400854 0.842512
0.900114 0.401083 0.837873
0.995926 0.400366 0.83653
1 0.399374 0.833951
0.0695964 0.514138 0.770459
0.0977951 0.506981 0.763699
0.219455 0.496056 0.752438
0.366155 0.493248 0.777874
0.559289 0.463142 0.853422
0.740551 0.449363 0.841779
0.882277 0.448661 0.835187
0.990662 0.447684 0.833524
1 0.445228 0.831876
0.0551461 0.579873 0.812009
0.0751202 0.573037 0.803372
0.206897 0.561898 0.792477
0.349706 0.55082 0.774075
0.502388 0.549355 0.80975
0.699992 0.529427 0.846937
0.853651 0.524956 0.832517
0.979431 0.524453 0.829129
1 0.522622 0.82652
0.0535592 0.665217 0.867689
0.0531167 0.658412 0.861357
0.180285 0.647227 0.848676
0.347494 0.636835 0.826413
0.501396 0.630793 0.828275
0.673182 0.620264 0.853483
0.837598 0.613291 0.840864
0.97557 0.611032 0.832593
1 0.607523 0.827848
0.0615854 0.760204 0.900954
0.060914 0.753277 0.895308
0.136904 0.744762 0.890517
0.341344 0.734493 0.877714
0.502358 0.724926 0.867445
0.65687 0.717556 0.862181
0.825605 0.707652 0.848951
0.9664 0.703914 0.836362
1 0.69723 0.828229
0.0674449 0.851591 0.905577
0.0670939 0.844114 0.897337
0.114061 0.836622 0.891966
0.319707 0.825299 0.891737
0.53579 0.812207 0.87689
0.681941 0.809934 0.869245
0.813687 0.806821 0.857557
0.957198 0.801068 0.844373
1 0.789929 0.833463
0.0699321 0.940185 0.898802
0.0699321 0.933059 0.891447
0.116701 0.924865 0.883314
0.285664 0.916365 0.880308
0.529473 0.904738 0.87718
0.689082 0.898436 0.868605
0.816251 0.89839 0.86186
0.943389 0.89987 0.852918
1 0.887373 0.837644
0.0697948 0.99025 0.893034
0.0690776 0.989303 0.887495
0.114427 0.986358 0.880323
0.257679 0.982834 0.872831
0.412055 0.988922 0.873823
0.552438 0.996353 0.873732
0.745449 0.996292 0.865629
0.911665 0.996674 0.862806
1 0.996963 0.842344
0.0780041 0.466026 0.743343
0.131289 0.466178 0.749371
0.264683 0.465415 0.768338
0.410422 0.453162 0.837125
0.617212 0.421576 0.897871
0.783917 0.412467 0.899886
0.916838 0.415366 0.90219
1 0.417548 0.904692
1 0.418936 0.905898
0.0774701 0.482597 0.759518
0.115587 0.479713 0.75996
0.243534 0.476509 0.771786
0.399985 0.469902 0.806516
0.588052 0.438102 0.898375
0.763882 0.426474 0.898939
0.900679 0.429847 0.901183
0.996628 0.431601 0.902846
1 0.43241 0.904234
0.072282 0.522408 0.789868
0.0994278 0.517555 0.786923
0.221302 0.514382 0.791455
0.366552 0.508782 0.811551
0.551125 0.483742 0.899702
0.739925 0.471214 0.900694
0.882353 0.473075 0.90074
0.991684 0.474281 0.902998
1 0.473732 0.90457
0.059556 0.588251 0.836042
0.0796674 0.582925 0.831647
0.207416 0.574395 0.830152
0.350652 0.574075 0.837003
0.475212 0.562371 0.900557
0.692653 0.547982 0.903441
0.853315 0.545388 0.903548
0.979782 0.546838 0.903685
1 0.546654 0.905028
0.0541848 0.672633 0.901106
0.0542153 0.667231 0.897734
0.181491 0.656733 0.889509
0.347311 0.651637 0.88336
0.471855 0.645274 0.915068
0.66714 0.633967 0.913252
0.837125 0.627802 0.911528
0.976394 0.627649 0.910658
1 0.626154 0.910826
0.0619211 0.769696 0.947646
0.0612497 0.763729 0.945693
0.152865 0.754421 0.942031
0.331914 0.744793 0.936629
0.479774 0.736141 0.937575
0.657908 0.727016 0.929992
0.822721 0.720516 0.926223
0.965393 0.718349 0.924514
1 0.717037 0.923476
0.0677653 0.861921 0.958221
0.0675669 0.856321 0.957809
0.116548 0.849393 0.95906
0.321355 0.836896 0.959823
0.5084 0.828138 0.95404
0.664942 0.823651 0.950134
0.80943 0.817533 0.945357
0.954345 0.813077 0.941634
1 0.810712 0.939269
0.0695964 0.953658 0.956847
0.0691997 0.948562 0.957092
0.114672 0.94139 0.959442
0.294041 0.930556 0.960632
0.45597 0.925383 0.963531
0.6383 0.916854 0.963211
0.799481 0.913252 0.962219
0.937102 0.910887 0.959014
1 0.907622 0.955535
0.0684367 0.994995 0.953017
0.0680858 0.995163 0.953323
0.109209 0.996674 0.955062
0.258167 0.995605 0.95494
0.406943 0.996124 0.957183
0.536645 0.995483 0.958785
0.713436 0.994995 0.960037
0.893858 0.995224 0.960678
1 0.995666 0.961135
