code/data/lut/34蓝绿沙色2.cube
TITLE "LD - Explorer Teal 2"
# Copyright (c) 2019 Lens Distortions, LLC. All Rights Reserved.
# LensDistortions.com
# ref-EXTL14
LUT_3D_SIZE 5
0.0159915 0.0153201 0.0159152
0.197803 0.0264286 0.0229801
0.476631 0.0662852 0.0208591
0.712383 0.104036 0.0169223
0.8448 0.115724 0.0166934
0.0217136 0.183337 0.150439
0.201831 0.202884 0.0862135
0.463111 0.206653 0.0615091
0.714977 0.21529 0.0355993
0.856443 0.214023 0.0212863
0.0307317 0.382864 0.313176
0.176745 0.397986 0.282704
0.454047 0.427268 0.197406
0.734752 0.424323 0.171939
0.889265 0.415747 0.153872
0.03682 0.594125 0.397452
0.176547 0.596506 0.382544
0.392737 0.640787 0.31519
0.707347 0.657252 0.303975
0.92343 0.655116 0.305715
0.051133 0.765637 0.4383
0.157137 0.768978 0.430396
0.393149 0.816144 0.420752
0.656168 0.849241 0.395743
0.918303 0.86421 0.39443
0.0208591 0.0814984 0.135256
0.249195 0.075288 0.222675
0.519097 0.0637675 0.201663
0.761776 0.0515297 0.163043
0.892943 0.0358892 0.135698
0.0254978 0.231022 0.241321
0.218021 0.224994 0.220951
0.474571 0.213977 0.190585
0.726207 0.213107 0.161013
0.875944 0.203159 0.134859
0.0314031 0.423331 0.364721
0.187808 0.428305 0.355428
0.467811 0.438834 0.285008
0.743938 0.425025 0.238407
0.901473 0.41236 0.209659
0.0393225 0.623636 0.437522
0.167269 0.620371 0.426184
0.414649 0.650248 0.381704
0.71162 0.661952 0.354513
0.932754 0.655497 0.33872
0.0472419 0.788891 0.476921
0.14931 0.790936 0.47097
0.391516 0.831907 0.46685
0.655787 0.865522 0.432013
0.927626 0.874739 0.419532
0.0305638 0.210193 0.335668
0.203601 0.204486 0.47393
0.542962 0.17293 0.45745
0.792859 0.158984 0.428809
0.918486 0.147326 0.408667
0.0303044 0.30779 0.418814
0.178241 0.291081 0.394095
0.508431 0.267857 0.441657
0.772747 0.247517 0.413062
0.927092 0.220081 0.3879
0.0325322 0.478141 0.482673
0.154788 0.468574 0.478706
0.485451 0.470726 0.456916
0.747158 0.451942 0.425498
0.941375 0.422248 0.390387
0.0435187 0.676249 0.539193
0.122713 0.667506 0.529442
0.468299 0.684092 0.548592
0.731441 0.684016 0.512032
0.961334 0.664637 0.473045
0.0482795 0.835355 0.566567
0.141756 0.835813 0.561669
0.40856 0.874464 0.574029
0.68011 0.895384 0.556588
0.952651 0.902419 0.488762
0.0537423 0.334432 0.550286
0.225055 0.344411 0.595361
0.559701 0.288869 0.690379
0.834607 0.282063 0.675776
0.970779 0.27364 0.661921
0.0479896 0.405234 0.612284
0.186191 0.386069 0.591943
0.501671 0.35668 0.678523
0.80058 0.343633 0.655512
0.97116 0.31545 0.639826
0.0380865 0.554009 0.689738
0.152102 0.536248 0.670878
0.450584 0.524788 0.645808
0.770504 0.508507 0.651102
0.970459 0.480064 0.628275
0.0488594 0.728511 0.693858
0.0921035 0.716152 0.683482
0.454704 0.71487 0.700496
0.755016 0.715129 0.674296
0.980117 0.686824 0.644358
0.0496834 0.881041 0.700969
0.103182 0.879561 0.692882
0.374029 0.906615 0.702525
0.693385 0.926894 0.703151
0.975875 0.931838 0.656611
0.0691386 0.399771 0.665965
0.229404 0.399664 0.692973
0.541756 0.360067 0.831525
0.838148 0.349416 0.829221
0.975952 0.348653 0.827878
0.0623484 0.449592 0.712764
0.193469 0.442878 0.715587
0.480797 0.417182 0.834745
0.805142 0.403937 0.831815
0.976547 0.400137 0.829892
0.0399481 0.58703 0.825803
0.159136 0.573251 0.815579
0.408728 0.569268 0.851316
0.762707 0.553124 0.848447
0.978073 0.548043 0.843565
0.0499428 0.771511 0.881682
0.0980392 0.760601 0.882078
0.441215 0.752163 0.891279
0.736065 0.745754 0.886717
0.986542 0.737331 0.878874
0.0472267 0.916396 0.875853
0.0862593 0.916442 0.87628
0.344457 0.928481 0.890852
0.636316 0.946868 0.912123
0.977432 0.947555 0.912902
