code/data/lut/34蓝绿沙色3.cube
TITLE "LD - Explorer Teal 3"
# Copyright (c) 2019 Lens Distortions, LLC. All Rights Reserved.
# LensDistortions.com
# ref-EXTL14
LUT_3D_SIZE 33
0.024918 0.0236057 0.0241855
0.0272374 0.0272984 0.0280919
0.0343481 0.0291752 0.0299687
0.0504005 0.0307164 0.0319677
0.0716106 0.0314488 0.0327611
0.103655 0.0319982 0.0330663
0.142397 0.0321813 0.0328374
0.184161 0.0324407 0.0318761
0.226246 0.0331884 0.0307927
0.269322 0.0348211 0.0300755
0.312856 0.0372168 0.0296788
0.353277 0.0403601 0.0284733
0.392752 0.0454108 0.0284428
0.430869 0.0509651 0.0283513
0.468833 0.0572213 0.0286717
0.504799 0.0633402 0.0284581
0.540352 0.0697337 0.0285649
0.575509 0.0768444 0.0285496
0.610208 0.0841993 0.0285801
0.644419 0.090837 0.0287785
0.678187 0.0979629 0.0293126
0.710781 0.104555 0.0293736
0.74316 0.11133 0.0300298
0.772793 0.117098 0.0305486
0.797284 0.121691 0.0309758
0.818036 0.125429 0.0311742
0.839368 0.128847 0.0317845
0.860594 0.132586 0.0325628
0.881071 0.136095 0.0328832
0.901289 0.139284 0.033341
0.921431 0.142138 0.0338293
0.92694 0.142489 0.0339971
0.930922 0.142855 0.0341955
0.0315099 0.0326085 0.0347143
0.0343938 0.0359808 0.0357061
0.0446937 0.0379492 0.0367132
0.0597696 0.0387579 0.0366369
0.0833753 0.0396429 0.0365301
0.114778 0.0403906 0.0356298
0.151598 0.041413 0.0346075
0.19176 0.0429236 0.033875
0.230259 0.0445563 0.0328222
0.270069 0.0471046 0.0321202
0.308461 0.0500649 0.0311131
0.347921 0.0532998 0.0307164
0.386648 0.0566262 0.0294652
0.42565 0.0612039 0.0287327
0.463355 0.066743 0.028687
0.499565 0.0725719 0.0284733
0.535241 0.0790875 0.0284733
0.569802 0.0853132 0.0280156
0.604913 0.0919203 0.0282597
0.639429 0.0988785 0.0285191
0.672953 0.105196 0.0286564
0.706065 0.112139 0.0291905
0.738735 0.118517 0.0298772
0.768093 0.124392 0.0298619
0.794995 0.128893 0.0305791
0.816114 0.13312 0.0312505
0.837278 0.136629 0.0316777
0.858396 0.139757 0.0322423
0.878798 0.14313 0.0327764
0.899809 0.146685 0.0335851
0.920272 0.149447 0.0340276
0.927047 0.150179 0.0343023
0.930846 0.150378 0.0344244
0.033875 0.044831 0.0459754
0.0357214 0.0476539 0.04477
0.0448615 0.0525978 0.0410315
0.0695659 0.0530404 0.0412604
0.0942092 0.0537423 0.0397803
0.125612 0.0543832 0.0377966
0.160296 0.055436 0.035996
0.197635 0.0568704 0.0348821
0.234745 0.0592355 0.0339055
0.271321 0.0617227 0.0330968
0.308797 0.0646525 0.0323491
0.346334 0.0678111 0.0312963
0.385428 0.0715038 0.0302434
0.422995 0.0754253 0.0293736
0.45977 0.0793317 0.0283207
0.495827 0.0847028 0.0279698
0.531548 0.0903944 0.0280003
0.566461 0.0957961 0.0277714
0.600916 0.102419 0.0275883
0.635187 0.108721 0.0278172
0.668589 0.114702 0.0280613
0.701564 0.121416 0.0285496
0.734417 0.127489 0.0295109
0.76463 0.133455 0.030045
0.793225 0.13817 0.0308995
0.81442 0.141558 0.0312352
0.835309 0.144991 0.0315557
0.856214 0.148196 0.0321508
0.877195 0.151797 0.033051
0.897993 0.154681 0.0334325
0.918181 0.157397 0.0339208
0.926665 0.158389 0.0342565
0.930571 0.15874 0.0344701
0.0325017 0.0630198 0.0614633
0.0339666 0.0641642 0.0590829
0.0386816 0.0711833 0.0498665
0.0602274 0.0751354 0.0441444
0.100313 0.0731365 0.0446174
0.131853 0.0734874 0.0420691
0.16582 0.0743572 0.0394598
0.200381 0.0761578 0.0381323
0.235813 0.078172 0.037171
0.271962 0.0807202 0.0359045
0.308553 0.0831159 0.0345617
0.346487 0.0855879 0.0330053
0.38436 0.0891432 0.0310521
0.421637 0.0928054 0.0294194
0.458 0.0971237 0.0287633
0.494087 0.101244 0.0280156
0.529244 0.106447 0.0271916
0.564431 0.112016 0.0272068
0.598703 0.118212 0.027039
0.632624 0.123705 0.0271763
0.666133 0.130007 0.0277409
0.699809 0.136049 0.028687
0.732891 0.142229 0.0294652
0.763607 0.147814 0.0301366
0.791974 0.152499 0.0306706
0.814801 0.155474 0.0313115
0.835554 0.158282 0.031693
0.85597 0.161089 0.0321202
0.876661 0.164248 0.0328985
0.897169 0.166537 0.0332341
0.917372 0.169131 0.033875
0.926421 0.169604 0.0340734
0.930282 0.169467 0.0343175
0.0289158 0.0866407 0.0779278
0.0294957 0.0868086 0.0758221
0.0368811 0.0915999 0.0713664
0.0443885 0.100557 0.053727
0.08542 0.10013 0.049485
0.136385 0.097612 0.0500801
0.169375 0.0983291 0.0473182
0.204379 0.0995804 0.0453651
0.238575 0.101518 0.0429236
0.272038 0.104417 0.0404517
0.308232 0.106767 0.0387274
0.345876 0.109056 0.037171
0.383322 0.111437 0.0348974
0.420218 0.114855 0.0323949
0.457313 0.117983 0.030808
0.493278 0.122347 0.0285191
0.52842 0.127016 0.0276951
0.562905 0.131899 0.0269627
0.597436 0.137179 0.0268559
0.631662 0.14287 0.027451
0.665721 0.148775 0.027985
0.698894 0.154879 0.0285039
0.731746 0.160204 0.0290837
0.762737 0.165331 0.0298924
0.79115 0.169482 0.0305028
0.81532 0.172976 0.0311284
0.836622 0.175418 0.0316625
0.857496 0.177462 0.0324254
0.878096 0.180285 0.0332647
0.898528 0.182086 0.0336614
0.918624 0.183993 0.0341344
0.927733 0.184512 0.0344701
0.931548 0.184253 0.034699
0.026215 0.113039 0.0940871
0.0261997 0.1131 0.0923934
0.0329747 0.115679 0.0895857
0.0480507 0.122545 0.0807355
0.0536049 0.134112 0.0524147
0.118944 0.129839 0.0569314
0.175463 0.126864 0.0581064
0.206943 0.128817 0.0552987
0.241321 0.129442 0.0521401
0.275532 0.131182 0.049134
0.309682 0.133959 0.0468757
0.34522 0.136706 0.0440681
0.38265 0.139116 0.0420386
0.419684 0.141604 0.0393378
0.457069 0.144671 0.0377203
0.493187 0.14789 0.0352483
0.528466 0.151476 0.0320592
0.563668 0.155108 0.0300145
0.597925 0.159777 0.0285344
0.63154 0.164981 0.0275578
0.665537 0.17052 0.0281987
0.698436 0.175967 0.0285801
0.731945 0.181003 0.029633
0.763165 0.185763 0.0304112
0.791806 0.189456 0.0311284
0.817517 0.192111 0.0316625
0.838407 0.193896 0.0322271
0.859663 0.196139 0.0330663
0.879881 0.197803 0.0334325
0.899962 0.199725 0.0339666
0.920668 0.20148 0.034638
0.929274 0.201724 0.0349737
0.933303 0.201251 0.035111
0.0267033 0.142138 0.114168
0.0265202 0.141619 0.111986
0.0303655 0.143038 0.108888
0.0451667 0.149447 0.103731
0.0589456 0.160006 0.0847486
0.0827344 0.168719 0.0613413
0.156313 0.162585 0.0667735
0.211841 0.160296 0.0676585
0.244526 0.163134 0.0653391
0.279637 0.163745 0.0626078
0.314534 0.164569 0.058854
0.348898 0.166491 0.0556802
0.384009 0.16939 0.0525826
0.42034 0.171954 0.0495613
0.457084 0.17406 0.047715
0.493416 0.176913 0.0449683
0.529091 0.179812 0.0425574
0.56405 0.18291 0.0401312
0.599222 0.186267 0.0371405
0.633356 0.189929 0.0343175
0.666972 0.193851 0.0318608
0.700511 0.197833 0.0307774
0.733059 0.202884 0.0300603
0.764355 0.207309 0.0304723
0.792828 0.210483 0.031281
0.820584 0.212863 0.0321202
0.841581 0.214862 0.0329442
0.861723 0.216281 0.0334325
0.882383 0.217655 0.0339055
0.902785 0.219272 0.0346075
0.922576 0.220478 0.0350805
0.930663 0.220447 0.0353857
0.934936 0.219821 0.035462
0.0276341 0.172473 0.138781
0.0274815 0.171435 0.135821
0.0298924 0.173068 0.133272
0.0423285 0.1785 0.128252
0.0678569 0.185611 0.117067
0.069749 0.200015 0.0820478
0.120424 0.201572 0.0737926
0.193515 0.19762 0.0786603
0.248631 0.195193 0.0806592
0.283345 0.198184 0.0775158
0.317494 0.198291 0.0739452
0.354025 0.198199 0.0700236
0.389487 0.199573 0.0660868
0.425101 0.201831 0.0636454
0.459159 0.20499 0.0602274
0.494774 0.207248 0.0576333
0.530388 0.209644 0.055436
0.565957 0.212085 0.053193
0.600778 0.214633 0.0510719
0.634928 0.217655 0.047776
0.668742 0.220661 0.0448005
0.702083 0.22388 0.0413367
0.735515 0.226963 0.0383612
0.767651 0.229953 0.035584
0.795773 0.231998 0.0336767
0.823789 0.234882 0.0332799
0.844816 0.236667 0.0336156
0.864958 0.237919 0.0341039
0.885298 0.239475 0.0349889
0.905486 0.24036 0.0354009
0.925933 0.241901 0.0362097
0.932952 0.241276 0.0362402
0.936599 0.240406 0.0362707
0.0294347 0.203098 0.166354
0.0293889 0.202182 0.163836
0.030045 0.203143 0.161028
0.04065 0.207507 0.156863
0.0663005 0.21413 0.14876
0.0872969 0.223682 0.125811
0.0923171 0.2365 0.0846418
0.160769 0.235157 0.0887312
0.228794 0.231769 0.0920272
0.285145 0.229191 0.0944381
0.322789 0.231876 0.0910658
0.357778 0.23267 0.0872969
0.395315 0.231968 0.0829175
0.43061 0.23241 0.0787213
0.464805 0.234089 0.0751965
0.498344 0.236545 0.0722515
0.532616 0.239582 0.0689403
0.567254 0.241474 0.0670787
0.602075 0.243671 0.0645914
0.636973 0.246494 0.0631418
0.670756 0.249042 0.0603647
0.704112 0.251621 0.0578317
0.737362 0.254185 0.0551919
0.769726 0.256748 0.0520485
0.798444 0.25803 0.0477607
0.826307 0.259022 0.0435187
0.849622 0.259892 0.040177
0.869902 0.260121 0.0371862
0.889876 0.26128 0.036347
0.909392 0.262364 0.0363012
0.929564 0.263767 0.0371405
0.936019 0.263569 0.0372931
0.939101 0.262852 0.0374304
0.0312047 0.232822 0.194553
0.0311284 0.2318 0.192493
0.0310216 0.232441 0.18883
0.0392004 0.235721 0.185855
0.0631113 0.242741 0.180316
0.0982834 0.249439 0.167498
0.101717 0.262409 0.127535
0.124147 0.271229 0.0921187
0.199954 0.268467 0.103258
0.265415 0.265904 0.1066
0.322652 0.263111 0.10898
0.363409 0.265538 0.104295
0.397925 0.266255 0.100694
0.434714 0.265019 0.0955978
0.470207 0.265263 0.0916152
0.504784 0.266789 0.0887617
0.538399 0.268498 0.0858015
0.571237 0.271168 0.0821698
0.604471 0.273869 0.0794385
0.638331 0.275883 0.076997
0.672297 0.277729 0.0754864
0.705852 0.279789 0.0734112
0.738766 0.281956 0.0718547
0.771008 0.284062 0.0692454
0.801175 0.285649 0.0666972
0.828641 0.286259 0.0630961
0.853361 0.286793 0.0593118
0.873426 0.286946 0.0556039
0.89395 0.287388 0.0516518
0.913542 0.287068 0.0474861
0.933715 0.28719 0.0438239
0.940063 0.286473 0.0427405
0.943069 0.285481 0.0418402
0.0334325 0.262974 0.223835
0.0333867 0.262074 0.221317
0.033402 0.262348 0.218189
0.0383459 0.264622 0.214984
0.0610666 0.270863 0.210941
0.0948806 0.277287 0.201282
0.121141 0.285695 0.179675
0.119738 0.299733 0.127108
0.164965 0.303792 0.106676
0.237522 0.302495 0.119722
0.302312 0.299153 0.121324
0.361212 0.29575 0.125719
0.402899 0.297902 0.120134
0.436912 0.299702 0.11519
0.474128 0.298939 0.110353
0.509529 0.298314 0.105379
0.543145 0.299199 0.102068
0.576089 0.300633 0.0988785
0.608743 0.302724 0.0955673
0.64155 0.30518 0.0934005
0.674678 0.307759 0.0908675
0.70782 0.309438 0.0894789
0.740597 0.311238 0.0876326
0.773007 0.312886 0.0860609
0.803174 0.313848 0.0835584
0.831067 0.314229 0.0814069
0.857603 0.314733 0.0784466
0.877317 0.314321 0.0756847
0.897414 0.314504 0.0727245
0.917311 0.314672 0.0697032
0.936889 0.31426 0.0662699
0.94287 0.313375 0.0644846
0.945922 0.3122 0.0634623
0.0350652 0.292973 0.251438
0.0350195 0.291752 0.248722
0.0350195 0.291646 0.24564
0.037644 0.293645 0.243458
0.0589151 0.299413 0.240467
0.0898909 0.305898 0.233295
0.130938 0.312032 0.219226
0.14023 0.322713 0.185626
0.140337 0.335897 0.125399
0.206516 0.337499 0.12459
0.2748 0.335607 0.137591
0.340627 0.332387 0.138582
0.399863 0.328756 0.143374
0.44126 0.330999 0.137713
0.47541 0.333303 0.132418
0.511101 0.33228 0.126207
0.546761 0.331212 0.120134
0.580835 0.332082 0.116381
0.613565 0.333089 0.1131
0.645823 0.334707 0.109789
0.677623 0.336645 0.106981
0.709377 0.338842 0.104402
0.741405 0.340871 0.102663
0.773724 0.342321 0.101152
0.804807 0.343603 0.100099
0.832929 0.343465 0.0977951
0.860151 0.34345 0.0955825
0.881056 0.343404 0.0938125
0.900649 0.342687 0.0910201
0.920272 0.342763 0.0889906
0.940093 0.342779 0.0867018
0.945953 0.341588 0.0856031
0.948852 0.340627 0.0847181
0.0368811 0.323186 0.278218
0.0366369 0.32195 0.275517
0.0366064 0.321569 0.272801
0.0377661 0.323278 0.270237
0.0555428 0.327626 0.268101
0.0865492 0.333959 0.262409
0.125811 0.339925 0.251102
0.157839 0.346944 0.232624
0.158618 0.359884 0.186526
0.173526 0.370901 0.129976
0.245716 0.37052 0.144594
0.312749 0.368704 0.156832
0.377371 0.364981 0.155657
0.435889 0.361349 0.1617
0.476875 0.363546 0.155734
0.511727 0.366506 0.149859
0.546075 0.366354 0.143877
0.582574 0.364904 0.136858
0.616327 0.36466 0.132189
0.648692 0.365286 0.128374
0.680659 0.366567 0.124514
0.712703 0.368612 0.122103
0.743832 0.370382 0.119005
0.775158 0.372274 0.117098
0.805814 0.373465 0.115145
0.834073 0.373373 0.112825
0.861784 0.373419 0.111833
0.883635 0.372641 0.109819
0.9037 0.372366 0.108766
0.923384 0.371527 0.106737
0.942718 0.371389 0.105058
0.948363 0.370413 0.103792
0.951217 0.369131 0.102846
0.0379339 0.35285 0.302617
0.0377966 0.351507 0.300206
0.0377508 0.35137 0.297719
0.0383459 0.35259 0.295232
0.0520485 0.357 0.293645
0.0839094 0.362554 0.288945
0.120272 0.368719 0.280156
0.165774 0.373587 0.267292
0.179217 0.383505 0.238987
0.176669 0.396689 0.181659
0.216419 0.403693 0.149554
0.284047 0.403433 0.165133
0.350607 0.400839 0.175189
0.414588 0.397635 0.173922
0.469825 0.394965 0.179477
0.512535 0.396429 0.174655
0.547814 0.399786 0.169284
0.580636 0.39968 0.163165
0.616709 0.398032 0.155947
0.651362 0.397345 0.150301
0.683742 0.39791 0.146426
0.715541 0.398703 0.142672
0.746639 0.399802 0.139467
0.7776 0.401236 0.136431
0.807675 0.40267 0.133822
0.835996 0.403784 0.131228
0.863066 0.403403 0.128893
0.886519 0.403189 0.126848
0.906065 0.402319 0.124895
0.925933 0.401846 0.123629
0.945266 0.400809 0.121859
0.951278 0.399695 0.120943
0.953613 0.398657 0.119814
0.0386969 0.383429 0.3252
0.0386816 0.382208 0.323033
0.0386664 0.381933 0.321172
0.0388495 0.382864 0.319051
0.0492561 0.386374 0.316793
0.0810864 0.390387 0.312688
0.116548 0.397055 0.306035
0.160357 0.401755 0.294835
0.196231 0.407874 0.278843
0.198734 0.420172 0.240101
0.202075 0.432715 0.179385
0.258213 0.435782 0.170825
0.323384 0.435233 0.186282
0.389853 0.432471 0.193652
0.450034 0.429511 0.191592
0.502831 0.427451 0.196796
0.545434 0.428779 0.192737
0.58201 0.431876 0.188052
0.614588 0.432441 0.182177
0.650095 0.43151 0.17528
0.684627 0.430152 0.169162
0.716991 0.429877 0.16495
0.748318 0.43032 0.161028
0.779675 0.431601 0.158587
0.810224 0.432639 0.155444
0.83856 0.433005 0.152102
0.864881 0.433066 0.14931
0.889448 0.433158 0.146868
0.90866 0.432242 0.144778
0.927947 0.43183 0.142626
0.947478 0.431296 0.140948
0.953994 0.430152 0.140246
0.957015 0.428809 0.1393
0.0391546 0.413352 0.346258
0.0391394 0.412222 0.344198
0.0391394 0.412085 0.342
0.0391394 0.412528 0.33991
0.0487526 0.415778 0.338872
0.0791943 0.419196 0.335027
0.115526 0.424903 0.329442
0.156207 0.430228 0.320195
0.201129 0.434775 0.308614
0.218479 0.443687 0.285496
0.217639 0.456352 0.236484
0.237293 0.466377 0.18819
0.299931 0.467643 0.19353
0.36376 0.466117 0.206607
0.428244 0.463569 0.211414
0.485878 0.461372 0.210117
0.536385 0.459937 0.215076
0.578775 0.461143 0.211597
0.614664 0.46421 0.2065
0.648035 0.465431 0.201175
0.682734 0.463981 0.19411
0.71722 0.462318 0.188647
0.750027 0.46215 0.184878
0.78117 0.462226 0.181247
0.811872 0.462623 0.177935
0.840604 0.462928 0.175128
0.86746 0.463188 0.171664
0.892622 0.462638 0.168872
0.911818 0.462394 0.166766
0.930617 0.461585 0.164401
0.949828 0.461173 0.162387
0.957076 0.460014 0.161242
0.959503 0.458839 0.159762
0.0404517 0.443961 0.366873
0.0400092 0.442863 0.364416
0.0399786 0.442481 0.362173
0.0399939 0.442649 0.359762
0.0485084 0.444572 0.358648
0.078233 0.448157 0.355688
0.115328 0.452094 0.350149
0.152895 0.458839 0.342489
0.198825 0.462837 0.332784
0.233814 0.468254 0.31902
0.238727 0.479606 0.286702
0.239963 0.492103 0.232715
0.281376 0.498039 0.20676
0.342 0.498329 0.215488
0.404822 0.497093 0.226947
0.46595 0.494408 0.229984
0.520333 0.492866 0.228275
0.568582 0.491936 0.232242
0.610773 0.492912 0.229847
0.64715 0.495995 0.224537
0.680903 0.497292 0.219593
0.714473 0.496086 0.212848
0.749126 0.494865 0.208255
0.781186 0.493751 0.204028
0.812055 0.493614 0.200381
0.842283 0.494057 0.197772
0.869551 0.493278 0.194949
0.894408 0.492607 0.19173
0.915129 0.492042 0.189853
0.933745 0.491722 0.187381
0.951843 0.490974 0.184619
0.959716 0.489982 0.183474
0.962524 0.48864 0.182391
0.0408637 0.473945 0.384665
0.0408637 0.472496 0.38265
0.0408484 0.471794 0.380438
0.0409705 0.471565 0.378424
0.0491951 0.473991 0.377295
0.0780194 0.476646 0.373907
0.115969 0.480262 0.368917
0.152407 0.486244 0.362799
0.195941 0.490578 0.353979
0.237461 0.495354 0.343893
0.257633 0.503273 0.324346
0.258289 0.515084 0.282994
0.270115 0.526223 0.233768
0.324788 0.528786 0.226474
0.385565 0.528649 0.237186
0.444526 0.527138 0.245914
0.502449 0.525475 0.24715
0.553948 0.524651 0.245975
0.600748 0.52398 0.249439
0.642176 0.525109 0.246921
0.678187 0.527443 0.241932
0.712917 0.528969 0.23743
0.745815 0.528374 0.231647
0.779156 0.52668 0.227161
0.812024 0.525277 0.223743
0.843137 0.524926 0.220829
0.871122 0.524086 0.217426
0.896208 0.523583 0.214832
0.917082 0.522591 0.211902
0.936248 0.521782 0.210056
0.954665 0.520699 0.207553
0.963394 0.519615 0.206104
0.96553 0.518532 0.204669
0.0416266 0.504128 0.401022
0.0416114 0.502556 0.399008
0.0416114 0.501549 0.396658
0.0421149 0.501625 0.395254
0.0514382 0.503349 0.393912
0.0792706 0.505409 0.391012
0.116518 0.508171 0.386435
0.153445 0.513252 0.380362
0.193759 0.518593 0.373053
0.235874 0.523064 0.364553
0.272801 0.52781 0.352575
0.278202 0.538598 0.324926
0.278706 0.550546 0.276555
0.315908 0.55668 0.25069
0.369863 0.558373 0.248157
0.427939 0.557992 0.257847
0.484138 0.557229 0.264759
0.538293 0.555749 0.264179
0.586877 0.555352 0.262974
0.632273 0.555077 0.266087
0.672938 0.556374 0.263325
0.708904 0.559121 0.259129
0.743938 0.560861 0.254658
0.776089 0.559853 0.25037
0.80914 0.558083 0.246693
0.841947 0.556786 0.243778
0.871168 0.555505 0.239872
0.898054 0.554421 0.237018
0.919448 0.553002 0.234348
0.938247 0.552209 0.232425
0.95668 0.55111 0.229572
0.965423 0.549889 0.22826
0.968368 0.54847 0.227024
0.0421149 0.533165 0.414816
0.0419928 0.531624 0.413443
0.0420081 0.530953 0.411505
0.0429236 0.53138 0.409659
0.0549783 0.532845 0.408682
0.0819715 0.533867 0.405722
0.117983 0.536034 0.401679
0.154986 0.540642 0.396414
0.193271 0.546532 0.389853
0.233677 0.550423 0.382101
0.272908 0.555077 0.373037
0.295598 0.562249 0.356268
0.298451 0.573007 0.319677
0.312093 0.583383 0.278264
0.361044 0.586191 0.267796
0.415396 0.58732 0.270512
0.469718 0.586725 0.277806
0.523003 0.586465 0.282399
0.574136 0.586053 0.281559
0.620218 0.586099 0.280339
0.663645 0.586053 0.282185
0.703319 0.587137 0.279377
0.739651 0.589609 0.275181
0.774701 0.591531 0.271931
0.806806 0.59115 0.269856
0.839323 0.589303 0.266499
0.870344 0.587472 0.262867
0.899016 0.585473 0.259678
0.921401 0.583825 0.256626
0.940002 0.582788 0.254551
0.958526 0.581827 0.25272
0.968795 0.580255 0.250629
0.971527 0.579217 0.249729
0.0434119 0.562432 0.428595
0.0433661 0.56112 0.426932
0.0432593 0.560769 0.425116
0.0450599 0.561181 0.424369
0.0601358 0.561669 0.422843
0.085771 0.562203 0.419821
0.119921 0.564263 0.415274
0.156741 0.567849 0.410925
0.19379 0.573343 0.40441
0.232761 0.577935 0.397894
0.271916 0.582376 0.390448
0.307012 0.587091 0.379767
0.3178 0.596582 0.354864
0.320043 0.607523 0.312337
0.358526 0.612604 0.293523
0.407568 0.614694 0.286778
0.459022 0.615717 0.290791
0.510109 0.616053 0.297032
0.560128 0.615732 0.299351
0.608652 0.615641 0.29749
0.652964 0.616114 0.296696
0.694591 0.616754 0.297658
0.73402 0.61799 0.29514
0.770687 0.620005 0.291341
0.805264 0.621942 0.290776
0.837217 0.621393 0.288838
0.86833 0.619745 0.285237
0.89865 0.617792 0.282841
0.922591 0.615091 0.279393
0.94226 0.613626 0.276829
0.960708 0.612406 0.27538
0.971878 0.611063 0.27364
0.974807 0.609827 0.272404
0.0443732 0.591806 0.440406
0.0443427 0.590555 0.438788
0.0439002 0.590188 0.437125
0.0489052 0.59028 0.436088
0.0656291 0.590097 0.434562
0.0892653 0.590143 0.432197
0.122637 0.591516 0.427878
0.159014 0.594934 0.423377
0.195666 0.600229 0.418647
0.232868 0.605173 0.412833
0.270878 0.609049 0.405249
0.30869 0.613581 0.39736
0.335058 0.619638 0.383124
0.339193 0.629801 0.349859
0.357137 0.638193 0.317327
0.405966 0.64062 0.311376
0.452598 0.643076 0.306813
0.501411 0.643671 0.310796
0.550347 0.644373 0.315389
0.59765 0.644907 0.317037
0.643915 0.645304 0.314534
0.686412 0.646128 0.312932
0.72636 0.646418 0.312413
0.764965 0.647639 0.309819
0.800122 0.64976 0.307759
0.834989 0.651484 0.308659
0.866667 0.65124 0.307317
0.897932 0.649912 0.305104
0.923827 0.647105 0.302358
0.944183 0.645365 0.299535
0.962936 0.643748 0.297536
0.975158 0.641886 0.295903
0.977798 0.640482 0.294362
0.0464027 0.621088 0.451911
0.0460517 0.619852 0.449912
0.0467536 0.619532 0.448447
0.0537881 0.618738 0.447089
0.0716716 0.618753 0.445823
0.0958267 0.61828 0.443381
0.126406 0.618997 0.439963
0.161776 0.621942 0.435386
0.197681 0.626322 0.430991
0.2336 0.63151 0.424964
0.270649 0.635767 0.419501
0.308476 0.640162 0.413108
0.344488 0.644556 0.404303
0.358404 0.652674 0.38172
0.365316 0.662379 0.346014
0.406302 0.666239 0.333761
0.451423 0.668681 0.328618
0.496117 0.670665 0.326436
0.542977 0.672114 0.329915
0.589212 0.673106 0.33257
0.633799 0.673503 0.332372
0.678019 0.674113 0.32987
0.71902 0.67512 0.32842
0.758328 0.676112 0.327276
0.795727 0.677363 0.325292
0.830167 0.679072 0.3252
0.864805 0.680629 0.326467
0.896635 0.680888 0.32665
0.924727 0.678676 0.324056
0.946731 0.676707 0.321706
0.965423 0.674678 0.319295
0.978988 0.673091 0.317449
0.981109 0.671717 0.316304
0.0480049 0.649622 0.461387
0.0477913 0.648447 0.460044
0.0516213 0.647608 0.459007
0.0608682 0.647044 0.457862
0.0780652 0.646311 0.45597
0.101335 0.645762 0.453666
0.129976 0.645899 0.450034
0.164233 0.64828 0.445731
0.200137 0.652506 0.44239
0.234791 0.658015 0.437446
0.271031 0.662348 0.432258
0.307912 0.666163 0.426307
0.345266 0.670161 0.418982
0.375265 0.675227 0.40763
0.38085 0.684932 0.376059
0.407218 0.691005 0.354314
0.452918 0.693568 0.350469
0.495415 0.696437 0.345861
0.53846 0.698436 0.345418
0.582818 0.699641 0.347997
0.626657 0.701167 0.348928
0.669856 0.702266 0.34815
0.711589 0.703059 0.344442
0.750744 0.704036 0.341558
0.788861 0.705058 0.340673
0.825238 0.705989 0.341283
0.860029 0.707362 0.341848
0.893675 0.708919 0.343725
0.925322 0.709224 0.344854
0.949523 0.707637 0.342718
0.967926 0.705364 0.34078
0.982269 0.703899 0.339223
0.985153 0.702449 0.337865
0.0500343 0.677928 0.47039
0.0510414 0.676585 0.469108
0.0575418 0.675349 0.468254
0.0689097 0.674434 0.467338
0.0848249 0.674052 0.466026
0.107607 0.673304 0.463142
0.133776 0.673136 0.459617
0.167071 0.674983 0.455833
0.202533 0.678752 0.452659
0.236286 0.684047 0.448341
0.271015 0.688197 0.443427
0.307454 0.692287 0.437995
0.344762 0.696208 0.432456
0.382315 0.699962 0.425879
0.398688 0.707347 0.405264
0.409979 0.715923 0.374365
0.454749 0.718608 0.370489
0.49633 0.720943 0.366613
0.536645 0.723934 0.362722
0.578592 0.726238 0.363394
0.620752 0.727916 0.364126
0.662943 0.729 0.364141
0.70454 0.730373 0.361791
0.744717 0.731533 0.358068
0.782849 0.732906 0.355505
0.819471 0.733776 0.356512
0.8551 0.734661 0.357382
0.888777 0.736049 0.358526
0.921553 0.737209 0.360739
0.950698 0.737682 0.362661
0.969863 0.735943 0.361822
0.985901 0.734234 0.360388
0.988952 0.732754 0.359228
0.0524758 0.705028 0.478874
0.0557717 0.703624 0.477958
0.0635386 0.702968 0.477455
0.0753338 0.701686 0.475685
0.0905776 0.701167 0.473945
0.111589 0.700252 0.471153
0.137102 0.700298 0.468559
0.169558 0.701442 0.466072
0.204196 0.704509 0.461891
0.237263 0.709178 0.457877
0.271122 0.714229 0.454215
0.306752 0.718334 0.449302
0.343771 0.722148 0.444724
0.380804 0.72549 0.438422
0.413108 0.729809 0.429023
0.420935 0.738979 0.399405
0.456352 0.743023 0.388846
0.498131 0.74583 0.386404
0.537591 0.748943 0.382864
0.576257 0.751446 0.378866
0.617105 0.753643 0.379232
0.657725 0.755734 0.378851
0.69807 0.757565 0.377295
0.738277 0.758907 0.374228
0.777005 0.759777 0.369772
0.813657 0.760678 0.369924
0.849592 0.761486 0.370932
0.884199 0.762478 0.372122
0.917189 0.763684 0.373846
0.948119 0.764508 0.376623
0.970932 0.764477 0.379156
0.989242 0.763928 0.380072
0.992111 0.76257 0.37937
0.0560311 0.732647 0.487053
0.0611429 0.731334 0.48658
0.0698863 0.730022 0.48542
0.0822614 0.729213 0.484215
0.0966506 0.727825 0.48188
0.115618 0.727245 0.479774
0.139879 0.726574 0.477272
0.170565 0.727382 0.47393
0.205097 0.730282 0.470497
0.238315 0.7346 0.467796
0.270909 0.73991 0.463752
0.306004 0.744121 0.459754
0.341833 0.747494 0.455161
0.379705 0.751125 0.450141
