code/data/lut/34蓝绿沙色2.cube
TITLE "LD - Explorer Teal 2"
# Copyright (c) 2019 Lens Distortions, LLC. All Rights Reserved.
# LensDistortions.com
# ref-EXTL14
LUT_3D_SIZE 33
0.0159915 0.0153201 0.0159152
0.0201572 0.0189517 0.0199741
0.0283207 0.0207828 0.0217441
0.0446784 0.0224308 0.0238041
0.0654154 0.0231174 0.0244755
0.0945602 0.0236667 0.0246281
0.127108 0.0242313 0.024506
0.161898 0.0250858 0.0238193
0.197803 0.0264286 0.0229801
0.234791 0.028809 0.0224765
0.273121 0.0320287 0.0222324
0.309422 0.0361028 0.0214237
0.344289 0.0418708 0.0214237
0.3785 0.0480964 0.0214847
0.412589 0.0545205 0.0216678
0.444892 0.0605478 0.0212406
0.476631 0.0662852 0.0208591
0.507912 0.072221 0.0201267
0.538735 0.0780041 0.0193027
0.569482 0.0830854 0.0186618
0.600305 0.0882429 0.0182498
0.630579 0.0927749 0.0175479
0.660624 0.0974441 0.0173037
0.688869 0.101167 0.0170748
0.712383 0.104036 0.0169223
0.732677 0.106447 0.0166781
0.753475 0.108385 0.0167086
0.774044 0.110414 0.0168765
0.79469 0.11249 0.0167239
0.814939 0.114199 0.0166476
0.835203 0.115572 0.0165866
0.840742 0.115618 0.0166171
0.8448 0.115724 0.0166934
0.0225681 0.0257877 0.0277409
0.026978 0.0292058 0.0279698
0.0387732 0.0312505 0.0289158
0.054078 0.0320439 0.028809
0.0771344 0.0329137 0.0286259
0.106493 0.0337377 0.0278019
0.138308 0.0351568 0.0269474
0.171405 0.0372931 0.0264134
0.203845 0.0395514 0.0255589
0.237736 0.0428016 0.0251316
0.270665 0.0463722 0.0242924
0.304891 0.0501106 0.0239567
0.33933 0.0539559 0.0226749
0.373785 0.0586709 0.0217441
0.407355 0.0641794 0.0215457
0.439521 0.0696422 0.0209506
0.47068 0.0749676 0.0202487
0.501671 0.0800183 0.0192569
0.533074 0.0850233 0.0186923
0.563806 0.0899977 0.0180362
0.594598 0.0945602 0.0174258
0.625208 0.099321 0.0171054
0.65597 0.103487 0.0169985
0.684092 0.107439 0.0164034
0.709926 0.110094 0.016495
0.730282 0.112551 0.0165713
0.750805 0.114565 0.0165103
0.771679 0.116396 0.016556
0.792172 0.118166 0.0165866
0.812741 0.119966 0.0167544
0.833661 0.12137 0.0167239
0.840421 0.121584 0.0167697
0.844251 0.121508 0.0167544
0.0248112 0.0388342 0.0397955
0.0280156 0.0417182 0.0381781
0.0386511 0.0468299 0.033814
0.0640421 0.0472267 0.0340581
0.0880903 0.0478828 0.0324865
0.116991 0.0486305 0.0304723
0.146624 0.0501564 0.0287327
0.177569 0.0521859 0.0278477
0.20853 0.0552224 0.0272374
0.239384 0.05832 0.0265965
0.271199 0.0617838 0.0257572
0.303716 0.0651713 0.0246891
0.337652 0.068986 0.0234531
0.370871 0.0728161 0.0223392
0.403372 0.0765087 0.0209049
0.434791 0.0807965 0.0199588
0.466011 0.0852216 0.0193332
0.497154 0.0894179 0.0185092
0.527977 0.0942397 0.0176547
0.558846 0.0986496 0.0171206
0.589685 0.102647 0.0166476
0.620233 0.107103 0.0163424
0.651118 0.110964 0.016556
0.679957 0.114702 0.0164187
0.707469 0.117418 0.0165713
0.728206 0.119493 0.0165255
0.748684 0.121401 0.0163577
0.769299 0.123079 0.0163882
0.790082 0.124926 0.0167391
0.81088 0.126421 0.0166781
0.831403 0.127626 0.0166323
0.839963 0.128038 0.0167239
0.843946 0.12813 0.0168154
0.0233616 0.0572518 0.0555581
0.0256962 0.0584421 0.0532235
0.031632 0.0655375 0.043473
0.0545663 0.0694133 0.0374456
0.0939345 0.0674449 0.0379339
0.122988 0.0679026 0.035462
0.151614 0.069398 0.0331273
0.180072 0.07187 0.0317845
0.209277 0.0744793 0.0311284
0.239597 0.0773785 0.0298161
0.270466 0.0800183 0.0284123
0.302831 0.0826734 0.0265507
0.335805 0.0860304 0.0242008
0.368002 0.0891432 0.0220493
0.399542 0.0924697 0.0207065
0.431098 0.095613 0.0194095
0.46215 0.0994736 0.0180209
0.493584 0.103304 0.01738
0.524376 0.107546 0.0165866
0.555428 0.111162 0.0161135
0.586282 0.115206 0.016022
0.617639 0.118975 0.0162203
0.648692 0.122866 0.0162203
0.678325 0.126101 0.0162966
0.705776 0.12871 0.0162356
0.728084 0.130404 0.0164034
0.748501 0.131792 0.0163729
0.768978 0.133089 0.0163577
0.789624 0.134722 0.0166476
0.810101 0.135683 0.0165255
0.83061 0.136828 0.0166476
0.839841 0.136828 0.0166171
0.843763 0.136553 0.0167391
0.0196078 0.0803082 0.0714733
0.0207828 0.0806134 0.0697337
0.0299535 0.0853285 0.0655222
0.038056 0.0940414 0.0475776
0.0798047 0.0939193 0.0434272
0.127153 0.0915847 0.0442969
0.154147 0.0926833 0.0414893
0.182712 0.0944076 0.0396887
0.210712 0.0967575 0.0372168
0.23856 0.0998398 0.0348058
0.26891 0.102235 0.0328374
0.300771 0.104158 0.0310369
0.332876 0.105867 0.0280766
0.364599 0.108309 0.0250401
0.39707 0.110353 0.0225986
0.428565 0.11342 0.0196078
0.45951 0.116426 0.0179751
0.4907 0.119646 0.0167239
0.521798 0.123003 0.0159609
0.553414 0.126452 0.0159762
0.584848 0.130144 0.0158846
0.61622 0.133776 0.0159152
0.647562 0.137011 0.0159152
0.677546 0.139925 0.0161288
0.705333 0.142138 0.0162509
0.728939 0.143893 0.0163577
0.74992 0.145159 0.0164797
0.770535 0.146014 0.0167391
0.791211 0.147402 0.0170748
0.811658 0.148058 0.0170291
0.832197 0.148714 0.0170138
0.841413 0.148745 0.0171206
0.845289 0.148363 0.0172122
0.0171206 0.105501 0.0872969
0.0173037 0.105577 0.0857862
0.0258335 0.108217 0.0833143
0.0424811 0.114748 0.0753948
0.0482948 0.125109 0.0467994
0.111376 0.120699 0.0514229
0.15874 0.118517 0.0527504
0.184298 0.120668 0.0501411
0.212558 0.121691 0.0471199
0.240269 0.123278 0.043946
0.268482 0.125338 0.0411994
0.29836 0.127275 0.0379339
0.33051 0.128817 0.0354009
0.362478 0.130236 0.0322728
0.39498 0.13196 0.0297246
0.426917 0.133852 0.0266575
0.45864 0.135958 0.0229496
0.490593 0.138018 0.0199588
0.52195 0.140703 0.0178378
0.553323 0.143801 0.0162203
0.584955 0.147189 0.0162509
0.61619 0.150454 0.0161898
0.647974 0.153429 0.0166171
0.678264 0.156176 0.0168154
0.706355 0.158175 0.0170443
0.731594 0.159396 0.0170901
0.752209 0.160113 0.0171817
0.773175 0.161181 0.0175631
0.793622 0.161715 0.0174716
0.813993 0.162615 0.0175937
0.834791 0.163073 0.0177157
0.843458 0.162905 0.0178225
0.847608 0.162325 0.0178225
0.0178988 0.131624 0.105455
0.0177768 0.131243 0.103716
0.0229953 0.132692 0.101137
0.0397498 0.138247 0.0970779
0.0543374 0.14696 0.0799268
0.0782788 0.153841 0.0567636
0.143832 0.147768 0.0614786
0.18793 0.146075 0.0626688
0.21416 0.148455 0.0601205
0.242771 0.14873 0.0570993
0.271839 0.149416 0.0533608
0.300847 0.150591 0.0498512
0.331197 0.1523 0.0464179
0.362661 0.153765 0.0429541
0.394827 0.154803 0.0404822
0.426947 0.15639 0.0372473
0.45919 0.158053 0.0343175
0.491127 0.159808 0.0311742
0.523293 0.1617 0.0274968
0.554986 0.16376 0.0238499
0.586786 0.165988 0.0205234
0.618494 0.168276 0.018616
0.649683 0.171405 0.0173037
0.68014 0.173922 0.0172274
0.707973 0.17557 0.0175021
0.73521 0.176593 0.017792
0.756054 0.177447 0.018143
0.776226 0.177844 0.0182193
0.796933 0.178332 0.0182956
0.817487 0.178683 0.0184634
0.837858 0.179065 0.018555
0.846036 0.178698 0.0186313
0.850278 0.17792 0.0185702
0.0194705 0.157519 0.127092
0.0193332 0.156573 0.124865
0.0226291 0.158129 0.122896
0.0372625 0.162707 0.119432
0.0636301 0.168093 0.109728
0.0656901 0.179706 0.0780804
0.113878 0.179522 0.0688487
0.17348 0.175677 0.073228
0.217517 0.17377 0.0751049
0.245945 0.176059 0.0720836
0.274311 0.175982 0.0682689
0.305241 0.17557 0.0641642
0.335866 0.176364 0.0601358
0.366766 0.177554 0.0571298
0.396902 0.179538 0.0534981
0.428458 0.180804 0.0504005
0.460487 0.182025 0.0477455
0.49305 0.183291 0.0449226
0.525246 0.184726 0.0422217
0.557031 0.186358 0.0383917
0.588983 0.1879 0.0347143
0.620691 0.189624 0.0305028
0.652766 0.191211 0.026566
0.683955 0.192706 0.0229648
0.711772 0.193561 0.0203555
0.739239 0.194873 0.0192874
0.760052 0.19556 0.0192264
0.78056 0.196002 0.0193332
0.800793 0.196353 0.0196689
0.821439 0.196506 0.0197147
0.841993 0.196796 0.0199588
0.849348 0.196094 0.0198672
0.853071 0.195254 0.0198062
0.0217136 0.183337 0.150439
0.0216526 0.182589 0.148348
0.0226902 0.183383 0.146075
0.035523 0.186603 0.142626
0.0622263 0.191165 0.135637
0.0827039 0.198062 0.116976
0.0879377 0.208377 0.0802472
0.147982 0.2056 0.082887
0.201831 0.202884 0.0862135
0.247684 0.200977 0.0881666
0.279164 0.202945 0.0852064
0.308843 0.203113 0.0811475
0.3411 0.202213 0.0765393
0.371984 0.202152 0.072343
0.40235 0.203204 0.068513
0.432456 0.204639 0.0652171
0.463111 0.206653 0.0615091
0.49485 0.207492 0.0591592
0.527062 0.208515 0.0562753
0.559503 0.21001 0.0541848
0.591546 0.211307 0.0508583
0.623316 0.212589 0.047715
0.655116 0.213855 0.0442664
0.686625 0.215045 0.0404517
0.714977 0.21529 0.0355993
0.742657 0.21529 0.0304875
0.765743 0.21503 0.0263523
0.786068 0.21471 0.0229343
0.80618 0.21474 0.0213779
0.826169 0.215061 0.0209659
0.84651 0.215259 0.0212406
0.853239 0.214771 0.0212558
0.856443 0.214023 0.0212863
0.023621 0.207538 0.173663
0.0235447 0.206729 0.172
0.0234989 0.207233 0.169039
0.0337377 0.209705 0.1664
0.0588388 0.214405 0.161089
0.0928969 0.218341 0.149233
0.0964065 0.228595 0.118029
0.116945 0.23534 0.0864576
0.178882 0.232563 0.0963149
0.231693 0.230533 0.0993057
0.279072 0.228092 0.101289
0.313771 0.229847 0.0970626
0.343755 0.230365 0.0936446
0.376043 0.228931 0.0886397
0.407401 0.228626 0.0846723
0.438117 0.229358 0.0813611
0.468879 0.23032 0.0779889
0.499092 0.231937 0.0742199
0.529824 0.233585 0.0710613
0.561456 0.234516 0.0683146
0.593698 0.235248 0.0660716
0.625849 0.236362 0.063508
0.657572 0.237354 0.0612802
0.689006 0.238224 0.0581216
0.718349 0.238483 0.0548104
0.745769 0.238331 0.050721
0.770413 0.237949 0.0463569
0.790906 0.237369 0.0421759
0.811307 0.236835 0.0377813
0.831601 0.235996 0.0330816
0.852094 0.23537 0.0286412
0.858457 0.234424 0.0272984
0.861479 0.233494 0.0262913
0.0256962 0.231769 0.19736
0.0256504 0.231052 0.195315
0.0256809 0.231281 0.192767
0.0321813 0.23299 0.190066
0.0564584 0.237186 0.185733
0.0898299 0.241169 0.176761
0.114031 0.247044 0.158511
0.112642 0.258534 0.117159
0.151492 0.261448 0.0991836
0.209094 0.260456 0.110674
0.262303 0.258122 0.112276
0.31223 0.255055 0.11577
0.348394 0.256535 0.11075
0.378134 0.257755 0.10631
0.411215 0.256703 0.101717
0.442924 0.255726 0.0970474
0.473594 0.25594 0.0936751
0.503914 0.256687 0.0902113
0.534524 0.257877 0.0869612
0.565057 0.259266 0.0840467
0.596353 0.260685 0.0812238
0.628138 0.261326 0.0791028
0.659861 0.262013 0.0768292
0.691691 0.262791 0.0746166
0.72137 0.262776 0.0716716
0.748974 0.262196 0.0687877
0.775616 0.26186 0.0654307
0.795544 0.260853 0.062211
0.816037 0.260273 0.0589303
0.836179 0.259663 0.0554208
0.856397 0.258671 0.0515602
0.862516 0.257679 0.0496529
0.865614 0.256565 0.0484627
0.0271153 0.25597 0.219669
0.0270237 0.255024 0.217517
0.0270237 0.254932 0.214969
0.0305638 0.256504 0.213077
0.0538949 0.260502 0.209903
0.0846876 0.264714 0.202747
0.122591 0.268498 0.190112
0.130587 0.277256 0.162692
0.130678 0.288258 0.11516
0.184024 0.289448 0.114351
0.23946 0.288502 0.12575
0.294606 0.285908 0.126543
0.345754 0.282597 0.129931
0.382132 0.284169 0.125246
0.412589 0.285771 0.120714
0.444709 0.284581 0.115267
0.47715 0.283406 0.109743
0.5084 0.283391 0.105821
0.538872 0.28368 0.102586
0.569528 0.284474 0.099382
0.599847 0.285618 0.0964981
0.630488 0.286778 0.0936599
0.661524 0.2878 0.0912947
0.693111 0.288228 0.0894331
0.723659 0.288457 0.0875105
0.75169 0.287617 0.0849012
0.779202 0.286732 0.0821241
0.80029 0.286061 0.0797436
0.820218 0.285023 0.0767681
0.840284 0.284215 0.0740368
0.860868 0.283452 0.0713512
0.866789 0.282307 0.070161
0.869673 0.281285 0.0691844
0.0285191 0.280735 0.241306
0.0283513 0.279698 0.239078
0.0283207 0.279377 0.236851
0.029984 0.280781 0.234699
0.0500801 0.284108 0.232578
0.0809491 0.288243 0.226719
0.117998 0.292073 0.216251
0.145647 0.29749 0.200397
0.1458 0.308186 0.162753
0.157259 0.317586 0.118441
0.215366 0.317983 0.130495
0.270909 0.316838 0.140383
0.326467 0.313817 0.139742
0.377768 0.310521 0.143893
0.414511 0.311986 0.139208
0.445731 0.314244 0.134218
0.476936 0.313527 0.129198
0.510689 0.311864 0.123644
0.542199 0.311177 0.11928
0.572732 0.311162 0.115663
0.60325 0.311635 0.111849
0.633906 0.312657 0.109178
0.664408 0.313603 0.106035
0.695064 0.314549 0.103761
0.725368 0.314824 0.101427
0.753857 0.314107 0.0990005
0.781491 0.313146 0.0973373
0.803937 0.311879 0.0950637
0.82414 0.310964 0.0932021
0.844511 0.309758 0.0911574
0.864378 0.308782 0.0887465
0.870329 0.307652 0.08748
0.873213 0.306416 0.086656
0.0293431 0.305486 0.261158
0.029221 0.304372 0.259174
0.0291905 0.304265 0.257115
0.0300908 0.305303 0.255024
0.0460059 0.308644 0.253498
0.0780194 0.312154 0.248173
0.112581 0.316472 0.239963
0.151614 0.320119 0.228641
0.162142 0.328588 0.205295
0.159594 0.339849 0.158526
0.191409 0.345968 0.133791
0.246876 0.346609 0.146654
0.303151 0.344945 0.155016
0.358785 0.341878 0.153704
0.407996 0.339422 0.158022
0.446387 0.340383 0.153841
0.47863 0.342992 0.149081
0.509224 0.342611 0.143954
0.542855 0.340627 0.138064
0.575601 0.339559 0.133364
0.606546 0.339376 0.129702
0.637156 0.339437 0.126452
0.66743 0.339757 0.123308
0.698116 0.340398 0.120363
0.728069 0.341024 0.117769
0.756344 0.341085 0.114763
0.783703 0.340215 0.112444
0.807538 0.339117 0.110018
0.827787 0.337865 0.107866
0.847929 0.336645 0.106157
0.868193 0.335271 0.104189
0.874388 0.334066 0.103227
0.877043 0.332982 0.10219
0.0297551 0.331075 0.279393
0.0297856 0.330098 0.277836
0.0297704 0.329885 0.276097
0.0301823 0.330694 0.274357
0.042649 0.333425 0.272343
0.0748913 0.336049 0.267811
0.108812 0.340719 0.261158
0.147173 0.344442 0.25124
0.175357 0.350042 0.23827
0.177111 0.360388 0.205768
0.17937 0.37113 0.156451
0.22504 0.37467 0.150393
0.279652 0.374929 0.163577
0.33695 0.372671 0.169574
0.390433 0.370108 0.167803
0.437995 0.368093 0.171832
0.477012 0.368933 0.168307
0.510826 0.371344 0.164248
0.541344 0.371496 0.159182
0.574792 0.370108 0.153216
0.607935 0.368292 0.14786
0.63946 0.367666 0.143999
0.669978 0.367437 0.140627
0.70071 0.367727 0.137835
0.731151 0.367895 0.134859
0.759777 0.367697 0.132082
0.786618 0.367025 0.129198
0.811582 0.3664 0.127031
0.831281 0.365026 0.124743
0.851408 0.363973 0.122606
0.871382 0.362722 0.120607
0.878202 0.36141 0.119677
0.881178 0.360143 0.118807
0.0299077 0.356527 0.296529
0.0299077 0.355566 0.294942
0.0299077 0.355444 0.293126
0.0300755 0.355856 0.291157
0.0414282 0.358557 0.290303
0.0725872 0.360769 0.28632
0.107469 0.364691 0.28043
0.143267 0.369146 0.272175
0.179019 0.373281 0.262562
0.192966 0.381384 0.243397
0.19202 0.392447 0.202686
0.207538 0.401297 0.163653
0.259434 0.403388 0.168658
0.314122 0.402609 0.179858
0.370962 0.400534 0.183902
0.422599 0.39852 0.182712
0.468833 0.397009 0.186526
0.508095 0.397803 0.183474
0.541817 0.400336 0.17911
0.573449 0.400885 0.174304
0.60676 0.399191 0.168322
0.640284 0.397177 0.163546
0.672145 0.396246 0.159655
0.702937 0.395941 0.156527
0.733623 0.395621 0.153246
0.762631 0.395193 0.150484
0.790066 0.394629 0.147234
0.815686 0.39353 0.144305
0.835569 0.392691 0.142397
0.855024 0.391424 0.139925
0.875029 0.390433 0.137865
0.882429 0.389166 0.136782
0.885084 0.38793 0.135714
0.0307317 0.382864 0.313176
0.0303807 0.381857 0.311284
0.0303502 0.381506 0.309514
0.0305333 0.381689 0.307408
0.040589 0.383413 0.306188
0.0712139 0.38584 0.303273
0.106661 0.388739 0.29749
0.139956 0.393927 0.290486
0.176745 0.397986 0.282704
0.205158 0.403571 0.271412
0.208759 0.413474 0.244022
0.209567 0.424475 0.199374
0.243351 0.430365 0.178714
0.294865 0.431418 0.186419
0.349889 0.430732 0.196033
0.404608 0.428702 0.198825
0.454047 0.427268 0.197406
0.498924 0.426154 0.200702
0.538506 0.42678 0.198184
0.573022 0.429252 0.193576
0.605417 0.430045 0.189197
0.637903 0.428458 0.183398
0.671839 0.426719 0.179232
0.703868 0.425055 0.175296
0.734752 0.424323 0.171939
0.765347 0.424079 0.169253
0.792752 0.422736 0.166384
0.818524 0.421515 0.163317
0.83978 0.42034 0.161135
0.859297 0.419409 0.159014
0.878416 0.418143 0.156268
0.886641 0.416983 0.155016
0.889265 0.415747 0.153872
0.0308537 0.409094 0.327947
0.0308537 0.407843 0.326345
0.0308537 0.407218 0.324453
0.0311742 0.407065 0.322606
0.0408026 0.409018 0.32137
0.0706493 0.410956 0.318395
0.106706 0.413489 0.313085
0.139055 0.418326 0.307332
0.174136 0.422736 0.300206
0.207858 0.427771 0.292271
0.224353 0.435172 0.275914
0.224414 0.445747 0.240909
0.233692 0.455741 0.200076
0.27985 0.458762 0.194949
0.332723 0.459312 0.204166
0.385351 0.458534 0.211841
0.437583 0.457069 0.212772
0.4851 0.45626 0.211627
0.528923 0.45536 0.214374
0.568139 0.456168 0.211948
0.603159 0.458137 0.207965
0.636942 0.459312 0.20383
0.6692 0.458076 0.198688
0.702113 0.456016 0.194461
0.735286 0.454185 0.191318
0.766751 0.453086 0.188296
0.795163 0.451728 0.185107
0.821332 0.450553 0.18262
0.842893 0.449195 0.17969
0.86273 0.447822 0.177615
0.882277 0.446464 0.175402
0.891447 0.445182 0.174029
0.893935 0.443976 0.172869
0.0311589 0.43534 0.341268
0.0311131 0.434012 0.339437
0.0311589 0.433234 0.337545
0.0319219 0.43328 0.336156
0.0429084 0.434974 0.335302
0.0713664 0.436362 0.332464
0.106584 0.438178 0.327276
0.139559 0.442542 0.32195
0.171893 0.447852 0.315877
0.206134 0.452735 0.30927
0.236622 0.457938 0.300023
0.240772 0.467506 0.276051
0.240665 0.478264 0.235294
0.271794 0.484306 0.214084
0.318669 0.486686 0.212726
0.370108 0.486976 0.221195
0.420569 0.486412 0.227146
0.470634 0.485344 0.226902
0.515999 0.484932 0.225864
0.559045 0.484535 0.228107
0.598215 0.485405 0.225727
0.633371 0.487617 0.221775
0.667796 0.488838 0.217945
0.699901 0.487633 0.214038
0.732967 0.48539 0.210651
0.76611 0.483391 0.207431
0.796353 0.481758 0.203998
0.823789 0.479927 0.201083
0.846296 0.478279 0.198535
0.865736 0.476844 0.196429
0.885313 0.475395 0.193973
0.89482 0.474022 0.192477
0.897749 0.472618 0.191424
0.0313268 0.461341 0.352651
0.0311894 0.460044 0.351202
0.0311894 0.459388 0.349645
0.0324559 0.459861 0.348119
0.0459754 0.461128 0.347219
0.0732891 0.461738 0.344457
0.107469 0.463294 0.3402
0.140352 0.467231 0.335195
0.170993 0.473121 0.32987
0.204044 0.477806 0.324163
0.236179 0.482795 0.31693
0.255268 0.489784 0.302724
0.257221 0.499657 0.271366
0.268009 0.509056 0.236576
0.310567 0.512489 0.228779
0.358389 0.514214 0.231296
0.407355 0.514229 0.237644
0.456107 0.51426 0.241856
0.503822 0.513909 0.241215
0.547555 0.513878 0.240131
0.589319 0.513756 0.241581
0.628031 0.514641 0.239124
0.663767 0.51664 0.235386
0.698894 0.517998 0.232471
0.730877 0.517052 0.229953
0.763943 0.514946 0.22707
0.795956 0.512581 0.223514
0.825345 0.509957 0.220295
0.848905 0.507988 0.217472
0.868635 0.506447 0.21532
0.888121 0.504814 0.213245
0.899046 0.503227 0.211612
0.901854 0.502037 0.210681
0.0320745 0.487633 0.363714
0.0320287 0.486488 0.362203
0.0319371 0.486183 0.360571
0.0342718 0.486671 0.359991
0.050782 0.487205 0.358755
0.0762798 0.487404 0.355947
0.108782 0.488792 0.351324
0.141329 0.492103 0.347341
0.17113 0.497871 0.342214
0.202716 0.502831 0.337133
0.234806 0.507881 0.331334
0.264637 0.512993 0.322911
0.273487 0.521813 0.301442
0.274937 0.532006 0.265003
0.30811 0.53724 0.249882
0.351232 0.540063 0.244755
0.397406 0.541421 0.248386
0.444221 0.542168 0.253864
0.490837 0.542351 0.256321
0.536675 0.54229 0.254734
0.579126 0.542672 0.253971
0.619684 0.542962 0.254551
0.65861 0.543954 0.252399
0.69485 0.54551 0.248814
0.729686 0.547005 0.247883
0.762264 0.546136 0.246174
0.794415 0.543999 0.242878
0.825742 0.541543 0.24007
0.850919 0.538384 0.236988
0.871656 0.536461 0.234562
0.891081 0.53489 0.23267
0.903075 0.533196 0.231067
0.906142 0.531929 0.23006
0.0326238 0.514351 0.373297
0.0326543 0.513344 0.372
0.0323186 0.513024 0.37055
0.0381476 0.513085 0.369558
0.0558938 0.513176 0.368551
0.0793164 0.513008 0.366201
0.110857 0.513954 0.361975
0.14258 0.517174 0.357839
0.171939 0.52253 0.353872
0.202411 0.528008 0.349645
0.233936 0.532815 0.343877
0.265827 0.537835 0.337896
0.288106 0.54403 0.32578
0.291524 0.55346 0.297108
0.306874 0.561608 0.269673
0.349508 0.564553 0.264958
0.391455 0.567407 0.261616
0.436271 0.568689 0.265507
0.481559 0.569772 0.269627
0.526101 0.570275 0.27097
0.57023 0.570672 0.268879
0.611399 0.571405 0.267475
0.650919 0.571786 0.267124
0.689296 0.572686 0.264729
0.724834 0.574365 0.262715
0.760311 0.575677 0.263203
0.793103 0.57499 0.261723
0.825513 0.573144 0.259495
0.852689 0.56994 0.256703
0.874281 0.567727 0.253986
0.894133 0.565789 0.252064
0.907469 0.563821 0.25037
0.910338 0.562325 0.249165
0.0340581 0.541131 0.382391
0.0337835 0.539956 0.380774
0.0348516 0.539727 0.379568
0.0430457 0.539391 0.378775
0.061265 0.539239 0.377707
0.0847028 0.53872 0.375174
0.113466 0.539254 0.371725
0.144366 0.542153 0.367666
0.173358 0.547005 0.36437
0.202808 0.552819 0.360082
0.233326 0.55787 0.355962
0.265263 0.562875 0.351141
0.296071 0.567758 0.343984
0.307927 0.575647 0.324254
0.313756 0.584756 0.293538
0.349783 0.589044 0.283635
0.390265 0.592096 0.279866
0.43122 0.594675 0.278508
0.474418 0.596414 0.281834
0.517769 0.59762 0.284108
0.560739 0.598383 0.28423
0.603357 0.599054 0.282124
0.643565 0.599908 0.280934
0.682734 0.600702 0.279789
0.72047 0.601648 0.277897
0.755673 0.60296 0.277562
0.79118 0.604166 0.278386
0.824521 0.603967 0.278202
0.854139 0.60145 0.275807
0.877455 0.598917 0.273259
0.897444 0.596689 0.271046
0.912016 0.594858 0.269291
0.914473 0.593393 0.268208
0.0352483 0.567742 0.390127
0.0351263 0.566629 0.388952
0.0396887 0.566033 0.388266
0.0496071 0.565469 0.387564
0.0670176 0.565057 0.386023
0.0895094 0.564477 0.383581
0.116213 0.564477 0.380133
0.146029 0.566918 0.376349
0.175021 0.571649 0.373968
0.203372 0.577829 0.370413
0.23328 0.582986 0.366735
0.264424 0.587747 0.362524
0.296635 0.592432 0.356786
0.322774 0.597803 0.347143
0.327214 0.606928 0.319539
0.350622 0.613214 0.30106
0.391455 0.616464 0.298375
0.430137 0.619654 0.294774
0.470024 0.622126 0.294774
0.51165 0.62388 0.29723
0.553597 0.625513 0.298528
0.595438 0.626749 0.297856
0.636378 0.627649 0.294728
0.675486 0.628595 0.292256
0.713787 0.629404 0.291539
0.750759 0.630137 0.291859
0.786404 0.63122 0.292027
0.821653 0.632395 0.293202
0.854994 0.632288 0.293843
0.880674 0.629984 0.291814
0.900618 0.627588 0.289876
0.916045 0.625834 0.288167
0.919081 0.624323 0.287022
0.03682 0.594125 0.397452
0.038056 0.59295 0.39649
0.0454261 0.591913 0.395911
0.0571908 0.591348 0.39527
0.072755 0.590845 0.393866
0.094667 0.590341 0.391379
0.119066 0.590097 0.388037
0.147982 0.592096 0.384939
0.176547 0.596506 0.382544
0.204288 0.602564 0.379553
0.233173 0.607828 0.376349
0.263935 0.612711 0.372473
0.295674 0.617243 0.368002
0.328527 0.621668 0.362905
0.343023 0.629053 0.344915
0.352834 0.637491 0.31809
0.392737 0.640787 0.31519
0.4309 0.643885 0.312474
0.468132 0.647303 0.309529
0.50753 0.650034 0.310323
0.547936 0.652049 0.31133
0.588632 0.65359 0.311543
0.629114 0.654871 0.309575
0.669001 0.656001 0.306264
0.707347 0.657252 0.303975
0.744656 0.657923 0.304784
0.781353 0.658579 0.30544
0.816617 0.659632 0.306172
0.851255 0.660502 0.307942
0.882353 0.660655 0.309483
0.903044 0.658671 0.308293
0.920302 0.656641 0.306737
0.92343 0.655116 0.305715
0.0387579 0.619806 0.40412
0.0426184 0.618616 0.403571
0.0510567 0.618173 0.403357
0.0630198 0.617288 0.40206
0.0777447 0.616724 0.400412
0.0977646 0.615885 0.398001
0.121447 0.615839 0.395529
0.149493 0.61735 0.393164
0.177523 0.621225 0.390341
0.204913 0.626841 0.387884
0.232914 0.632761 0.385122
0.262837 0.637629 0.381872
0.294408 0.642359 0.378332
0.327199 0.646616 0.373785
0.355627 0.65156 0.36582
0.362371 0.660349 0.339712
0.394064 0.66508 0.330938
0.432334 0.668498 0.32932
0.468833 0.67216 0.326711
0.505348 0.675303 0.323873
0.543999 0.677821 0.324285
0.5832 0.68014 0.324117
0.622599 0.68217 0.322957
0.662623 0.683604 0.320302
0.701534 0.684657 0.316732
0.738781 0.685481 0.316823
0.775708 0.686152 0.317556
0.811765 0.686915 0.318379
0.846693 0.687816 0.319631
0.879652 0.688334 0.321599
0.90428 0.688029 0.323537
0.924025 0.68716 0.324178
0.927214 0.685695 0.323461
0.0418555 0.646097 0.410468
0.0475013 0.64509 0.410452
0.0565805 0.644129 0.409812
0.0689555 0.643458 0.408835
0.0829633 0.642466 0.407019
0.100801 0.641733 0.404791
0.1234 0.641321 0.402548
0.150164 0.64242 0.39971
0.177981 0.646097 0.397742
0.205341 0.651377 0.395895
0.232105 0.657557 0.392996
0.261662 0.662684 0.390555
0.292546 0.667323 0.387304
0.325567 0.671824 0.383795
