code/data/lut/34蓝绿沙色1.cube
TITLE "LD - Explorer Teal 1"
# Copyright (c) 2019 Lens Distortions, LLC. All Rights Reserved.
# LensDistortions.com
# ref-EXTL14
LUT_3D_SIZE 5
0.0167544 0.0120851 0.0122225
0.233829 0.0291295 0.0254063
0.499794 0.0698711 0.0168002
0.745785 0.113603 0.0149691
0.886458 0.126879 0.0150301
0.0233463 0.19855 0.16463
0.221256 0.216602 0.0920729
0.490288 0.221683 0.0664378
0.748867 0.232807 0.0328679
0.8981 0.231235 0.019501
0.0327611 0.407218 0.336065
0.195087 0.419547 0.301122
0.480278 0.449012 0.211536
0.766461 0.446021 0.184695
0.928923 0.435798 0.163912
0.0388037 0.623087 0.422614
0.194125 0.621744 0.403449
0.416815 0.666468 0.33315
0.737041 0.684031 0.322301
0.964813 0.680613 0.322698
0.0518196 0.798291 0.460319
0.169757 0.7991 0.449317
0.41413 0.848341 0.438331
0.682185 0.885603 0.414343
0.958816 0.902617 0.413718
0.0237125 0.0927596 0.152483
0.267185 0.0785077 0.234562
0.542153 0.0660716 0.212589
0.796613 0.0534371 0.17705
0.942382 0.0365606 0.154131
0.0270237 0.24889 0.260212
0.238361 0.240131 0.236591
0.50193 0.229664 0.205737
0.759716 0.229587 0.175311
0.917693 0.218357 0.146502
0.0335393 0.448936 0.389288
0.206546 0.450263 0.375998
0.493828 0.460548 0.303304
0.77583 0.44651 0.254582
0.941665 0.431998 0.222644
0.0413062 0.653269 0.463233
0.183917 0.646174 0.447898
0.438987 0.676005 0.401343
0.741314 0.688975 0.374151
0.975113 0.681178 0.356817
0.0478981 0.823224 0.499931
0.161166 0.821668 0.489906
0.412253 0.864988 0.485161
0.681605 0.903181 0.451133
0.968917 0.914076 0.439078
0.0318914 0.22565 0.356939
0.223758 0.218921 0.497414
0.572534 0.187518 0.482643
0.830503 0.172915 0.45388
0.964782 0.159121 0.432151
0.0321508 0.329763 0.443915
0.196674 0.309483 0.415869
0.535866 0.285725 0.464668
0.80708 0.264576 0.43566
0.971664 0.234653 0.408972
0.0347448 0.504875 0.510155
0.171496 0.491524 0.50219
0.511589 0.493111 0.479454
0.778622 0.473472 0.446891
0.984298 0.441199 0.409018
0.045304 0.707103 0.566247
0.134936 0.693782 0.551965
0.493263 0.711192 0.571694
0.761746 0.71194 0.534936
1 0.690455 0.493797
0.0484932 0.871473 0.590082
0.151949 0.868528 0.581384
0.428992 0.910521 0.594385
0.706554 0.935882 0.578454
0.996628 0.944457 0.509911
0.0588083 0.35375 0.575158
0.245563 0.364309 0.62211
0.587472 0.307286 0.722805
0.87129 0.299306 0.706386
1 0.288579 0.689693
0.051194 0.427771 0.640787
0.205081 0.407187 0.618784
0.528084 0.376455 0.709484
0.834607 0.362768 0.684779
1 0.331518 0.665721
0.0401465 0.581933 0.724758
0.168032 0.56022 0.701488
0.476066 0.547692 0.674083
0.802792 0.53106 0.679866
1 0.499565 0.653132
0.0501717 0.760494 0.726436
0.101442 0.742489 0.710277
0.478996 0.742901 0.730388
0.786389 0.744503 0.703929
1 0.713756 0.671122
0.0494087 0.91931 0.729625
0.110399 0.913024 0.71635
0.39292 0.944366 0.728283
0.720531 0.970504 0.732586
1 0.977569 0.684901
0.0784924 0.419608 0.695109
0.250095 0.420615 0.724895
0.567849 0.379538 0.873014
0.873411 0.367681 0.869718
1 0.364782 0.865904
0.0691234 0.471 0.745205
0.211978 0.464729 0.748959
0.505867 0.437385 0.876143
0.838224 0.423407 0.872084
1 0.417136 0.867887
0.0417639 0.614984 0.870161
0.174594 0.597253 0.855573
0.432563 0.592081 0.8934
0.794156 0.575921 0.890852
1 0.568902 0.883574
0.0506752 0.804288 0.926726
0.106584 0.787961 0.922316
0.464195 0.781064 0.934508
0.766186 0.776455 0.931868
1 0.766964 0.922576
0.0462196 0.956374 0.915908
0.0912795 0.951537 0.911421
0.361517 0.96759 0.9299
0.661021 0.991836 0.957137
1 0.995697 0.961105
