code/data/lut/34蓝绿沙色1.cube
TITLE "LD - Explorer Teal 1"
# Copyright (c) 2019 Lens Distortions, LLC. All Rights Reserved.
# LensDistortions.com
# ref-EXTL14
LUT_3D_SIZE 9
0.0167544 0.0120851 0.0122225
0.0816052 0.0207065 0.0220035
0.233829 0.0291295 0.0254063
0.37702 0.0448005 0.0212711
0.499794 0.0698711 0.0168002
0.627939 0.0947433 0.0153811
0.745785 0.113603 0.0149691
0.832563 0.123247 0.0149386
0.886458 0.126879 0.0150301
0.0225681 0.0916762 0.0826276
0.0930953 0.101244 0.0421912
0.230411 0.102861 0.0334783
0.35613 0.112337 0.0234684
0.487282 0.125887 0.0154269
0.616281 0.142641 0.0145113
0.740597 0.156695 0.0150301
0.830381 0.162081 0.0158083
0.887755 0.162768 0.0158236
0.0233463 0.19855 0.16463
0.0717021 0.201877 0.143771
0.221256 0.216602 0.0920729
0.365576 0.216175 0.0823377
0.490288 0.221683 0.0664378
0.620966 0.227619 0.0518502
0.748867 0.232807 0.0328679
0.844678 0.232319 0.0196384
0.8981 0.231235 0.019501
0.0302281 0.301137 0.260548
0.0547341 0.301274 0.247822
0.1617 0.327184 0.175189
0.350759 0.332784 0.150256
0.503868 0.332998 0.139178
0.632029 0.33138 0.120699
0.757107 0.334218 0.108843
0.860212 0.329534 0.0996414
0.912322 0.324239 0.092195
0.0327611 0.407218 0.336065
0.0429999 0.406027 0.327062
0.195087 0.419547 0.301122
0.265034 0.452201 0.191867
0.480278 0.449012 0.211536
0.633387 0.451865 0.202853
0.766461 0.446021 0.184695
0.876188 0.441001 0.17203
0.928923 0.435798 0.163912
0.034226 0.514611 0.388495
0.0552071 0.510781 0.37995
0.189181 0.52134 0.362875
0.295827 0.545113 0.320012
0.422446 0.564858 0.264759
0.606394 0.566278 0.270481
0.760571 0.570748 0.264118
0.88777 0.561242 0.252079
0.946563 0.553826 0.243977
0.0388037 0.623087 0.422614
0.0822766 0.614801 0.413703
0.194125 0.621744 0.403449
0.317906 0.642298 0.387839
0.416815 0.666468 0.33315
0.573861 0.678401 0.329427
0.737041 0.684031 0.322301
0.887648 0.687083 0.325643
0.964813 0.680613 0.322698
0.0492866 0.728176 0.446174
0.100282 0.719615 0.438209
0.192645 0.723598 0.431754
0.308217 0.74551 0.42327
0.430045 0.766094 0.400732
0.562966 0.78471 0.384314
0.710246 0.798001 0.372503
0.86511 0.802747 0.370535
0.970489 0.801724 0.372091
0.0518196 0.798291 0.460319
0.098146 0.79501 0.45478
0.169757 0.7991 0.449317
0.287251 0.821454 0.446281
0.41413 0.848341 0.438331
0.542641 0.87126 0.423514
0.682185 0.885603 0.414343
0.832547 0.896162 0.414145
0.958816 0.902617 0.413718
0.0254673 0.030457 0.0602426
0.117891 0.0331426 0.101717
0.263066 0.035462 0.115831
0.403357 0.0319677 0.105211
0.538933 0.0271916 0.0756847
0.672358 0.0265202 0.0263523
0.768795 0.0619059 0.0200656
0.845762 0.0806439 0.0166781
0.896086 0.0916457 0.0165408
0.0206912 0.119707 0.121355
0.101869 0.11284 0.108766
0.236866 0.106661 0.0986038
0.363912 0.105653 0.0864729
0.491691 0.115023 0.0745403
0.618662 0.129488 0.0630045
0.743984 0.141558 0.046128
0.833967 0.144228 0.0290532
0.892256 0.143465 0.0187839
0.0249485 0.220218 0.199847
0.0598001 0.222385 0.195178
0.231128 0.223972 0.140795
0.370214 0.218906 0.117418
0.495628 0.219928 0.0990463
0.624018 0.223804 0.088014
0.749722 0.228321 0.0758068
0.845701 0.2271 0.0601053
0.900633 0.223865 0.0476692
0.0309453 0.317388 0.283772
0.0373999 0.319356 0.278828
0.208362 0.326757 0.235157
0.354131 0.336629 0.184344
0.505013 0.334173 0.168856
0.633844 0.331609 0.145022
0.759915 0.332708 0.131121
0.863752 0.327672 0.120134
0.91632 0.322377 0.112123
0.0328374 0.420096 0.352361
0.0344244 0.419196 0.345983
0.19646 0.426429 0.324331
0.275334 0.454978 0.23003
0.481361 0.451286 0.236759
0.633112 0.45275 0.228122
0.7682 0.445243 0.203937
0.878523 0.439979 0.190738
0.932372 0.434226 0.182055
0.034638 0.526543 0.402731
0.0423743 0.523598 0.396155
0.18854 0.528817 0.381735
0.320134 0.54641 0.35317
0.426017 0.567788 0.288396
0.607355 0.568078 0.292027
0.761563 0.571481 0.282933
0.890257 0.560525 0.267765
0.95021 0.552666 0.259327
0.0400549 0.633158 0.436454
0.0707713 0.626169 0.428885
0.191135 0.629816 0.420157
0.319173 0.648051 0.406592
0.421088 0.669734 0.356451
0.575387 0.680278 0.348974
0.737881 0.685313 0.341253
0.889509 0.68751 0.339635
0.968231 0.68043 0.335683
0.0469368 0.738506 0.461494
0.0937514 0.729915 0.453819
0.18912 0.732052 0.448249
0.307362 0.751812 0.441382
0.443122 0.768627 0.430365
0.564828 0.787839 0.405234
0.711498 0.80087 0.38996
0.866178 0.804395 0.38262
0.974273 0.802869 0.387015
0.0500649 0.80853 0.476234
0.092668 0.805097 0.470787
0.166217 0.808698 0.46627
0.285222 0.829633 0.46453
0.413062 0.855085 0.457603
0.542229 0.879286 0.442313
0.68127 0.892821 0.427192
0.832944 0.901717 0.425208
0.962875 0.907271 0.424674
0.0237125 0.0927596 0.152483
0.0966354 0.0847944 0.220569
0.267185 0.0785077 0.234562
0.410819 0.0727855 0.225666
0.542153 0.0660716 0.212589
0.672389 0.0607462 0.194598
0.796613 0.0534371 0.17705
0.885008 0.0437781 0.163836
0.942382 0.0365606 0.154131
0.0212253 0.158968 0.203998
0.0771801 0.149798 0.191012
0.246693 0.137041 0.22501
0.386755 0.128893 0.209964
0.521126 0.118105 0.195377
0.651576 0.108385 0.171511
0.777661 0.103105 0.149111
0.866529 0.094377 0.131472
0.925856 0.0863966 0.118486
0.0270237 0.24889 0.260212
0.0548409 0.243824 0.257282
0.238361 0.240131 0.236591
0.374166 0.232609 0.219226
0.50193 0.229664 0.205737
0.629892 0.230503 0.193515
0.759716 0.229587 0.175311
0.85893 0.222248 0.155718
0.917693 0.218357 0.146502
0.0316167 0.34696 0.328191
0.0315557 0.345174 0.324987
0.216831 0.347402 0.313771
0.366491 0.349401 0.266911
0.515053 0.33994 0.241108
0.639323 0.337072 0.221378
0.768505 0.332433 0.20087
0.874968 0.324269 0.179294
0.929183 0.318761 0.169726
0.0335393 0.448936 0.389288
0.0331884 0.444816 0.383062
0.206546 0.450263 0.375998
0.33753 0.45864 0.332433
0.493828 0.460548 0.303304
0.648219 0.452827 0.276921
0.77583 0.44651 0.254582
0.887785 0.438544 0.231495
0.941665 0.431998 0.222644
0.0353552 0.551003 0.432303
0.0354314 0.546715 0.426719
0.190402 0.549462 0.417899
0.328771 0.558328 0.398733
0.444282 0.575326 0.342229
0.614359 0.57435 0.337118
0.766613 0.573922 0.321218
0.898772 0.560723 0.297139
0.958206 0.552346 0.288808
0.0413062 0.653269 0.463233
0.0528115 0.647181 0.45713
0.183917 0.646174 0.447898
0.321416 0.659525 0.439414
0.438987 0.676005 0.401343
0.580819 0.685557 0.383261
0.741314 0.688975 0.374151
0.894926 0.690471 0.363302
0.975113 0.681178 0.356817
0.0467994 0.755749 0.48716
0.0816815 0.746868 0.479683
0.182773 0.745785 0.473411
0.306538 0.762707 0.469718
0.445533 0.776791 0.46009
0.569085 0.793378 0.437034
0.713314 0.804395 0.419059
0.869535 0.808347 0.403525
0.979782 0.805142 0.407904
0.0478981 0.823224 0.499931
0.0844587 0.819791 0.495018
0.161166 0.821668 0.489906
0.282887 0.840604 0.48986
0.412253 0.864988 0.485161
0.543572 0.887221 0.472099
0.681605 0.903181 0.451133
0.834562 0.91017 0.440635
0.968917 0.914076 0.439078
0.0236362 0.158221 0.251881
0.0937362 0.160845 0.274983
0.268849 0.136461 0.365759
0.421256 0.13225 0.358679
0.55964 0.124208 0.344945
0.686244 0.116121 0.330785
0.806653 0.109148 0.319921
0.890318 0.101518 0.306661
0.94403 0.09514 0.297215
0.0246738 0.209247 0.296254
0.0748302 0.198245 0.28661
0.225345 0.185183 0.362097
0.397436 0.172869 0.344854
0.539849 0.163912 0.333104
0.669413 0.15111 0.31873
0.794629 0.143725 0.304768
0.883253 0.1355 0.289967
0.941268 0.127779 0.278553
0.0302434 0.288472 0.356909
0.0496376 0.280415 0.348486
0.211841 0.270878 0.330465
0.387091 0.258259 0.348714
0.524407 0.250614 0.330343
0.655894 0.241764 0.318517
0.786877 0.230503 0.300816
0.889509 0.210468 0.279042
0.94966 0.202243 0.267262
0.032578 0.376135 0.38819
0.0323339 0.371252 0.383841
0.214511 0.365682 0.378164
0.37525 0.366583 0.359594
0.512489 0.357305 0.341787
0.643915 0.350317 0.329641
0.768277 0.347921 0.319478
0.885634 0.33695 0.302281
0.954238 0.323339 0.285054
0.0338598 0.476555 0.438163
0.0336004 0.470436 0.432349
0.176074 0.470512 0.429129
0.355871 0.476097 0.415686
0.5019 0.475731 0.381216
0.651087 0.464622 0.35848
0.778744 0.457633 0.342138
0.900267 0.446632 0.323842
0.963226 0.433707 0.304891
0.0368505 0.57879 0.479591
0.0365454 0.572717 0.47393
0.170916 0.572885 0.467124
0.351431 0.58265 0.470848
0.472541 0.586938 0.430457
0.626291 0.586816 0.417365
0.793973 0.572686 0.383505
0.910994 0.566033 0.369543
0.979644 0.555215 0.34844
0.0433509 0.681575 0.50808
0.0432593 0.675685 0.502907
0.16669 0.670558 0.493034
0.346929 0.685237 0.503548
0.471122 0.689052 0.488045
0.601999 0.698268 0.46688
0.755001 0.698924 0.45124
0.919783 0.69073 0.425345
0.993286 0.684047 0.410361
0.0479744 0.782666 0.529992
0.0631571 0.774838 0.524132
0.171023 0.768688 0.516167
0.319341 0.788296 0.525658
0.444541 0.794461 0.518288
0.584894 0.80618 0.503838
0.721065 0.815229 0.486793
0.881025 0.817731 0.459281
0.995422 0.812497 0.456199
0.0484016 0.845426 0.53933
0.0699321 0.843107 0.535622
0.153124 0.843397 0.530236
0.286061 0.864393 0.536873
0.412146 0.884367 0.533989
0.553964 0.901686 0.526146
0.688884 0.918898 0.504494
0.839261 0.926436 0.468162
0.980407 0.926513 0.464836
0.0318914 0.22565 0.356939
0.100282 0.230182 0.377462
0.223758 0.218921 0.497414
0.426856 0.192966 0.495079
0.572534 0.187518 0.482643
0.709133 0.181048 0.469703
0.830503 0.172915 0.45388
0.912886 0.165118 0.441398
0.964782 0.159121 0.432151
0.0333715 0.266072 0.398276
0.0843671 0.256672 0.392844
0.214679 0.25272 0.429435
0.405264 0.21883 0.483665
0.55375 0.213977 0.470359
0.691524 0.205875 0.457313
0.817411 0.193439 0.44062
0.906371 0.185199 0.427573
0.964111 0.1785 0.417472
0.0321508 0.329763 0.443915
0.0567788 0.320424 0.433371
0.196674 0.309483 0.415869
0.363699 0.296895 0.486
0.535866 0.285725 0.464668
0.674372 0.279149 0.449989
0.80708 0.264576 0.43566
0.911879 0.24271 0.420508
0.971664 0.234653 0.408972
0.033402 0.415061 0.49308
0.0333867 0.408667 0.488624
0.196139 0.398672 0.476753
0.351751 0.394308 0.463996
0.525597 0.382193 0.46949
0.660212 0.373312 0.447303
0.790387 0.36379 0.436103
0.910079 0.347372 0.419196
0.980545 0.328832 0.403037
0.0347448 0.504875 0.510155
0.0344244 0.497795 0.504005
0.171496 0.491524 0.50219
0.352102 0.492439 0.496849
0.511589 0.493111 0.479454
0.64683 0.483421 0.460807
0.778622 0.473472 0.446891
0.911391 0.45864 0.428565
0.984298 0.441199 0.409018
0.0385901 0.605707 0.541588
0.0380865 0.598611 0.535775
0.125109 0.59469 0.530343
0.326543 0.599313 0.537789
0.498589 0.601968 0.520439
0.637034 0.600855 0.500938
0.78677 0.589426 0.477272
0.915648 0.578943 0.46154
0.992401 0.563973 0.43975
0.045304 0.707103 0.566247
0.0449073 0.700282 0.561044
0.134936 0.693782 0.551965
0.336141 0.705394 0.564981
0.493263 0.711192 0.571694
0.613962 0.712596 0.549264
0.761746 0.71194 0.534936
0.923598 0.701732 0.517449
1 0.690455 0.493797
0.0492409 0.810056 0.584695
0.0533303 0.802533 0.579614
0.154009 0.793942 0.570397
0.312383 0.811902 0.581796
0.490211 0.820279 0.596063
0.616541 0.823224 0.588724
0.744518 0.828901 0.582162
0.890211 0.829999 0.564889
1 0.822522 0.527749
0.0484932 0.871473 0.590082
0.0606699 0.870039 0.586618
0.151949 0.868528 0.581384
0.28394 0.886564 0.588037
0.428992 0.910521 0.594385
0.568826 0.922698 0.59086
0.706554 0.935882 0.578454
0.848112 0.94728 0.543999
0.996628 0.944457 0.509911
0.0440223 0.294652 0.474342
0.111482 0.298833 0.492882
0.239292 0.302724 0.531151
0.418967 0.264134 0.617273
0.581018 0.248295 0.606348
0.724102 0.243702 0.597528
0.858244 0.237842 0.587961
0.941161 0.229343 0.57499
0.991547 0.223438 0.565637
0.0446021 0.326513 0.510918
0.0949569 0.318349 0.505623
0.222538 0.31426 0.523705
0.390005 0.28275 0.608103
0.562173 0.265309 0.595315
0.705348 0.261463 0.586114
0.842618 0.252171 0.576135
0.933242 0.241321 0.562173
0.989776 0.233997 0.551659
0.03682 0.377813 0.540261
0.0728313 0.366995 0.530312
0.196231 0.354452 0.513893
0.329778 0.355489 0.562432
0.530709 0.327657 0.591257
0.682948 0.322454 0.577111
0.825589 0.313024 0.569116
0.934173 0.289128 0.5552
0.995361 0.276783 0.543999
0.0347906 0.454124 0.588952
0.0346227 0.447181 0.583749
0.185779 0.432197 0.560815
0.328237 0.428534 0.552651
0.508904 0.414496 0.593225
0.670588 0.406561 0.576867
0.805585 0.39939 0.562676
0.928237 0.380072 0.546777
0.99881 0.359579 0.533486
0.036759 0.542794 0.613046
0.0364538 0.53521 0.606928
0.162036 0.525124 0.601694
0.338231 0.523568 0.598749
0.497612 0.516869 0.585916
0.658595 0.508492 0.581765
0.791226 0.498238 0.559899
0.927581 0.480797 0.550286
1 0.462608 0.536034
0.0412909 0.633051 0.618936
0.0407721 0.625528 0.612543
0.110735 0.618585 0.607858
0.329137 0.618891 0.617639
0.493919 0.61738 0.604471
0.648707 0.618921 0.594217
0.783642 0.60766 0.577523
0.921798 0.592691 0.561807
1 0.575677 0.546029
0.0477455 0.734112 0.63653
0.0473335 0.726558 0.630991
0.107408 0.718196 0.621912
0.300008 0.72343 0.63241
0.47631 0.72546 0.639582
0.638773 0.727565 0.624018
0.775372 0.726299 0.612558
0.923995 0.714702 0.596994
1 0.699413 0.577508
0.0504616 0.836973 0.650507
0.049958 0.829343 0.645212
0.127794 0.818753 0.634546
0.290791 0.829862 0.644633
0.474418 0.838361 0.660533
0.630381 0.842023 0.665263
0.758114 0.842344 0.654169
0.897215 0.842634 0.64268
1 0.832441 0.609201
0.0492561 0.89482 0.651194
0.0510109 0.89366 0.647883
0.129274 0.889616 0.639658
0.275441 0.906035 0.647227
0.417273 0.934447 0.656321
0.570748 0.94342 0.655192
0.715343 0.953155 0.649302
0.855802 0.962524 0.623682
1 0.964523 0.575936
0.0588083 0.35375 0.575158
0.121996 0.359136 0.591699
0.245563 0.364309 0.62211
0.384634 0.33286 0.738933
0.587472 0.307286 0.722805
0.731411 0.303166 0.713451
0.87129 0.299306 0.706386
0.967956 0.294743 0.699351
1 0.288579 0.689693
0.0608835 0.383993 0.61149
0.10695 0.378408 0.608789
0.227665 0.375311 0.621973
0.35523 0.354192 0.711406
0.56669 0.322301 0.714748
0.712291 0.316518 0.70309
0.854078 0.312871 0.694759
0.958633 0.306584 0.686625
1 0.294881 0.674907
0.051194 0.427771 0.640787
0.0887465 0.417838 0.631113
0.205081 0.407187 0.618784
0.333761 0.407675 0.649958
0.528084 0.376455 0.709484
0.688228 0.366629 0.695201
0.834607 0.362768 0.684779
0.952743 0.353948 0.677028
1 0.331518 0.665721
0.0372168 0.494759 0.682383
0.0479286 0.486473 0.672969
0.192187 0.47306 0.652567
0.322301 0.466529 0.640696
0.468345 0.46273 0.689235
0.663417 0.443854 0.692973
0.814206 0.439139 0.677821
0.942596 0.430121 0.667201
1 0.409537 0.654688
0.0401465 0.581933 0.724758
0.0397345 0.574365 0.716838
0.168032 0.56022 0.701488
0.324697 0.553903 0.68632
0.476066 0.547692 0.674083
0.647364 0.537163 0.696773
0.802792 0.53106 0.679866
0.942077 0.518746 0.6663
1 0.499565 0.653132
0.0454719 0.669261 0.730144
0.0449836 0.661768 0.722988
0.107286 0.652049 0.717327
0.318196 0.648905 0.722911
0.489097 0.645396 0.713542
0.642023 0.639994 0.699779
0.793652 0.634562 0.690181
0.931533 0.620737 0.669886
1 0.602701 0.657725
0.0501717 0.760494 0.726436
0.0497597 0.752728 0.719585
0.101442 0.742489 0.710277
0.291447 0.744503 0.722667
0.478996 0.742901 0.730388
0.631235 0.742306 0.711696
0.786389 0.744503 0.703929
0.924483 0.730938 0.685191
1 0.713756 0.671122
0.0512245 0.863447 0.734401
0.0512093 0.855467 0.727672
0.111589 0.844602 0.71722
0.268055 0.848096 0.724788
0.427817 0.855497 0.742123
0.622156 0.854322 0.741817
0.77113 0.857084 0.734386
0.907423 0.855467 0.721126
1 0.842298 0.694697
0.0494087 0.91931 0.729625
0.0489815 0.91809 0.725505
0.110399 0.913024 0.71635
0.248081 0.921752 0.718196
0.39292 0.944366 0.728283
0.553628 0.963134 0.732036
0.720531 0.970504 0.732586
0.867521 0.976425 0.719539
1 0.977569 0.684901
0.072694 0.398993 0.654124
0.13167 0.40412 0.671382
0.250645 0.409262 0.701732
0.37464 0.391501 0.788052
0.575799 0.357839 0.821851
0.732525 0.346075 0.812238
0.872984 0.342611 0.803708
0.970947 0.33843 0.796414
1 0.335653 0.790875
0.0743725 0.425101 0.691112
0.115938 0.420813 0.688853
0.231922 0.418204 0.701152
0.365743 0.408515 0.744213
0.54992 0.372763 0.816815
0.713069 0.359121 0.806027
0.855741 0.355749 0.796231
0.962051 0.350927 0.788952
1 0.347219 0.782803
0.0659342 0.463996 0.724407
0.0988479 0.456458 0.716121
0.210864 0.448081 0.706172
0.338689 0.447395 0.736675
0.514244 0.418799 0.822812
0.690501 0.404974 0.807767
0.838071 0.400916 0.79559
0.958923 0.395956 0.788632
1 0.39086 0.782788
0.0454871 0.526848 0.770886
0.0719005 0.517784 0.759014
0.199084 0.508553 0.748959
0.323873 0.500954 0.731609
0.462272 0.50071 0.773526
0.651484 0.481163 0.815854
0.810132 0.474723 0.796384
0.94931 0.470375 0.78735
1 0.465919 0.781064
0.0415503 0.608438 0.832288
0.0411688 0.601801 0.825147
0.174243 0.588479 0.809094
0.320684 0.582986 0.788769
0.461204 0.579355 0.794141
0.626184 0.570199 0.824887
0.795148 0.562081 0.808652
0.948852 0.556664 0.795377
1 0.550484 0.78645
0.0473945 0.70103 0.864286
0.047013 0.69427 0.858503
0.130983 0.68249 0.850599
0.313191 0.679026 0.843671
0.461402 0.67364 0.837201
0.609842 0.668498 0.833722
0.783856 0.659037 0.819577
0.940276 0.652949 0.802243
1 0.643549 0.790417
0.0510262 0.794308 0.863249
0.0509194 0.786648 0.854414
0.105135 0.775326 0.844907
0.2916 0.771862 0.854505
0.491463 0.765667 0.846189
0.634256 0.766537 0.840711
0.770993 0.76492 0.829145
0.931044 0.75819 0.813306
1 0.744167 0.798764
0.0505684 0.888395 0.848096
0.0508125 0.880598 0.840085
0.103746 0.86891 0.828473
0.257435 0.868299 0.834287
0.482322 0.866346 0.842191
0.639689 0.86479 0.838041
0.772946 0.867735 0.833173
0.915618 0.870634 0.823896
1 0.855253 0.805371
0.0483406 0.943084 0.836713
0.0476539 0.941985 0.830442
0.0979019 0.936324 0.820005
0.22829 0.940703 0.819425
0.367468 0.956451 0.82858
0.49984 0.976318 0.834852
0.694896 0.984344 0.833707
0.878676 0.987076 0.835019
1 0.9879 0.812253
0.0784924 0.419608 0.695109
0.13286 0.419471 0.701564
0.250095 0.420615 0.724895
0.377676 0.409659 0.803708
0.567849 0.379538 0.873014
0.732448 0.36849 0.872007
0.873411 0.367681 0.869718
0.972717 0.365682 0.867414
1 0.364782 0.865904
0.0769665 0.434363 0.711757
0.11693 0.431479 0.712322
0.231403 0.430228 0.72784
0.368673 0.425589 0.768948
0.540261 0.39469 0.874067
0.712566 0.382284 0.872023
0.856092 0.381659 0.869673
0.963577 0.379339 0.866697
1 0.377539 0.865003
0.0691234 0.471 0.745205
0.0999924 0.465736 0.741176
0.211978 0.464729 0.748959
0.338521 0.461082 0.773938
0.505867 0.437385 0.876143
0.689387 0.424384 0.875822
0.838224 0.423407 0.872084
0.960403 0.420523 0.869688
1 0.417136 0.867887
0.05066 0.533791 0.797269
0.0769818 0.52604 0.789929
0.198932 0.520104 0.791135
0.323598 0.52221 0.801846
0.435721 0.511604 0.87718
0.643626 0.498299 0.881575
0.809232 0.493828 0.878691
0.950301 0.49163 0.874723
1 0.488609 0.872389
0.0417639 0.614984 0.870161
0.0419013 0.609445 0.866209
0.174594 0.597253 0.855573
0.319631 0.59646 0.853483
0.432563 0.592081 0.8934
0.619135 0.58291 0.893751
0.794156 0.575921 0.890852
0.949203 0.572656 0.885878
1 0.568902 0.883574
0.0473335 0.709895 0.918212
0.0467689 0.703853 0.916335
0.145571 0.692409 0.910613
0.304051 0.688441 0.911406
0.4392 0.68394 0.917586
0.610513 0.677775 0.912947
0.779995 0.671656 0.9093
0.938735 0.667659 0.904936
1 0.664012 0.901411
0.0506752 0.804288 0.926726
0.0506447 0.798444 0.925368
0.106584 0.787961 0.922316
0.291966 0.783612 0.933516
0.464195 0.781064 0.934508
0.616373 0.780591 0.934737
0.766186 0.776455 0.931868
0.927413 0.771267 0.926925
1 0.766964 0.922576
0.0494087 0.902419 0.923964
0.0491493 0.896696 0.924193
0.100359 0.886397 0.920592
0.263279 0.883787 0.929549
0.411322 0.885924 0.945769
0.587732 0.884092 0.948455
0.754345 0.884428 0.950545
0.908186 0.883574 0.948547
1 0.879225 0.944076
0.0462196 0.956374 0.915908
0.0458381 0.956207 0.915953
0.0912795 0.951537 0.911421
0.227207 0.955428 0.916335
0.361517 0.96759 0.9299
0.483803 0.982803 0.947005
0.661021 0.991836 0.957137
0.858427 0.994675 0.960204
1 0.995697 0.961105
