code/data/lut/34蓝绿沙色3.cube
TITLE "LD - Explorer Teal 3"
# Copyright (c) 2019 Lens Distortions, LLC. All Rights Reserved.
# LensDistortions.com
# ref-EXTL14
LUT_3D_SIZE 5
0.024918 0.0236057 0.0241855
0.226246 0.0331884 0.0307927
0.540352 0.0697337 0.0285649
0.797284 0.121691 0.0309758
0.930922 0.142855 0.0341955
0.0294347 0.203098 0.166354
0.228794 0.231769 0.0920272
0.532616 0.239582 0.0689403
0.798444 0.25803 0.0477607
0.939101 0.262852 0.0374304
0.0404517 0.443961 0.366873
0.198825 0.462837 0.332784
0.520333 0.492866 0.228275
0.812055 0.493614 0.200381
0.962524 0.48864 0.182391
0.0500343 0.677928 0.47039
0.202533 0.678752 0.452659
0.454749 0.718608 0.370489
0.782849 0.732906 0.355505
0.988952 0.732754 0.359228
0.0679026 0.854673 0.522072
0.182391 0.855558 0.511879
0.458106 0.891798 0.492912
0.73373 0.917967 0.461479
0.983383 0.930678 0.459068
0.0296941 0.0875105 0.152956
0.282048 0.0780804 0.254307
0.587884 0.0688029 0.231724
0.84239 0.0632029 0.193576
0.971649 0.0514687 0.165225
0.0332494 0.262135 0.27718
0.248707 0.259174 0.25716
0.545022 0.248997 0.223636
0.810147 0.256168 0.195331
0.959014 0.251209 0.169589
0.0417487 0.490455 0.427359
0.212757 0.496345 0.417411
0.534508 0.504952 0.333135
0.820462 0.493843 0.281102
0.973205 0.48481 0.250858
0.0532235 0.709148 0.515526
0.191394 0.704021 0.501564
0.478264 0.727153 0.445502
0.786603 0.737041 0.413306
0.997208 0.733028 0.397345
0.0648051 0.878096 0.565164
0.17409 0.877241 0.556619
0.456535 0.906645 0.543267
0.733227 0.932845 0.501305
0.991363 0.939986 0.486641
0.0369268 0.236759 0.388769
0.232837 0.235599 0.546075
0.62179 0.202182 0.534203
0.879805 0.194553 0.513497
1 0.186557 0.498482
0.0392615 0.356588 0.483803
0.199145 0.339391 0.458671
0.580621 0.313512 0.512215
0.854765 0.297017 0.489265
1 0.271733 0.470314
0.0438392 0.552178 0.558404
0.172869 0.542 0.55407
0.553079 0.538933 0.525582
0.82208 0.521218 0.494163
1 0.494957 0.46154
0.0585794 0.763989 0.625879
0.139712 0.753674 0.61413
0.536034 0.75964 0.623682
0.8047 0.757687 0.58349
1 0.741115 0.545022
0.0670176 0.923629 0.661387
0.166918 0.92134 0.653941
0.475639 0.945846 0.655879
0.756527 0.95903 0.632425
1 0.964431 0.560693
0.060914 0.389425 0.62536
0.258198 0.401953 0.672038
0.637079 0.340337 0.76704
0.915908 0.339651 0.760784
1 0.335103 0.753216
0.0567941 0.471275 0.690242
0.211048 0.450202 0.669444
0.573037 0.415854 0.753063
0.878752 0.406485 0.736324
1 0.381018 0.72871
0.0512703 0.636271 0.771206
0.171283 0.616342 0.751369
0.516075 0.597009 0.719692
0.844038 0.581048 0.72604
1 0.555825 0.70901
0.0651713 0.817746 0.782528
0.108278 0.803693 0.770718
0.521706 0.790661 0.775143
0.827604 0.787701 0.746624
1 0.762158 0.719692
0.0697032 0.96817 0.796872
0.125673 0.964355 0.786694
0.43856 0.977081 0.784192
0.769451 0.98703 0.776638
1 0.989609 0.73019
0.0780041 0.466026 0.743343
0.264683 0.465415 0.768338
0.617212 0.421576 0.897871
0.916838 0.415366 0.90219
1 0.418936 0.905898
0.072282 0.522408 0.789868
0.221302 0.514382 0.791455
0.551125 0.483742 0.899702
0.882353 0.473075 0.90074
1 0.473732 0.90457
0.0541848 0.672633 0.901106
0.181491 0.656733 0.889509
0.471855 0.645274 0.915068
0.837125 0.627802 0.911528
1 0.626154 0.910826
0.0677653 0.861921 0.958221
0.116548 0.849393 0.95906
0.5084 0.828138 0.95404
0.80943 0.817533 0.945357
1 0.810712 0.939269
0.0684367 0.994995 0.953017
0.109209 0.996674 0.955062
0.406943 0.996124 0.957183
0.713436 0.994995 0.960037
1 0.995666 0.961135
