code/data/lut/34蓝绿沙色2.cube
TITLE "LD - Explorer Teal 2"
# Copyright (c) 2019 Lens Distortions, LLC. All Rights Reserved.
# LensDistortions.com
# ref-EXTL14
LUT_3D_SIZE 9
0.0159915 0.0153201 0.0159152
0.0654154 0.0231174 0.0244755
0.197803 0.0264286 0.0229801
0.344289 0.0418708 0.0214237
0.476631 0.0662852 0.0208591
0.600305 0.0882429 0.0182498
0.712383 0.104036 0.0169223
0.79469 0.11249 0.0167239
0.8448 0.115724 0.0166934
0.0196078 0.0803082 0.0714733
0.0798047 0.0939193 0.0434272
0.210712 0.0967575 0.0372168
0.332876 0.105867 0.0280766
0.45951 0.116426 0.0179751
0.584848 0.130144 0.0158846
0.705333 0.142138 0.0162509
0.791211 0.147402 0.0170748
0.845289 0.148363 0.0172122
0.0217136 0.183337 0.150439
0.0622263 0.191165 0.135637
0.201831 0.202884 0.0862135
0.3411 0.202213 0.0765393
0.463111 0.206653 0.0615091
0.591546 0.211307 0.0508583
0.714977 0.21529 0.0355993
0.80618 0.21474 0.0213779
0.856443 0.214023 0.0212863
0.0285191 0.280735 0.241306
0.0500801 0.284108 0.232578
0.1458 0.308186 0.162753
0.326467 0.313817 0.139742
0.476936 0.313527 0.129198
0.60325 0.311635 0.111849
0.725368 0.314824 0.101427
0.82414 0.310964 0.0932021
0.873213 0.306416 0.086656
0.0307317 0.382864 0.313176
0.040589 0.383413 0.306188
0.176745 0.397986 0.282704
0.243351 0.430365 0.178714
0.454047 0.427268 0.197406
0.605417 0.430045 0.189197
0.734752 0.424323 0.171939
0.83978 0.42034 0.161135
0.889265 0.415747 0.153872
0.0320745 0.487633 0.363714
0.050782 0.487205 0.358755
0.17113 0.497871 0.342214
0.273487 0.521813 0.301442
0.397406 0.541421 0.248386
0.579126 0.542672 0.253971
0.729686 0.547005 0.247883
0.850919 0.538384 0.236988
0.906142 0.531929 0.23006
0.03682 0.594125 0.397452
0.072755 0.590845 0.393866
0.176547 0.596506 0.382544
0.295674 0.617243 0.368002
0.392737 0.640787 0.31519
0.547936 0.652049 0.31133
0.707347 0.657252 0.303975
0.851255 0.660502 0.307942
0.92343 0.655116 0.305715
0.0480354 0.697597 0.423011
0.0902724 0.693492 0.41915
0.176593 0.695781 0.411399
0.2878 0.717693 0.404181
0.407156 0.737362 0.382193
0.538399 0.754711 0.365957
0.682551 0.766522 0.354147
0.830442 0.770825 0.351629
0.928771 0.770153 0.353735
0.051133 0.765637 0.4383
0.0895552 0.766766 0.437308
0.157137 0.768978 0.430396
0.268818 0.790722 0.428031
0.393149 0.816144 0.420752
0.5196 0.836896 0.405737
0.656168 0.849241 0.395743
0.800473 0.858381 0.39498
0.918303 0.86421 0.39443
0.0246586 0.0333715 0.0541543
0.0965133 0.0331579 0.0871138
0.228595 0.0325933 0.0952316
0.366461 0.0301061 0.0865492
0.500359 0.0258335 0.0612802
0.630823 0.0248722 0.0248112
0.737041 0.0581064 0.0236973
0.810819 0.0748302 0.0198215
0.857114 0.0848402 0.0193942
0.0175631 0.105913 0.106218
0.0891432 0.105867 0.101106
0.218128 0.10164 0.0934462
0.342061 0.101045 0.0822919
0.466163 0.108385 0.0692912
0.589395 0.119738 0.0575113
0.709911 0.129854 0.0449378
0.795041 0.131731 0.0313573
0.849546 0.13077 0.0213169
0.0233921 0.204044 0.183719
0.0529335 0.210132 0.183459
0.210697 0.209537 0.130419
0.345266 0.204318 0.108904
0.468421 0.204898 0.0916457
0.594583 0.207752 0.0806744
0.71696 0.212284 0.0690471
0.808545 0.211215 0.0569162
0.8598 0.208179 0.0480659
0.0291295 0.296117 0.263218
0.0358434 0.299321 0.259998
0.189593 0.308049 0.21973
0.329839 0.317632 0.171664
0.477974 0.314717 0.156573
0.60502 0.311818 0.133959
0.727901 0.313252 0.12166
0.827253 0.308995 0.112154
0.876997 0.304341 0.105501
0.0307469 0.395331 0.328786
0.0326543 0.394919 0.323186
0.178073 0.404822 0.304952
0.253498 0.433158 0.214984
0.455222 0.429587 0.221393
0.605158 0.430961 0.213123
0.736599 0.423743 0.190402
0.842054 0.419409 0.178653
0.892576 0.414374 0.17113
0.0324254 0.499367 0.377417
0.0402228 0.497902 0.372885
0.170413 0.505226 0.360571
0.297139 0.523217 0.333623
0.401083 0.544228 0.271321
0.580072 0.544259 0.274357
0.730556 0.547646 0.265766
0.853483 0.537957 0.252216
0.90927 0.530709 0.244572
0.0380255 0.603952 0.41117
0.0640726 0.60145 0.408026
0.173739 0.604425 0.398947
0.296971 0.622889 0.386557
0.397162 0.64416 0.337972
0.549493 0.653895 0.330388
0.708247 0.658396 0.322591
0.853147 0.661067 0.321614
0.926696 0.654902 0.318395
0.0456245 0.707256 0.437659
0.0844739 0.703548 0.434669
0.173602 0.704204 0.427893
0.287098 0.723796 0.422034
0.420172 0.73991 0.41149
0.539956 0.757427 0.386389
0.683726 0.769207 0.371084
0.831601 0.77258 0.363607
0.932265 0.771221 0.367895
0.0495155 0.775311 0.453941
0.0848249 0.776471 0.45304
0.153872 0.778317 0.44744
0.267185 0.798489 0.446128
0.392187 0.822553 0.439734
0.51931 0.84445 0.424308
0.655406 0.856077 0.408698
0.800977 0.863462 0.405982
0.922072 0.868452 0.405234
0.0208591 0.0814984 0.135256
0.0848096 0.0795605 0.206516
0.249195 0.075288 0.222675
0.390478 0.0705577 0.215396
0.519097 0.0637675 0.201663
0.644892 0.0583047 0.182559
0.761776 0.0515297 0.163043
0.841901 0.0426795 0.147173
0.892943 0.0358892 0.135698
0.0188907 0.144366 0.185275
0.0663615 0.141436 0.178531
0.226032 0.128862 0.210025
0.362219 0.121126 0.195865
0.494484 0.110338 0.181399
0.62269 0.101045 0.158572
0.74493 0.0961471 0.137896
0.830152 0.088426 0.122484
0.886458 0.0814679 0.111437
0.0254978 0.231022 0.241321
0.049546 0.229725 0.241856
0.218021 0.224994 0.220951
0.349111 0.217578 0.204044
0.474571 0.213977 0.190585
0.600198 0.21413 0.178241
0.726207 0.213107 0.161013
0.820737 0.206455 0.142855
0.875944 0.203159 0.134859
0.0297398 0.324453 0.305943
0.0296635 0.322759 0.302739
0.197406 0.32781 0.294942
0.342153 0.330068 0.250217
0.488334 0.320516 0.22504
0.610742 0.317525 0.206149
0.736339 0.313161 0.186709
0.837964 0.305715 0.167285
0.88864 0.300999 0.158572
0.0314031 0.423331 0.364721
0.0310979 0.419455 0.35877
0.187808 0.428305 0.355428
0.313787 0.436896 0.313344
0.467811 0.438834 0.285008
0.620066 0.431144 0.259876
0.743938 0.425025 0.238407
0.850752 0.418097 0.217334
0.901473 0.41236 0.209659
0.0330663 0.523095 0.406302
0.0332189 0.519097 0.401053
0.172457 0.525399 0.396094
0.305684 0.535103 0.37821
0.419333 0.551659 0.323217
0.586786 0.5505 0.317952
0.7355 0.550362 0.302846
0.861509 0.538231 0.280446
0.91696 0.530755 0.273121
0.0393225 0.623636 0.437522
0.0503243 0.619944 0.433845
0.167269 0.620371 0.426184
0.299397 0.634195 0.418875
0.414649 0.650248 0.381704
0.554726 0.659098 0.364004
0.71162 0.661952 0.354513
0.858228 0.663996 0.344533
0.932754 0.655497 0.33872
0.0453956 0.723461 0.46273
0.0749065 0.719432 0.459724
0.168093 0.717418 0.452842
0.286473 0.734279 0.449851
0.422629 0.747707 0.440665
0.544015 0.762737 0.417319
0.685252 0.77258 0.399405
0.834806 0.775937 0.384039
0.937469 0.773526 0.388479
0.0472419 0.788891 0.476921
0.0785229 0.790127 0.476783
0.14931 0.790936 0.47097
0.265202 0.808911 0.471244
0.391516 0.831907 0.46685
0.520699 0.851804 0.453574
0.655787 0.865522 0.432013
0.802548 0.871229 0.421057
0.927626 0.874739 0.419532
0.0216678 0.144533 0.231739
0.0824445 0.151812 0.259037
0.24741 0.128389 0.345968
0.395224 0.1234 0.337819
0.531456 0.11548 0.323888
0.656031 0.107897 0.310246
0.772229 0.101579 0.299931
0.852064 0.0949721 0.288579
0.902922 0.0897383 0.280339
0.0233005 0.193774 0.275822
0.0648814 0.187793 0.271077
0.205112 0.173007 0.341497
0.371206 0.160464 0.323995
0.51107 0.151003 0.311452
0.637675 0.138643 0.296529
0.758282 0.131914 0.282963
0.842771 0.125078 0.269764
0.897597 0.118593 0.259724
0.0284886 0.26833 0.334051
0.0461128 0.263737 0.328939
0.19295 0.254322 0.311284
0.361898 0.241779 0.328527
0.496956 0.233982 0.310063
0.626001 0.224964 0.298131
0.752483 0.214237 0.280858
0.84979 0.195712 0.260441
0.905425 0.18822 0.249134
0.0305943 0.35256 0.36408
0.0303807 0.34789 0.359701
0.195209 0.345754 0.357244
0.350973 0.347036 0.339864
0.485847 0.337453 0.321904
0.615427 0.330587 0.310124
0.736477 0.32845 0.300374
0.848341 0.318563 0.28455
0.912459 0.305989 0.26894
0.031693 0.450416 0.412345
0.0313725 0.444297 0.4065
0.158801 0.448005 0.406897
0.331884 0.45417 0.394675
0.476066 0.453849 0.361059
0.62295 0.442771 0.338766
0.747112 0.436255 0.323064
0.862776 0.426413 0.30631
0.921706 0.414649 0.288746
0.0346532 0.550484 0.452873
0.0343023 0.54461 0.447196
0.154513 0.548516 0.444404
0.32784 0.558953 0.449119
0.447257 0.562966 0.409415
0.598856 0.562585 0.396338
0.761959 0.549249 0.363394
0.872709 0.543481 0.350652
0.936996 0.533791 0.33106
0.0415045 0.65127 0.482033
0.0414282 0.645701 0.4766
0.15169 0.64419 0.470893
0.324193 0.659113 0.481804
0.446708 0.662715 0.466621
0.575525 0.671199 0.445472
0.724743 0.671611 0.429801
0.881407 0.664073 0.40499
0.949569 0.65861 0.391073
0.0467536 0.749554 0.505257
0.0610513 0.744625 0.502083
0.157504 0.739635 0.495048
0.299123 0.758907 0.505043
0.421698 0.764599 0.497887
0.559808 0.774716 0.483101
0.692836 0.78262 0.465888
0.845457 0.784726 0.438331
0.951339 0.780148 0.435737
0.0478218 0.810269 0.516167
0.0675669 0.811276 0.51574
0.142473 0.81207 0.511238
0.268757 0.831754 0.517906
0.391669 0.850111 0.515053
0.530999 0.865125 0.506554
0.662913 0.879896 0.484276
0.806622 0.886015 0.448051
0.937926 0.886 0.444358
0.0305638 0.210193 0.335668
0.0889601 0.217121 0.35848
0.203601 0.204486 0.47393
0.399924 0.17908 0.47042
0.542962 0.17293 0.45745
0.676417 0.166522 0.444221
0.792859 0.158984 0.428809
0.870405 0.15227 0.417334
0.918486 0.147326 0.408667
0.0320287 0.247913 0.375433
0.0740368 0.242634 0.373709
0.195254 0.236728 0.407523
0.379355 0.203983 0.460197
0.525078 0.198611 0.446067
0.6598 0.190417 0.432624
0.780941 0.178653 0.416236
0.864622 0.171389 0.403906
0.918166 0.165621 0.394553
0.0303044 0.30779 0.418814
0.0518502 0.302296 0.411902
0.178241 0.291081 0.394095
0.33933 0.279133 0.46302
0.508431 0.267857 0.441657
0.644648 0.261311 0.427024
0.772747 0.247517 0.413062
0.871321 0.226947 0.398413
0.927092 0.220081 0.3879
0.0312963 0.390356 0.466255
0.0313115 0.3841 0.462181
0.177813 0.377783 0.453895
0.32784 0.373846 0.441703
0.498985 0.36199 0.446845
0.63154 0.353277 0.425055
0.758053 0.344091 0.41442
0.871809 0.329229 0.398962
0.937133 0.312154 0.38378
0.0325322 0.478141 0.482673
0.0321965 0.470954 0.476585
0.154788 0.468574 0.478706
0.32842 0.470176 0.474052
0.485451 0.470726 0.456916
0.618936 0.461265 0.438743
0.747158 0.451942 0.425498
0.873426 0.4383 0.408515
0.941375 0.422248 0.390387
0.0363775 0.576913 0.513649
0.0359503 0.570184 0.508156
0.112535 0.570718 0.507408
0.303777 0.575402 0.514748
0.47303 0.577646 0.497642
0.609567 0.576501 0.478477
0.754955 0.565454 0.455283
0.877379 0.55613 0.440955
0.948608 0.542473 0.420356
0.0435187 0.676249 0.539193
0.0430915 0.669596 0.533822
0.122713 0.667506 0.529442
0.314137 0.678599 0.542031
0.468299 0.684092 0.548592
0.587442 0.684825 0.526177
0.731441 0.684016 0.512032
0.884749 0.674739 0.495247
0.961334 0.664637 0.473045
0.0483406 0.776181 0.559396
0.052781 0.770047 0.555138
0.14226 0.764385 0.549096
0.292775 0.78143 0.560372
0.466957 0.788815 0.573648
0.591119 0.790631 0.565835
0.715282 0.795163 0.558556
0.853727 0.795926 0.541329
0.968383 0.789395 0.505684
0.0482795 0.835355 0.566567
0.0602884 0.835996 0.565209
0.141756 0.835813 0.561669
0.267155 0.852461 0.568017
0.40856 0.874464 0.574029
0.545892 0.884382 0.569574
0.68011 0.895384 0.556588
0.815152 0.904921 0.522133
0.952651 0.902419 0.488762
0.0416571 0.276295 0.450889
0.0995041 0.281956 0.470848
0.218753 0.28484 0.507332
0.393088 0.247349 0.590158
0.552514 0.231418 0.578759
0.692302 0.22678 0.570047
0.820951 0.221927 0.561486
0.898589 0.214328 0.549386
0.945144 0.209522 0.541176
0.0421454 0.306691 0.486427
0.0837873 0.301228 0.483696
0.202945 0.29575 0.499992
0.364797 0.265415 0.581704
0.534112 0.247944 0.568521
0.674281 0.243961 0.559442
0.806363 0.235737 0.550164
0.891615 0.226032 0.537194
0.943832 0.219745 0.527764
0.0350195 0.354772 0.51342
0.0642405 0.348333 0.507836
0.177951 0.334615 0.490272
0.306203 0.336004 0.538048
0.503609 0.308522 0.565225
0.653422 0.303487 0.551476
0.791226 0.294881 0.544427
0.893523 0.272465 0.531395
0.950072 0.261494 0.521492
0.0325933 0.428321 0.559686
0.0324865 0.421729 0.554864
0.167773 0.410361 0.535897
0.304952 0.407599 0.528618
0.482643 0.39382 0.567956
0.641962 0.385977 0.552056
0.772763 0.379416 0.538705
0.889097 0.361486 0.524498
0.954421 0.342473 0.512215
0.0345312 0.515297 0.582879
0.0342412 0.507897 0.577005
0.146136 0.50164 0.575601
0.314916 0.501076 0.573632
0.471962 0.494301 0.561074
0.630579 0.485985 0.557137
0.759258 0.476219 0.535821
0.888563 0.460304 0.527672
0.956191 0.443397 0.5149
0.0392004 0.6038 0.589059
0.0387121 0.596597 0.583032
0.0991836 0.594629 0.58323
0.306416 0.594476 0.592157
0.46836 0.592782 0.579217
0.620981 0.593973 0.569314
0.751934 0.583246 0.553002
0.883009 0.569497 0.538567
0.960113 0.553918 0.524224
0.0462196 0.702785 0.607736
0.0456855 0.695216 0.602075
0.0971237 0.692134 0.598444
0.279637 0.696284 0.607736
0.451972 0.698146 0.614313
0.611795 0.69929 0.598566
0.744167 0.697536 0.58706
0.885252 0.686961 0.572534
0.97084 0.673182 0.554559
0.0497597 0.802182 0.623438
0.0492561 0.794812 0.618128
0.118181 0.789029 0.612451
0.272251 0.798688 0.621103
0.451713 0.806073 0.635935
0.604669 0.808194 0.639307
0.728664 0.807782 0.627955
0.860319 0.807553 0.616434
0.976974 0.798566 0.584817
0.0492103 0.857481 0.625772
0.0513619 0.856962 0.623178
0.121111 0.856672 0.619165
0.259602 0.870985 0.625391
0.397681 0.897078 0.634302
0.547967 0.903761 0.631678
0.688411 0.911101 0.624537
0.822202 0.918791 0.599115
0.968093 0.920165 0.552911
0.0537423 0.334432 0.550286
0.10927 0.339956 0.566506
0.225055 0.344411 0.595361
0.359915 0.31426 0.706218
0.559701 0.288869 0.690379
0.700679 0.284779 0.681697
0.834607 0.282063 0.675776
0.92549 0.278767 0.670436
0.970779 0.27364 0.661921
0.0555123 0.363775 0.585458
0.095201 0.359182 0.583642
0.207813 0.355154 0.595148
0.331212 0.334981 0.680446
0.539605 0.303639 0.683085
0.682322 0.297871 0.672114
0.818402 0.295064 0.66479
0.916869 0.290318 0.658427
0.969421 0.279591 0.648081
0.0479896 0.405234 0.612284
0.0778668 0.398108 0.60531
0.186191 0.386069 0.591943
0.310719 0.387213 0.622492
0.501671 0.35668 0.678523
0.659251 0.346838 0.665034
0.80058 0.343633 0.655512
0.912108 0.336461 0.649592
0.97116 0.31545 0.639826
0.035111 0.468345 0.649424
0.0453346 0.46244 0.642435
0.174182 0.450706 0.624247
0.299413 0.445106 0.613947
0.44303 0.441489 0.660105
0.635309 0.422751 0.663249
0.78143 0.41857 0.649332
0.902785 0.410941 0.640665
0.970169 0.391806 0.629755
0.0380865 0.554009 0.689738
0.0376135 0.546441 0.682063
0.152102 0.536248 0.670878
0.302007 0.530953 0.657496
0.450584 0.524788 0.645808
0.619654 0.514366 0.667018
0.770504 0.508507 0.651102
0.902419 0.49778 0.639704
0.970459 0.480064 0.628275
0.0436408 0.639567 0.695796
0.043122 0.632227 0.688792
0.0965133 0.627741 0.688151
0.296254 0.623911 0.69276
0.463859 0.620249 0.683558
0.614588 0.614725 0.670192
0.761654 0.609369 0.661036
0.892409 0.596902 0.64271
0.973342 0.58024 0.632044
0.0488594 0.728511 0.693858
0.0483253 0.720806 0.686992
0.0921035 0.716152 0.683482
0.271672 0.716808 0.693675
0.454704 0.71487 0.700496
0.604608 0.713588 0.682246
0.755016 0.715129 0.674296
0.885801 0.702296 0.656962
0.980117 0.686824 0.644358
0.0508278 0.827665 0.703807
0.0507668 0.820127 0.697414
0.10309 0.814343 0.69192
0.251209 0.816266 0.697719
0.406256 0.822705 0.713649
0.596582 0.819959 0.711803
0.741009 0.82153 0.703746
0.869749 0.819577 0.690761
0.983597 0.807675 0.666224
0.0496834 0.881041 0.700969
0.049424 0.879973 0.69723
0.103182 0.879561 0.692882
0.233814 0.885924 0.693202
0.374029 0.906615 0.702525
0.531395 0.922164 0.704585
0.693385 0.926894 0.703151
0.832853 0.930999 0.689708
0.975875 0.931838 0.656611
0.0645762 0.379294 0.62707
0.118166 0.383688 0.642527
0.229938 0.388602 0.67126
0.350805 0.371832 0.75288
0.549157 0.338674 0.783719
0.702556 0.327184 0.774731
0.837369 0.324758 0.767788
0.929259 0.32192 0.762142
0.975647 0.319875 0.757595
0.0661479 0.405035 0.662531
0.103838 0.40061 0.659876
0.211978 0.397131 0.670497
0.341817 0.388128 0.711528
0.523659 0.353323 0.779248
0.684001 0.340078 0.769207
0.820844 0.337346 0.760647
0.921157 0.333959 0.755215
0.975677 0.331197 0.750103
0.0599374 0.442374 0.692927
0.08748 0.435767 0.685893
0.192233 0.426444 0.675288
0.315496 0.426398 0.704601
0.488579 0.39855 0.784939
0.662104 0.384756 0.770642
0.804623 0.381613 0.760342
0.918242 0.378088 0.755077
0.976623 0.373983 0.750546
0.0435492 0.501595 0.734356
0.0644388 0.495674 0.725917
0.180911 0.485847 0.715419
0.301137 0.479118 0.700099
0.437369 0.478996 0.739147
0.623972 0.459785 0.778531
0.778164 0.454017 0.761028
0.909682 0.450935 0.754055
0.976806 0.447379 0.748913
0.0395666 0.580301 0.790311
0.0392309 0.573922 0.783764
0.158572 0.564492 0.772259
0.298543 0.559731 0.75404
0.436606 0.55639 0.759121
0.599023 0.547021 0.78706
0.763729 0.539284 0.77229
0.908934 0.535088 0.761074
0.978012 0.529885 0.753658
0.0458991 0.671031 0.821622
0.0453956 0.664454 0.815946
0.119631 0.657588 0.813001
0.292302 0.653788 0.806226
0.437247 0.648325 0.799771
0.583535 0.642741 0.795956
0.752575 0.63328 0.782406
0.900633 0.628183 0.767132
0.982055 0.619791 0.756741
0.0501564 0.761608 0.822614
0.0499275 0.754055 0.814252
0.0961776 0.748287 0.810132
0.27274 0.743664 0.817624
0.467567 0.736797 0.808896
0.607919 0.736889 0.803067
0.74049 0.734722 0.791699
0.891707 0.728328 0.776974
0.986877 0.715602 0.764019
0.0505837 0.851804 0.810925
0.0507973 0.84448 0.803403
0.0961776 0.837949 0.796933
0.24155 0.835508 0.800458
0.459998 0.832578 0.806653
0.613931 0.829618 0.801373
0.74287 0.831464 0.795941
0.877348 0.833616 0.78677
0.987671 0.819532 0.769757
0.0490272 0.903761 0.801984
0.0485237 0.902754 0.796292
0.0919814 0.901991 0.790906
0.215763 0.903777 0.788357
0.349523 0.918105 0.796674
0.478981 0.934981 0.801328
0.668696 0.939742 0.797726
0.842878 0.940414 0.797131
0.978515 0.940826 0.775677
0.0691386 0.399771 0.665965
0.119448 0.398733 0.67126
0.229404 0.399664 0.692973
0.353689 0.389685 0.76733
0.541756 0.360067 0.831525
0.702998 0.34963 0.830701
0.838148 0.349416 0.829221
0.931441 0.348867 0.828504
0.975952 0.348653 0.827878
0.0682841 0.414252 0.682048
0.104829 0.411048 0.682002
0.211917 0.409155 0.695827
0.344991 0.405097 0.735027
0.514336 0.375082 0.832486
0.683635 0.362799 0.830701
0.821912 0.36318 0.829358
0.923033 0.362097 0.827787
0.976074 0.361166 0.827054
0.0623484 0.449592 0.712764
0.088838 0.444953 0.709468
0.193469 0.442878 0.715587
0.315572 0.440055 0.739635
0.480797 0.417182 0.834745
0.661509 0.404303 0.834287
0.805142 0.403937 0.831815
0.919951 0.402426 0.830518
0.976547 0.400137 0.829892
0.048188 0.509194 0.759579
0.0684977 0.504433 0.755383
0.181064 0.49723 0.755093
0.30135 0.500191 0.766079
0.411673 0.49015 0.836011
0.616556 0.476844 0.839719
0.777554 0.472908 0.837598
0.910384 0.471839 0.835004
0.97705 0.469917 0.834119
0.0399481 0.58703 0.825803
0.0402533 0.581918 0.822507
0.159136 0.573251 0.815579
0.29778 0.57319 0.814313
0.408728 0.569268 0.851316
0.592767 0.559808 0.851408
0.762707 0.553124 0.848447
0.909636 0.551034 0.84538
0.978073 0.548043 0.843565
0.0458839 0.679896 0.871763
0.0454108 0.67422 0.870024
0.133394 0.666819 0.868391
0.28365 0.663188 0.869078
0.415778 0.658625 0.874479
0.584283 0.651957 0.869352
0.749035 0.64564 0.86566
0.899397 0.642496 0.862287
0.982788 0.639673 0.859861
0.0499428 0.771511 0.881682
0.049897 0.765805 0.880446
0.0980392 0.760601 0.882078
0.273579 0.755138 0.890944
0.441215 0.752163 0.891279
0.590707 0.750591 0.890364
0.736065 0.745754 0.886717
0.888457 0.740749 0.882277
0.986542 0.737331 0.878874
0.0496529 0.865232 0.881682
0.0495308 0.860044 0.881971
0.0934157 0.854765 0.882948
0.247807 0.850477 0.88922
0.391028 0.851759 0.903502
0.5635 0.848264 0.904051
0.72517 0.84715 0.90457
0.870375 0.845563 0.902052
0.985412 0.841703 0.89807
0.0472267 0.916396 0.875853
0.0469673 0.916304 0.875883
0.0862593 0.916442 0.87628
0.215137 0.917739 0.878294
0.344457 0.928481 0.890852
0.463676 0.940978 0.905257
0.636316 0.946868 0.912123
0.824048 0.947417 0.912932
0.977432 0.947555 0.912902
