code/data/lut/35浓郁蓝调3.cube
TITLE "LD - Tonal Blue 3"
# Copyright (c) 2019 Lens Distortions, LLC. All Rights Reserved.
# LensDistortions.com
# ref-TB7
LUT_3D_SIZE 9
0 0.013077 0.0320287
0.0135653 0.0240787 0.0471046
0.0771038 0.0426795 0.0724041
0.18822 0.062623 0.0970016
0.317678 0.0795453 0.109575
0.441886 0.100832 0.118059
0.558587 0.127077 0.129564
0.673625 0.154681 0.141131
0.765423 0.174884 0.150408
0.00296025 0.0733501 0.0884413
0.0425269 0.0867933 0.102968
0.140215 0.10457 0.109117
0.258274 0.125261 0.119799
0.376913 0.150378 0.131823
0.496223 0.17673 0.143282
0.613916 0.204456 0.153674
0.729061 0.233433 0.164858
0.814679 0.251072 0.173144
0.0318914 0.188327 0.162707
0.0942702 0.196429 0.180117
0.168612 0.218952 0.176715
0.305867 0.233143 0.161822
0.430838 0.251759 0.170397
0.552682 0.274113 0.180255
0.672465 0.299504 0.190204
0.788159 0.326665 0.200336
0.867582 0.340978 0.207706
0.0964675 0.301595 0.233219
0.163912 0.310613 0.256336
0.235309 0.331945 0.261982
0.313436 0.357244 0.242115
0.466651 0.368109 0.223651
0.597436 0.384131 0.233967
0.718563 0.406119 0.238178
0.834607 0.43061 0.244556
0.912413 0.442634 0.249592
0.166171 0.418326 0.312673
0.233585 0.427878 0.33875
0.307454 0.446937 0.348028
0.365377 0.474617 0.328618
0.46421 0.495613 0.314031
0.626856 0.503578 0.285939
0.753506 0.521004 0.295766
0.873304 0.540063 0.303563
0.944366 0.550134 0.302205
0.233799 0.536126 0.391943
0.30309 0.54583 0.421317
0.378912 0.562478 0.433875
0.439185 0.58735 0.428
0.509621 0.613169 0.397803
0.616663 0.631403 0.382208
0.781598 0.637217 0.347463
0.900191 0.654505 0.354543
0.967422 0.662623 0.380072
0.303349 0.652918 0.472724
0.372671 0.661707 0.500725
0.449851 0.676753 0.519356
0.513619 0.697627 0.519997
0.570062 0.724041 0.491249
0.650767 0.746426 0.470695
0.765652 0.761563 0.444892
0.921111 0.765911 0.417288
0.983688 0.785153 0.475212
0.373327 0.766323 0.552926
0.441871 0.774136 0.579065
0.518151 0.786984 0.602289
0.584329 0.804837 0.606516
0.640146 0.827939 0.59028
0.704097 0.852293 0.552941
0.784726 0.871687 0.540261
0.902846 0.882933 0.520394
0.996155 0.89189 0.562432
0.439643 0.869307 0.626642
0.507713 0.877302 0.652171
0.585092 0.887984 0.679622
0.66183 0.90193 0.685405
0.72639 0.919921 0.677531
0.784482 0.941726 0.654459
0.848264 0.961959 0.623331
0.923888 0.976074 0.615686
1 0.9841 0.583246
0 0.0166934 0.0477302
0.014786 0.027039 0.0660258
0.0817578 0.0465248 0.104173
0.190372 0.064622 0.135042
0.315129 0.0814069 0.15375
0.434226 0.103365 0.16614
0.548928 0.129946 0.178927
0.662013 0.159335 0.193759
0.757809 0.183154 0.206149
0.00109865 0.0791485 0.123095
0.0411994 0.0919966 0.137545
0.122087 0.113375 0.156008
0.226337 0.141604 0.174258
0.34287 0.169421 0.195026
0.461204 0.197665 0.211292
0.580865 0.22475 0.224475
0.699657 0.250584 0.235309
0.796887 0.270771 0.244678
0.0202792 0.198337 0.20354
0.100038 0.202228 0.25771
0.174975 0.221469 0.232334
0.30573 0.236149 0.218601
0.417594 0.257694 0.235279
0.530861 0.282948 0.249226
0.64683 0.309087 0.26128
0.762646 0.335103 0.272175
0.849653 0.350652 0.277913
0.0781262 0.312642 0.266377
0.182788 0.322286 0.338872
0.233005 0.338323 0.329351
0.327169 0.358297 0.323415
0.50042 0.361822 0.282353
0.601984 0.385733 0.295018
0.714717 0.408698 0.303197
0.828489 0.432334 0.312001
0.904646 0.445686 0.319188
0.150332 0.428931 0.344305
0.257404 0.44181 0.417838
0.303075 0.454353 0.411948
0.391653 0.473716 0.416144
0.482033 0.495766 0.40264
0.669657 0.496651 0.345296
0.766644 0.519692 0.354818
0.877409 0.540398 0.36376
0.942946 0.551934 0.373465
0.221347 0.546441 0.423865
0.324392 0.558846 0.491066
0.371023 0.570367 0.493324
0.460563 0.588663 0.492973
0.522026 0.613794 0.49099
0.631952 0.632105 0.470451
0.816388 0.632425 0.407828
0.910063 0.654597 0.412665
0.963745 0.670268 0.474372
0.293446 0.662272 0.505165
0.385565 0.673075 0.560464
0.440726 0.683925 0.570703
0.526482 0.700511 0.573831
0.593301 0.723033 0.572992
0.649302 0.749554 0.553124
0.773968 0.762951 0.530495
0.936019 0.766094 0.494331
0.982818 0.785702 0.529488
0.364111 0.774701 0.584207
0.450355 0.783627 0.629877
0.512932 0.793576 0.647562
0.592813 0.808545 0.654643
0.659098 0.827771 0.650462
0.716045 0.852186 0.64007
0.789105 0.872862 0.622812
0.904921 0.884276 0.607767
0.999496 0.893034 0.615106
0.433234 0.877485 0.658976
0.508156 0.884733 0.689265
0.585443 0.893782 0.715984
0.664973 0.906142 0.728161
0.735088 0.92163 0.724758
0.793271 0.941848 0.707713
0.853742 0.962768 0.679271
0.926131 0.977661 0.669276
1 0.984787 0.640375
0 0.0221561 0.0802167
0.0173037 0.0322271 0.103777
0.088365 0.0532387 0.16527
0.199664 0.0689403 0.204868
0.323415 0.0853895 0.227481
0.438972 0.107561 0.241474
0.552056 0.133928 0.255818
0.66331 0.163424 0.272023
0.758724 0.187854 0.28542
0 0.08748 0.176593
0.0303502 0.104265 0.186206
0.119478 0.120378 0.22504
0.233494 0.145296 0.234028
0.346685 0.172885 0.249577
0.460868 0.200153 0.271672
0.575799 0.228031 0.29015
0.690684 0.25658 0.307561
0.789685 0.279881 0.32163
0.00921645 0.206683 0.265522
0.0968338 0.208728 0.299184
0.174746 0.228885 0.280446
0.273228 0.25153 0.282979
0.384009 0.275227 0.297337
0.488441 0.306905 0.320165
0.603021 0.336156 0.343725
0.714992 0.36846 0.365957
0.82179 0.397024 0.383536
0.0588235 0.324422 0.317327
0.174975 0.328405 0.382589
0.248478 0.343038 0.380377
0.331548 0.362509 0.363333
0.46421 0.377829 0.346838
0.571588 0.400519 0.363363
0.680797 0.424872 0.384649
0.787717 0.452064 0.403296
0.87657 0.474098 0.418006
0.127153 0.442115 0.385794
0.257786 0.450111 0.454887
0.334752 0.460304 0.494423
0.377249 0.481453 0.466682
0.480781 0.50016 0.454292
0.661677 0.503105 0.411307
0.759915 0.525383 0.425101
0.863584 0.547662 0.441001
0.930846 0.569589 0.467033
0.199496 0.559152 0.46006
0.323507 0.568109 0.526009
0.424323 0.580011 0.579355
0.46099 0.595575 0.564935
0.533989 0.613764 0.558389
0.634455 0.634012 0.540734
0.84538 0.627939 0.474723
0.931655 0.649119 0.484398
0.961013 0.681315 0.559655
0.273777 0.67422 0.53846
0.386053 0.682475 0.59617
0.505089 0.695857 0.660441
0.539391 0.7084 0.654902
0.607813 0.724071 0.643397
0.673213 0.744717 0.653544
0.78172 0.762966 0.618021
0.970565 0.754971 0.591318
0.983291 0.787839 0.653666
0.346899 0.78555 0.616678
0.445777 0.79234 0.663386
0.570123 0.806134 0.733242
0.604227 0.81677 0.731014
0.669642 0.829938 0.719554
0.747631 0.847349 0.729213
0.793393 0.871839 0.728191
0.915557 0.88278 0.705669
1 0.892012 0.720821
0.418494 0.88751 0.690974
0.502785 0.893187 0.723461
0.657862 0.904051 0.792859
0.705959 0.91313 0.797421
0.764721 0.924697 0.798245
0.820584 0.940047 0.792416
0.871473 0.95993 0.7729
0.931945 0.976272 0.762829
1 0.985306 0.710719
0 0.0278325 0.121447
0.021912 0.038941 0.154665
0.0925307 0.0579385 0.234668
0.206271 0.0739605 0.283543
0.327291 0.0922866 0.307088
0.443519 0.113924 0.319554
0.557214 0.139361 0.334188
0.668528 0.168139 0.350759
0.764172 0.192615 0.365545
0 0.0936446 0.248936
0.0277409 0.121508 0.239124
0.0958877 0.13698 0.295521
0.229984 0.155169 0.318395
0.34902 0.182422 0.326223
0.467597 0.206607 0.339757
0.582513 0.231434 0.361715
0.695628 0.259388 0.380636
0.793301 0.284108 0.396429
0.0053254 0.212833 0.337331
0.077348 0.220554 0.346044
0.161608 0.240482 0.341176
0.27779 0.25568 0.364324
0.388403 0.282124 0.352941
0.496925 0.309819 0.367712
0.606821 0.339239 0.393469
0.717617 0.36965 0.417075
0.823209 0.399695 0.439002
0.0470588 0.333806 0.385229
0.163073 0.335439 0.435828
0.250767 0.349386 0.429953
0.32929 0.370901 0.413046
0.435767 0.390997 0.415869
0.535241 0.418296 0.423041
0.646586 0.442695 0.443488
0.747158 0.474617 0.467994
0.854475 0.499214 0.488716
0.106493 0.453971 0.441016
0.232807 0.458717 0.499535
0.325368 0.466957 0.535439
0.400778 0.486549 0.498863
0.487175 0.505516 0.490898
0.619699 0.519966 0.475425
0.724407 0.541711 0.488548
0.826413 0.565332 0.509773
0.916335 0.585702 0.531991
0.174395 0.572488 0.507561
0.30808 0.579126 0.566766
0.419867 0.586023 0.614466
0.482597 0.599878 0.622248
0.527977 0.621302 0.594507
0.636149 0.638758 0.579232
0.809781 0.642695 0.539117
0.901579 0.663966 0.549477
0.957946 0.688029 0.60174
0.247883 0.687678 0.578912
0.38088 0.693721 0.638285
0.503136 0.702785 0.694377
0.570382 0.712703 0.725567
0.610468 0.730495 0.70634
0.669963 0.748928 0.688426
0.777462 0.766842 0.664988
0.953079 0.766583 0.647532
0.983673 0.791653 0.684581
0.323339 0.798428 0.65304
0.435874 0.803372 0.701305
0.573297 0.812909 0.765682
0.656916 0.822263 0.800366
0.693736 0.835523 0.793133
0.75169 0.849928 0.781262
0.81062 0.86923 0.796811
0.908583 0.885313 0.776242
1 0.895171 0.746365
0.396185 0.89955 0.724392
0.489311 0.903807 0.75967
0.66006 0.908949 0.815778
0.712413 0.917723 0.821241
0.766979 0.928603 0.823697
0.826352 0.942016 0.82504
0.878325 0.961379 0.810452
0.9364 0.97792 0.801617
1 0.986969 0.769009
0 0.0331273 0.172656
0.0271305 0.0462348 0.221622
0.100832 0.0619669 0.310887
0.212192 0.0774701 0.367514
0.331273 0.0983139 0.388235
0.445624 0.122362 0.400275
0.561288 0.146624 0.414588
0.673182 0.174884 0.429572
0.769772 0.198383 0.44567
0 0.0987564 0.328435
0.0337835 0.137407 0.311849
0.087953 0.149264 0.367697
0.199054 0.173999 0.40296
0.346731 0.194583 0.408667
0.468009 0.217487 0.423087
0.58706 0.240833 0.436774
0.701762 0.26569 0.456275
0.799558 0.289174 0.473259
0.00823987 0.217853 0.414816
0.0726024 0.235233 0.391287
0.147036 0.257313 0.389075
0.242618 0.273411 0.434028
0.389517 0.287236 0.450187
0.499748 0.317296 0.450156
0.614069 0.345907 0.453559
0.725063 0.374289 0.477668
0.828443 0.401953 0.502693
0.041413 0.341085 0.461189
0.138628 0.345617 0.487419
0.23505 0.358755 0.491249
0.320607 0.380926 0.479957
0.435065 0.396445 0.500252
0.545007 0.42269 0.479774
0.654566 0.447684 0.487114
0.75555 0.476356 0.512795
0.860212 0.500511 0.5393
0.0932937 0.463554 0.509865
0.222202 0.466621 0.558648
0.326574 0.472816 0.585946
0.401862 0.4934 0.555184
0.485725 0.513039 0.546288
0.597543 0.530434 0.551797
0.686107 0.559182 0.549264
0.790066 0.583062 0.566217
0.903349 0.598138 0.585626
0.153658 0.584298 0.565026
0.287739 0.588739 0.61825
0.385061 0.594156 0.66601
0.475731 0.606226 0.666545
0.558251 0.625666 0.619364
0.64361 0.644114 0.616388
0.769436 0.658412 0.603342
0.863935 0.680201 0.610666
0.95349 0.695476 0.647501
0.222049 0.700755 0.629892
0.345647 0.706035 0.676066
0.484718 0.710445 0.733928
0.563897 0.718425 0.761624
0.630457 0.734798 0.735775
0.68191 0.753918 0.716793
0.783886 0.771115 0.698589
0.922683 0.778973 0.695628
0.983917 0.797299 0.715908
0.296361 0.811902 0.697948
0.418051 0.816098 0.744183
0.569024 0.821012 0.803738
0.656565 0.827527 0.830152
0.71899 0.838087 0.842725
0.77084 0.853498 0.830488
0.821118 0.87155 0.830137
0.907103 0.88896 0.820706
1 0.899245 0.775753
0.369589 0.91284 0.763882
0.482826 0.916884 0.806088
0.662364 0.915892 0.844434
0.711696 0.924041 0.846815
0.771023 0.933715 0.85243
0.831006 0.94583 0.857435
0.886702 0.962554 0.851026
0.941726 0.979843 0.842985
1 0.988937 0.828153
0 0.0379339 0.236667
0.0330968 0.0536355 0.30367
0.109743 0.0651255 0.3935
0.223926 0.0786755 0.450889
0.335714 0.101884 0.47129
0.449409 0.128557 0.480476
0.562966 0.155398 0.494545
0.677226 0.181674 0.510689
0.774502 0.206027 0.524269
0 0.103822 0.411399
0.0435798 0.140581 0.41294
0.101259 0.156985 0.43917
0.206485 0.176074 0.481025
0.338628 0.202869 0.497414
0.469245 0.227649 0.503456
0.588602 0.25098 0.520165
0.705272 0.273381 0.536187
0.805264 0.29662 0.550393
0.0120089 0.223056 0.494591
0.0787823 0.245106 0.462135
0.145937 0.275044 0.438956
0.209216 0.291096 0.500038
0.355749 0.305394 0.535058
0.502449 0.323659 0.537514
0.612772 0.356222 0.543145
0.728435 0.384756 0.547051
0.835142 0.409308 0.567987
0.0432593 0.346883 0.536904
0.126772 0.357702 0.53463
0.218875 0.373861 0.53489
0.299413 0.397147 0.528969
0.405097 0.411261 0.574853
0.549889 0.424857 0.583902
0.65449 0.454688 0.574578
0.762249 0.484077 0.56939
0.866072 0.505882 0.597375
0.0830243 0.471427 0.585229
0.196963 0.475227 0.620325
0.303395 0.482353 0.643107
0.392523 0.500893 0.625254
0.482414 0.520577 0.617365
0.585367 0.538506 0.634546
0.699062 0.561669 0.611795
0.800763 0.587594 0.605997
0.907271 0.602945 0.64184
0.140352 0.593957 0.633951
0.274754 0.597131 0.677775
0.395071 0.599527 0.721431
0.483345 0.611841 0.71426
0.549615 0.63476 0.675959
0.638758 0.65156 0.675456
0.750805 0.666438 0.683406
0.842268 0.691814 0.668818
0.945052 0.706111 0.701213
0.200656 0.712566 0.688502
0.333608 0.715877 0.731258
0.448661 0.719158 0.783871
0.541863 0.72639 0.807019
0.619532 0.742 0.78471
0.710933 0.757992 0.740246
0.792493 0.775662 0.740017
0.901579 0.790372 0.734234
0.982391 0.804089 0.75729
0.270848 0.824674 0.750347
0.384085 0.828473 0.784802
0.544808 0.829435 0.839567
0.641779 0.833875 0.86569
0.721294 0.843015 0.872099
0.783856 0.858412 0.854231
0.835325 0.876097 0.848997
0.913481 0.893614 0.842161
1 0.904158 0.813031
0.342504 0.926085 0.811734
0.439719 0.929397 0.84004
0.637827 0.926635 0.872328
0.702327 0.933227 0.877821
0.769696 0.940734 0.883146
0.836194 0.950851 0.889082
0.896452 0.964797 0.890898
0.948043 0.982116 0.885908
1 0.991501 0.884947
0 0.0425879 0.313024
0.0390936 0.0558022 0.396307
0.12163 0.0668956 0.48191
0.233066 0.081117 0.533623
0.343511 0.103868 0.551568
0.454917 0.131868 0.562051
0.567452 0.161654 0.573938
0.679805 0.190997 0.589624
0.779019 0.213062 0.605631
0 0.108873 0.497673
0.0524605 0.130205 0.518334
0.121965 0.158587 0.520836
0.22002 0.176913 0.560189
0.343252 0.202228 0.581415
0.470893 0.229908 0.588434
0.593286 0.257618 0.600488
0.707195 0.285466 0.616632
0.808438 0.30399 0.631357
0.0159304 0.22826 0.573541
0.0869612 0.247822 0.554406
0.154345 0.293217 0.496025
0.202197 0.309453 0.552972
0.316747 0.326909 0.597925
0.477363 0.343679 0.621927
0.614466 0.365118 0.626062
0.723964 0.399191 0.635294
0.837629 0.421668 0.64773
0.0473335 0.352438 0.613901
0.128374 0.366934 0.599542
0.213794 0.389838 0.581872
0.289647 0.414557 0.577768
0.358923 0.431739 0.635813
0.522164 0.440925 0.666178
0.66006 0.458152 0.669123
0.761913 0.490578 0.66833
0.868421 0.515373 0.667124
0.0812543 0.478126 0.65977
0.176074 0.485451 0.671489
0.281788 0.496895 0.681407
0.375433 0.514168 0.674754
0.457633 0.537179 0.665583
0.569436 0.548852 0.710216
0.703777 0.563638 0.714595
0.801724 0.592584 0.69868
0.909163 0.610742 0.705989
0.126925 0.602441 0.707485
0.245518 0.605737 0.740734
0.368383 0.608759 0.778698
0.467018 0.619821 0.776379
0.54696 0.640223 0.751995
0.641215 0.656992 0.748669
0.729183 0.677012 0.762737
0.845808 0.695811 0.738705
0.944717 0.713252 0.760342
0.188602 0.722225 0.755901
0.322499 0.724651 0.792721
0.457816 0.725078 0.840284
0.555673 0.730785 0.855711
0.632624 0.746563 0.829679
0.694591 0.76878 0.792981
0.784329 0.783276 0.798245
0.887175 0.798718 0.795987
0.975128 0.81384 0.812512
0.249439 0.835828 0.808225
0.372595 0.838666 0.839429
0.535653 0.836439 0.880064
0.630991 0.84036 0.905165
0.742229 0.846677 0.902617
0.784787 0.86421 0.893568
0.849302 0.881559 0.872511
0.918761 0.899184 0.867613
1 0.909575 0.860746
0.31725 0.938537 0.863462
0.423316 0.941543 0.888624
0.617365 0.937118 0.907362
0.680995 0.943862 0.911208
0.751339 0.951415 0.914046
0.829175 0.959335 0.919905
0.902449 0.969268 0.927596
0.957336 0.984161 0.931868
1 0.994812 0.935576
0.000854505 0.0481422 0.402258
0.0438087 0.0582895 0.486427
0.131823 0.0694743 0.569635
0.241337 0.0846723 0.614023
0.352102 0.106279 0.628901
0.460044 0.136675 0.641611
0.572915 0.166094 0.653025
0.684504 0.197162 0.667506
0.782208 0.22295 0.682841
0 0.114031 0.584314
0.0586557 0.125002 0.609384
0.141238 0.157198 0.609247
0.232837 0.17998 0.637263
0.355642 0.201251 0.657801
0.469276 0.235355 0.671107
0.596017 0.259892 0.67953
0.712489 0.289174 0.695262
0.810987 0.313695 0.709392
0.0197299 0.233814 0.650507
0.0936751 0.247669 0.646174
0.166964 0.310933 0.560265
0.210254 0.324361 0.61387
0.309224 0.339452 0.663035
0.43772 0.360876 0.711528
0.596963 0.384604 0.706584
0.726665 0.408347 0.715541
0.83447 0.43949 0.728908
0.0516213 0.357656 0.690059
0.133135 0.371435 0.681773
0.218769 0.405676 0.635462
0.288167 0.432303 0.627482
0.339834 0.453544 0.6757
0.464988 0.465003 0.732357
0.637308 0.475715 0.747478
0.766629 0.49575 0.753643
0.869505 0.523018 0.760449
0.0846571 0.484047 0.734295
0.174502 0.493935 0.734966
0.274403 0.51223 0.720668
0.362493 0.529763 0.720531
0.440833 0.553994 0.713176
0.517418 0.569924 0.768582
0.682383 0.576928 0.79115
0.810132 0.593698 0.795727
0.910994 0.617288 0.797284
0.122621 0.609476 0.780621
0.224155 0.615091 0.796994
0.342824 0.62182 0.81651
0.4421 0.633204 0.821027
0.53109 0.652399 0.8038
0.606561 0.673686 0.802762
0.724849 0.684413 0.831846
0.848493 0.698024 0.83798
0.945708 0.719738 0.834104
0.172519 0.731014 0.825956
0.28867 0.733837 0.852201
0.433799 0.73341 0.895842
0.565759 0.738079 0.89221
0.647379 0.75256 0.872618
0.702693 0.77258 0.864393
0.776974 0.790524 0.866087
0.880583 0.804379 0.875349
0.975113 0.81973 0.874723
0.238331 0.845197 0.873121
0.369772 0.846769 0.9019
0.560037 0.841443 0.923613
0.714733 0.840894 0.924376
0.780438 0.850324 0.917037
0.8159 0.867399 0.916426
0.854109 0.8878 0.913252
0.918532 0.905409 0.912139
1 0.916701 0.917037
0.295674 0.949538 0.920409
0.435065 0.948425 0.934295
0.615717 0.944183 0.944717
0.667857 0.953277 0.948318
0.730816 0.962524 0.952102
0.808728 0.970703 0.956695
0.896452 0.977218 0.961822
0.9682 0.987121 0.969116
1 0.998932 0.977157
0.00192264 0.0529183 0.487526
0.0471351 0.0611582 0.56733
0.139361 0.0720684 0.646082
0.248402 0.088014 0.682536
0.358541 0.110323 0.696132
0.468666 0.137453 0.709133
0.579034 0.169314 0.72221
0.689189 0.203326 0.735683
0.787427 0.228626 0.751629
0 0.118563 0.658991
0.0631266 0.129793 0.680735
0.152285 0.157427 0.686778
0.24686 0.180255 0.708659
0.365881 0.204059 0.725032
0.47866 0.234409 0.739254
0.59617 0.266041 0.751369
0.715618 0.293645 0.763729
0.815183 0.319387 0.77882
0.0235599 0.238773 0.717815
0.0984817 0.248493 0.721309
0.18201 0.321004 0.644892
0.224887 0.327474 0.691127
0.317281 0.346334 0.725185
0.443214 0.364782 0.778042
0.576364 0.39588 0.794247
0.72282 0.419379 0.794079
0.840406 0.444709 0.807141
0.0556497 0.362921 0.757366
0.137743 0.374731 0.756359
0.227466 0.418158 0.70312
0.291722 0.450248 0.682857
0.33669 0.469764 0.730236
0.445167 0.48159 0.782696
0.595071 0.494759 0.829969
0.751827 0.511574 0.829114
0.876326 0.526513 0.841703
0.0887312 0.489479 0.801953
0.177142 0.50013 0.800626
0.275837 0.525017 0.774884
0.344366 0.543648 0.77998
0.407889 0.56202 0.80502
0.506783 0.581231 0.827695
0.638575 0.596277 0.859434
0.789685 0.608454 0.868437
0.914961 0.622675 0.879103
0.123613 0.615579 0.846464
0.219409 0.622614 0.855116
0.330007 0.634852 0.857588
0.388266 0.648508 0.869307
0.479866 0.664424 0.878798
0.58146 0.683116 0.881331
0.685496 0.701167 0.89453
0.823499 0.712489 0.905486
0.948928 0.723262 0.914427
0.167758 0.738262 0.893538
0.273503 0.741741 0.911315
0.462165 0.742565 0.920073
0.543389 0.752529 0.917189
0.604227 0.767178 0.921355
0.672038 0.783993 0.927306
0.75259 0.801495 0.932265
0.867704 0.813062 0.941299
0.978927 0.822904 0.948974
0.219974 0.853925 0.935897
0.345693 0.855482 0.950912
0.612192 0.847364 0.948638
0.662516 0.855909 0.953033
0.716304 0.867292 0.958572
0.77615 0.880781 0.96437
0.838712 0.8963 0.969863
0.910506 0.912139 0.974136
1 0.921126 0.981186
0.304326 0.95729 0.977646
0.499519 0.949325 0.976013
0.622553 0.950545 0.976913
0.671763 0.959838 0.98114
0.740581 0.967803 0.985
0.809247 0.976944 0.988983
0.887282 0.984466 0.990188
0.966018 0.992645 0.993881
1 1 1
