code/data/lut/35浓郁蓝调1.cube
TITLE "LD - Tonal Blue 1"
# Copyright (c) 2019 Lens Distortions, LLC. All Rights Reserved.
# LensDistortions.com
# ref-TB7
LUT_3D_SIZE 5
0.000762951 0.0209812 0.0376898
0.12166 0.0509041 0.0779889
0.367727 0.0750439 0.0973526
0.59617 0.108629 0.10721
0.798764 0.141878 0.119356
0.0427253 0.207675 0.13991
0.197787 0.230274 0.150484
0.444068 0.252735 0.138964
0.677821 0.284733 0.147173
0.87599 0.309377 0.155505
0.135271 0.426474 0.246479
0.294728 0.447669 0.272801
0.465797 0.485161 0.223514
0.721202 0.50396 0.229923
0.93315 0.518425 0.22533
0.223301 0.651072 0.362387
0.388479 0.670817 0.390036
0.537057 0.709895 0.360281
0.738903 0.738933 0.308461
0.969329 0.756268 0.313924
0.308797 0.87126 0.472114
0.474571 0.890837 0.498909
0.632151 0.922988 0.499352
0.789197 0.9626 0.412177
0.992813 0.975097 0.408545
0.00624094 0.032105 0.108232
0.1355 0.0587472 0.189105
0.370062 0.0798657 0.237201
0.590433 0.114717 0.252079
0.795926 0.150851 0.267628
0.0205844 0.22237 0.263188
0.19968 0.238041 0.273396
0.409049 0.270481 0.288792
0.620737 0.316503 0.319051
0.848066 0.353475 0.338689
0.105196 0.446433 0.345022
0.321752 0.455406 0.460502
0.471092 0.487037 0.415091
0.745846 0.499199 0.37641
0.933257 0.527459 0.405692
0.201129 0.668772 0.45211
0.458824 0.681437 0.584054
0.560494 0.706218 0.578653
0.749813 0.737835 0.544747
0.97435 0.753002 0.571969
0.29192 0.887266 0.560693
0.555154 0.903487 0.671626
0.68278 0.922271 0.681224
0.816419 0.957397 0.637263
0.993713 0.97673 0.579705
0.00979629 0.0423133 0.229374
0.152575 0.0631876 0.352834
0.378637 0.0862135 0.41059
0.597131 0.122377 0.426123
0.803738 0.158541 0.442847
0.0202487 0.230426 0.429068
0.169085 0.264088 0.392111
0.411887 0.280079 0.449027
0.630198 0.322103 0.453605
0.852262 0.357244 0.484215
0.0769055 0.463813 0.492241
0.312749 0.466011 0.560647
0.477791 0.496498 0.520272
0.677211 0.531624 0.517342
0.913268 0.551614 0.545541
0.160662 0.69131 0.572702
0.42591 0.697429 0.668467
0.592447 0.711513 0.698405
0.7514 0.744839 0.645029
0.976318 0.761334 0.652583
0.25597 0.909499 0.666758
0.551034 0.916259 0.745418
0.691264 0.930282 0.760037
0.833204 0.957885 0.75816
0.995529 0.980591 0.737896
0.0117647 0.0511635 0.388602
0.165637 0.0681315 0.533471
0.385824 0.0929732 0.582773
0.60354 0.129778 0.599496
0.811688 0.166827 0.617685
0.0265812 0.237858 0.60061
0.175875 0.293645 0.517067
0.366705 0.30605 0.633631
0.627588 0.339055 0.630121
0.857969 0.372976 0.649973
0.073228 0.473732 0.663157
0.270054 0.487083 0.671855
0.447318 0.518425 0.65391
0.696071 0.53196 0.69926
0.914824 0.562509 0.698634
0.133501 0.708324 0.727535
0.39498 0.710994 0.794629
0.590967 0.722759 0.805325
0.75523 0.754498 0.766171
0.969787 0.776043 0.775952
0.214527 0.93196 0.80206
0.483635 0.938781 0.843992
0.658717 0.949813 0.853086
0.850767 0.962493 0.875532
0.998901 0.987015 0.890074
0.014023 0.0595102 0.574548
0.176211 0.0728008 0.708583
0.393042 0.100175 0.743648
0.610498 0.136721 0.761501
0.819608 0.174441 0.782498
0.0326543 0.244938 0.761975
0.202548 0.310552 0.69752
0.365332 0.315602 0.797284
0.605951 0.360647 0.815534
0.856718 0.393866 0.823285
0.0785077 0.481239 0.827558
0.265934 0.508797 0.792584
0.399374 0.537942 0.826596
0.651102 0.557244 0.870634
0.917205 0.573541 0.883497
0.124392 0.719631 0.895949
0.392889 0.724819 0.912062
0.545708 0.744381 0.921965
0.727428 0.769543 0.933608
0.973587 0.782818 0.947021
0.188006 0.948394 0.956222
0.465187 0.952773 0.965682
0.618692 0.968841 0.97525
0.825422 0.980453 0.982116
1 0.997024 0.996765
