code/data/lut/35浓郁蓝调3.cube
TITLE "LD - Tonal Blue 3"
# Copyright (c) 2019 Lens Distortions, LLC. All Rights Reserved.
# LensDistortions.com
# ref-TB7
LUT_3D_SIZE 33
0 0.013077 0.0320287
0 0.0154116 0.0352941
0 0.0179904 0.0386053
0.00549325 0.0211337 0.043122
0.0135653 0.0240787 0.0471046
0.0237888 0.0273899 0.0518959
0.0373999 0.031632 0.0576791
0.0550088 0.0366979 0.0643778
0.0771038 0.0426795 0.0724041
0.102754 0.0484474 0.0800946
0.130373 0.0537423 0.0869306
0.158404 0.05832 0.0924086
0.18822 0.062623 0.0970016
0.219715 0.0668345 0.100908
0.251621 0.0708171 0.104082
0.284566 0.0750896 0.106935
0.317678 0.0795453 0.109575
0.349996 0.084535 0.111635
0.38143 0.0893416 0.113603
0.411978 0.0949721 0.115999
0.441886 0.100832 0.118059
0.471275 0.107042 0.120684
0.500343 0.113176 0.123278
0.52958 0.120134 0.126421
0.558587 0.127077 0.129564
0.586618 0.134188 0.132494
0.615869 0.1411 0.135622
0.645228 0.147982 0.138369
0.673625 0.154681 0.141131
0.702251 0.161913 0.144305
0.727306 0.168185 0.146838
0.7476 0.172107 0.148943
0.765423 0.174884 0.150408
0 0.0223087 0.0420539
0 0.0236362 0.0439155
0.00209049 0.0257572 0.0464637
0.00987259 0.028275 0.0502937
0.0196689 0.0317693 0.054902
0.0326085 0.036759 0.0614023
0.0509651 0.042649 0.0694133
0.072343 0.0489052 0.0773022
0.0960708 0.0548409 0.0838178
0.121004 0.0600443 0.0892348
0.147662 0.0647288 0.0943008
0.175769 0.0691081 0.0984665
0.205081 0.0736095 0.102174
0.235904 0.0782483 0.105333
0.26688 0.0831006 0.108186
0.298955 0.0880598 0.11078
0.330816 0.0930343 0.112932
0.362249 0.0985428 0.115358
0.392721 0.104234 0.1178
0.422675 0.110552 0.120378
0.451789 0.11696 0.123033
0.481178 0.123873 0.126284
0.510689 0.13109 0.129625
0.540368 0.137728 0.132464
0.570001 0.144503 0.135424
0.598871 0.151446 0.137865
0.628061 0.158373 0.140673
0.656962 0.165881 0.14406
0.685756 0.173404 0.147143
0.714076 0.180865 0.150286
0.738598 0.186786 0.152804
0.758495 0.190295 0.154559
0.776608 0.193256 0.156069
0 0.0316167 0.0509041
0 0.0332036 0.053254
0.00485237 0.0360723 0.0568551
0.0157321 0.0403601 0.0622416
0.0289311 0.045655 0.0687419
0.0461433 0.0519417 0.0759594
0.0657969 0.0576638 0.0822003
0.0871748 0.0631723 0.087068
0.110124 0.0681926 0.0914931
0.13576 0.0730602 0.0959945
0.163455 0.0777142 0.100237
0.192248 0.0824598 0.1037
0.221912 0.0876631 0.107149
0.25275 0.0925307 0.109834
0.284474 0.0977951 0.112413
0.315862 0.103243 0.11519
0.346426 0.109361 0.117906
0.37586 0.115328 0.120272
0.405463 0.121965 0.123384
0.435248 0.128817 0.126528
0.464851 0.13521 0.128985
0.494697 0.142046 0.131991
0.524773 0.149035 0.135042
0.554314 0.155932 0.137728
0.583383 0.162875 0.140734
0.612696 0.170214 0.143771
0.641566 0.177676 0.146578
0.670512 0.185107 0.149767
0.698985 0.192599 0.153048
0.727565 0.200137 0.155962
0.751003 0.205524 0.158267
0.770214 0.208865 0.160113
0.788388 0.211963 0.161852
0 0.0480201 0.0658732
0.00408942 0.0517281 0.0721447
0.0101625 0.0560922 0.0768902
0.0208896 0.0603189 0.0805676
0.0369573 0.065156 0.0843214
0.0551461 0.0699779 0.0885634
0.076463 0.0746777 0.0926833
0.0993057 0.0797742 0.0965438
0.124041 0.0846265 0.0996262
0.152392 0.0891585 0.103197
0.18175 0.0939498 0.106783
0.211414 0.0990463 0.109911
0.241566 0.104433 0.112871
0.271778 0.109895 0.115541
0.301579 0.115801 0.118425
0.331456 0.122347 0.121508
0.361227 0.128862 0.124544
0.39089 0.135073 0.126833
0.420752 0.141527 0.129809
0.450889 0.148211 0.132845
0.480278 0.154681 0.135561
0.510262 0.1617 0.138293
0.539864 0.169055 0.141085
0.569253 0.175937 0.143801
0.59826 0.183017 0.146502
0.627588 0.190433 0.149737
0.656367 0.197711 0.152819
0.684962 0.205142 0.155642
0.71342 0.212741 0.158801
0.742168 0.220356 0.162051
0.764538 0.225116 0.164126
0.783139 0.228168 0.165637
0.80119 0.231281 0.167376
0.00296025 0.0733501 0.0884413
0.00959792 0.0756542 0.0952316
0.0164645 0.0794995 0.0977493
0.027451 0.082887 0.100145
0.0425269 0.0867933 0.102968
0.0660258 0.0904402 0.10309
0.0875257 0.0952621 0.104753
0.112947 0.0999466 0.106676
0.140215 0.10457 0.109117
0.168612 0.109514 0.111437
0.198306 0.114427 0.114397
0.228748 0.119585 0.117418
0.258274 0.125261 0.119799
0.287968 0.131487 0.122866
0.317494 0.137743 0.126101
0.347143 0.144152 0.128908
0.376913 0.150378 0.131823
0.407019 0.156771 0.134997
0.43679 0.163287 0.137911
0.466453 0.169711 0.140536
0.496223 0.17673 0.143282
0.526131 0.183566 0.145754
0.555123 0.190036 0.148272
0.584619 0.197162 0.151064
0.613916 0.204456 0.153674
0.64268 0.211505 0.156222
0.671733 0.218814 0.159243
0.70042 0.226047 0.162081
0.729061 0.233433 0.164858
0.757427 0.241108 0.168048
0.778317 0.245197 0.169879
0.796399 0.248066 0.171237
0.814679 0.251072 0.173144
0.00639353 0.100587 0.108888
0.0144961 0.102937 0.116075
0.0228275 0.105684 0.118044
0.0366217 0.108186 0.120485
0.0512093 0.112367 0.122744
0.0712749 0.116457 0.124178
0.099794 0.120485 0.11957
0.1243 0.125856 0.118959
0.153765 0.130312 0.119417
0.183246 0.134966 0.121111
0.213352 0.139055 0.123339
0.243412 0.144121 0.125933
0.272862 0.149996 0.128588
0.302586 0.156024 0.131685
0.331914 0.161837 0.134737
0.362127 0.168078 0.137453
0.392248 0.173861 0.140414
0.422187 0.179965 0.143389
0.452186 0.186328 0.146029
0.481956 0.193072 0.148943
0.511803 0.199786 0.151873
0.540948 0.206104 0.154314
0.570672 0.212863 0.157198
0.599878 0.219867 0.159808
0.629145 0.226596 0.16199
0.658259 0.233783 0.164828
0.68751 0.240879 0.16762
0.715908 0.248051 0.170001
0.744579 0.255283 0.172274
0.772702 0.262654 0.174975
0.792386 0.266178 0.17673
0.810361 0.268925 0.178134
0.828 0.272023 0.179919
0.0116426 0.129931 0.127291
0.0196078 0.132357 0.13434
0.0290532 0.134539 0.136522
0.0452888 0.13666 0.139284
0.0634165 0.139803 0.143084
0.0818341 0.144717 0.143954
0.10454 0.149386 0.145205
0.132723 0.154559 0.134798
0.160647 0.159518 0.13257
0.194232 0.162753 0.132204
0.225666 0.166827 0.134173
0.256245 0.171191 0.136309
0.286229 0.176074 0.138277
0.315892 0.181521 0.141085
0.345769 0.187091 0.143969
0.375814 0.193057 0.146609
0.406088 0.198749 0.149477
0.436179 0.204898 0.15256
0.466392 0.211139 0.155184
0.496223 0.217105 0.157992
0.526055 0.223407 0.160754
0.555825 0.230076 0.163684
0.585672 0.23682 0.166445
0.614923 0.24329 0.168933
0.644404 0.250019 0.171389
0.673838 0.257023 0.174273
0.702464 0.263935 0.176547
0.731136 0.27126 0.179202
0.759899 0.278462 0.181521
0.787533 0.285451 0.184024
0.806027 0.288563 0.185595
0.82385 0.291417 0.187106
0.841306 0.293996 0.188647
0.0195163 0.159716 0.14461
0.0284276 0.161883 0.151705
0.0402686 0.163378 0.154269
0.0586557 0.165072 0.158526
0.0779126 0.168338 0.161318
0.0975662 0.172595 0.164126
0.116274 0.177798 0.164446
0.136721 0.18378 0.162402
0.165698 0.189014 0.151003
0.197147 0.193256 0.147601
0.232959 0.196323 0.146105
0.265751 0.199863 0.147707
0.297917 0.203967 0.149996
0.328481 0.208347 0.151949
0.358526 0.213672 0.154162
0.388327 0.219196 0.156634
0.418616 0.224903 0.159533
0.44918 0.23064 0.162188
0.479042 0.236393 0.164675
0.509896 0.242344 0.167727
0.540124 0.248432 0.170596
0.569711 0.254444 0.172686
0.599695 0.261097 0.175601
0.629511 0.267735 0.178286
0.659007 0.27451 0.180682
0.688151 0.281147 0.183047
0.71722 0.288136 0.185809
0.746227 0.295262 0.188556
0.77438 0.302159 0.190951
0.801251 0.308888 0.193439
0.81915 0.311589 0.195087
0.837217 0.314534 0.196674
0.854551 0.317296 0.198184
0.0318914 0.188327 0.162707
0.0413977 0.190311 0.168444
0.0545663 0.191867 0.171847
0.0734264 0.193545 0.17702
0.0942702 0.196429 0.180117
0.115099 0.200687 0.181674
0.133806 0.205615 0.18352
0.150118 0.211841 0.183703
0.168612 0.218952 0.176715
0.19852 0.223758 0.167285
0.23328 0.227222 0.163622
0.271763 0.229694 0.160754
0.305867 0.233143 0.161822
0.338766 0.237034 0.164279
0.370336 0.241276 0.166445
0.400748 0.246433 0.168429
0.430838 0.251759 0.170397
0.461219 0.257115 0.172747
0.491798 0.262699 0.175204
0.522103 0.268208 0.177844
0.552682 0.274113 0.180255
0.582788 0.2804 0.182727
0.613214 0.286748 0.185351
0.642695 0.292882 0.187533
0.672465 0.299504 0.190204
0.7019 0.30634 0.192798
0.730755 0.31281 0.195285
0.75993 0.319738 0.197787
0.788159 0.326665 0.200336
0.814435 0.332952 0.202914
0.832532 0.335561 0.204288
0.850202 0.338125 0.205951
0.867582 0.340978 0.207706
0.0466468 0.216617 0.179553
0.0567788 0.218509 0.184771
0.0716564 0.220066 0.190494
0.0911116 0.221744 0.19556
0.111498 0.224613 0.198825
0.131899 0.228733 0.200778
0.150561 0.233967 0.20206
0.16788 0.239719 0.201892
0.182239 0.246906 0.199542
0.202106 0.254002 0.190127
0.233173 0.25803 0.183261
0.271077 0.260838 0.180163
0.31107 0.26331 0.175906
0.345434 0.266819 0.176837
0.378714 0.270558 0.179202
0.4112 0.274601 0.181964
0.442618 0.279225 0.183459
0.473136 0.284459 0.185107
0.5037 0.289906 0.187015
0.534081 0.295506 0.189029
0.564538 0.300908 0.191165
0.594705 0.306752 0.193133
0.625315 0.312749 0.195514
0.655726 0.318959 0.198138
0.685252 0.325231 0.200488
0.714427 0.331685 0.202823
0.743847 0.338277 0.205402
0.772869 0.345144 0.207874
0.801236 0.351797 0.210101
0.826719 0.357549 0.212497
0.844831 0.360113 0.213901
0.862791 0.362692 0.215503
0.879957 0.365332 0.217212
0.0624857 0.244572 0.196338
0.0740215 0.246372 0.202274
0.0900893 0.248157 0.208484
0.109071 0.249836 0.214466
0.128664 0.253162 0.217426
0.149248 0.257206 0.218769
0.168551 0.262181 0.220249
0.184558 0.268132 0.221256
0.198596 0.27512 0.218051
0.213489 0.282719 0.212543
0.237659 0.288502 0.204211
0.270237 0.292287 0.200229
0.309346 0.294697 0.19707
0.350362 0.296986 0.19173
0.385641 0.300374 0.192187
0.418814 0.304295 0.194705
0.451957 0.308125 0.197635
0.484169 0.312612 0.199847
0.51487 0.317296 0.200855
0.545495 0.322744 0.201999
0.576333 0.328283 0.203708
0.606928 0.333959 0.205524
0.636851 0.339284 0.207065
0.667109 0.34519 0.209415
0.697093 0.351431 0.211627
0.726558 0.358007 0.213886
0.755657 0.36437 0.215824
0.784848 0.371023 0.218433
0.813077 0.377829 0.220874
0.8383 0.38323 0.223133
0.85658 0.385763 0.22446
0.874266 0.388174 0.225574
0.891936 0.390875 0.227283
0.0800793 0.272786 0.215122
0.0913252 0.274739 0.220005
0.108385 0.27628 0.226658
0.126574 0.278477 0.23238
0.14638 0.281621 0.2374
0.166461 0.285817 0.238666
0.184695 0.290852 0.240085
0.202243 0.296574 0.24065
0.216876 0.303456 0.239216
0.229801 0.311147 0.233799
0.247547 0.318318 0.227649
0.275227 0.323171 0.222553
0.310353 0.326177 0.219287
0.349584 0.328588 0.214542
0.39028 0.330907 0.208377
0.426078 0.334066 0.208011
0.4589 0.338094 0.210086
0.492378 0.341909 0.213153
0.525078 0.346059 0.216007
0.55671 0.350439 0.217319
0.587213 0.355871 0.218006
0.617777 0.361349 0.219348
0.648051 0.366995 0.220844
0.678096 0.372717 0.22208
0.707866 0.378531 0.223789
0.737331 0.384665 0.225574
0.766735 0.390982 0.227832
0.795377 0.397177 0.229892
0.824063 0.403906 0.232151
0.84889 0.40911 0.234012
0.867674 0.411704 0.235111
0.885817 0.414374 0.236576
0.902525 0.416251 0.237812
0.0964675 0.301595 0.233219
0.108278 0.303578 0.238727
0.125704 0.304982 0.245701
0.144533 0.307042 0.253178
0.163912 0.310613 0.256336
0.183444 0.314611 0.259068
0.203204 0.319341 0.260777
0.219684 0.325185 0.262028
0.235309 0.331945 0.261982
0.248569 0.339345 0.257939
0.262943 0.346746 0.250324
0.28394 0.353094 0.24538
0.313436 0.357244 0.242115
0.349432 0.360494 0.238041
0.388922 0.362936 0.231281
0.430152 0.365118 0.224735
0.466651 0.368109 0.223651
0.49929 0.372122 0.225513
0.53225 0.376135 0.228611
0.565148 0.380102 0.2318
0.597436 0.384131 0.233967
0.628397 0.389166 0.234699
0.658625 0.394644 0.235676
0.688685 0.40029 0.236622
0.718563 0.406119 0.238178
0.747921 0.41181 0.239384
0.777249 0.417762 0.240803
0.805982 0.424002 0.242512
0.834607 0.43061 0.244556
0.859251 0.435691 0.24622
0.878691 0.438529 0.247196
0.896178 0.440528 0.248264
0.912413 0.442634 0.249592
0.114107 0.33051 0.253223
0.126131 0.33254 0.258824
0.143786 0.333989 0.265141
0.161517 0.3364 0.271687
0.180835 0.339529 0.278187
0.200855 0.343832 0.280613
0.219608 0.348745 0.282277
0.237812 0.354055 0.283391
0.253437 0.360403 0.283207
0.267536 0.367407 0.281117
0.281041 0.375051 0.274952
0.297047 0.382391 0.266575
0.320607 0.387945 0.263645
0.351293 0.391989 0.261326
0.387625 0.395026 0.255192
0.427634 0.39733 0.247211
0.469825 0.399359 0.240955
0.507149 0.402182 0.239322
0.539757 0.406348 0.241047
0.572427 0.410346 0.243732
0.605234 0.414328 0.247242
0.638041 0.418204 0.250172
0.6692 0.42269 0.251591
0.698985 0.428138 0.252232
0.728847 0.433524 0.253117
0.75848 0.439292 0.25417
0.787167 0.445151 0.255085
0.816068 0.45124 0.256519
0.844541 0.457527 0.258152
0.868986 0.462379 0.259236
0.888655 0.465415 0.259983
0.906218 0.467521 0.261097
0.921477 0.469306 0.261707
0.131655 0.359716 0.272755
0.142367 0.361898 0.278309
0.160174 0.363195 0.284886
0.178622 0.365545 0.292287
0.198306 0.368963 0.297826
0.218021 0.373144 0.301885
0.23798 0.377844 0.303609
0.255116 0.383093 0.304585
0.271489 0.389029 0.305028
0.285969 0.39588 0.303487
0.298909 0.403357 0.299077
0.314488 0.410742 0.2907
0.33402 0.417182 0.282979
0.35845 0.422446 0.28217
0.38883 0.426444 0.279042
0.425635 0.429603 0.271687
0.466621 0.431754 0.262928
0.509819 0.43328 0.256626
0.547402 0.435996 0.255024
0.580163 0.440146 0.256352
0.61236 0.44448 0.258747
0.644709 0.448676 0.262272
0.67718 0.452766 0.265705
0.709209 0.456535 0.268177
0.738933 0.461814 0.269001
0.768277 0.467109 0.269551
0.797223 0.472847 0.27039
0.825605 0.478737 0.271229
0.853971 0.484489 0.272374
0.878721 0.489387 0.273075
0.898863 0.492576 0.273869
0.915801 0.494591 0.274372
0.929366 0.495857 0.274464
0.148363 0.38912 0.292256
0.159899 0.391012 0.297932
0.178027 0.392416 0.304768
0.196353 0.39501 0.311833
0.215778 0.398428 0.319097
0.235737 0.402594 0.322972
0.254704 0.407126 0.32462
0.272877 0.412146 0.325704
0.289311 0.418051 0.325841
0.304372 0.424582 0.325017
0.318227 0.431632 0.321645
0.331624 0.439048 0.314046
0.348669 0.446021 0.305318
0.371069 0.451911 0.300313
0.396094 0.45687 0.300618
0.426642 0.461051 0.295949
0.464408 0.463966 0.287648
0.506127 0.465934 0.278889
0.549218 0.467308 0.272663
0.587259 0.469856 0.270695
0.619867 0.47393 0.27187
0.651896 0.478248 0.273823
0.683833 0.482689 0.27718
0.71577 0.487007 0.281041
0.748074 0.490806 0.284535
0.778424 0.495613 0.286
0.80737 0.500725 0.286427
0.835874 0.506203 0.286748
0.863844 0.512016 0.287587
0.888853 0.517082 0.287922
0.908568 0.520012 0.287999
0.924926 0.521798 0.287892
0.937072 0.522866 0.287907
0.166171 0.418326 0.312673
0.176776 0.420325 0.317418
0.194659 0.421775 0.323934
0.213458 0.424521 0.331853
0.233585 0.427878 0.33875
0.252964 0.431846 0.34374
0.272725 0.436332 0.345541
0.290944 0.441291 0.346807
0.307454 0.446937 0.348028
0.322621 0.453056 0.347097
0.336187 0.459983 0.344137
0.349935 0.467308 0.338643
0.365377 0.474617 0.328618
0.385473 0.480934 0.32195
0.408804 0.486503 0.318929
0.433845 0.491234 0.318822
0.46421 0.495613 0.314031
0.503456 0.498329 0.304234
0.545998 0.500084 0.295079
0.588907 0.501228 0.288579
0.626856 0.503578 0.285939
0.659495 0.507576 0.287068
0.690898 0.512001 0.289097
0.722286 0.516518 0.291966
0.753506 0.521004 0.295766
0.785245 0.524849 0.299641
0.816541 0.529244 0.302556
0.845502 0.534401 0.303288
0.873304 0.540063 0.303563
0.899092 0.545113 0.3037
0.917662 0.547524 0.302937
0.933883 0.549432 0.302861
0.944366 0.550134 0.302205
0.182666 0.447944 0.331991
0.194293 0.449699 0.337285
0.212192 0.451255 0.344121
0.231083 0.453941 0.351919
0.250965 0.457435 0.359136
0.270741 0.461295 0.364279
0.289998 0.465599 0.36669
0.308248 0.470497 0.368277
0.325307 0.47567 0.368963
0.341192 0.481788 0.369024
0.355474 0.48838 0.366796
0.36875 0.495613 0.361578
0.383459 0.502937 0.353918
0.400275 0.509743 0.344152
0.422278 0.515618 0.339849
0.445899 0.521004 0.338079
0.471748 0.525795 0.337057
0.502403 0.530236 0.331777
0.542519 0.532647 0.320943
0.585931 0.53402 0.311452
0.628702 0.534936 0.304356
0.666178 0.537377 0.301457
0.698436 0.541283 0.302419
0.729473 0.545541 0.304204
0.76051 0.549981 0.307027
0.791089 0.554665 0.310307
0.821805 0.558801 0.314443
0.853132 0.562951 0.318532
0.882597 0.567605 0.320119
0.908766 0.572656 0.320073
0.927199 0.574807 0.31928
0.942382 0.57644 0.318441
0.951782 0.577142 0.317388
0.2 0.477409 0.352132
0.211643 0.478981 0.357549
0.229221 0.480781 0.364141
0.248402 0.483711 0.372305
0.268513 0.486992 0.380102
0.288151 0.490745 0.384787
0.307286 0.49485 0.387625
0.326604 0.499321 0.38941
0.343297 0.504585 0.390982
0.359075 0.510399 0.391272
0.373907 0.516869 0.389792
0.38761 0.523873 0.386023
0.401266 0.531151 0.378943
0.4177 0.538216 0.370138
0.436973 0.544732 0.361883
0.459312 0.550301 0.358434
0.482841 0.555398 0.357534
0.509087 0.560021 0.35552
0.540291 0.564248 0.349203
0.581125 0.566659 0.337392
0.625147 0.567727 0.327718
0.668299 0.568536 0.319966
0.705333 0.570932 0.31693
0.737346 0.574762 0.317769
0.767742 0.579034 0.319295
0.79794 0.583444 0.321813
0.827817 0.588129 0.325048
0.857877 0.592538 0.328939
0.888304 0.596704 0.333272
0.917372 0.6009 0.336355
0.936019 0.602838 0.336568
0.950683 0.603876 0.335195
0.958373 0.604608 0.334356
0.217197 0.506554 0.372381
0.229313 0.508537 0.377462
0.247013 0.510307 0.384237
0.265965 0.513298 0.392493
0.285786 0.516579 0.400183
0.305409 0.520027 0.40621
0.324865 0.524132 0.409247
0.343282 0.52871 0.41091
0.361563 0.533501 0.412299
0.377523 0.539055 0.412955
0.392645 0.545266 0.412207
0.406653 0.551995 0.409308
0.420478 0.559213 0.403418
0.435004 0.566567 0.39472
0.452399 0.573312 0.385992
0.473304 0.579095 0.379522
0.495567 0.584466 0.377157
0.519402 0.589395 0.37641
0.546395 0.594018 0.373556
0.578775 0.598001 0.365835
0.619699 0.600214 0.353323
0.664302 0.600992 0.343679
0.706981 0.601724 0.335424
0.74374 0.604181 0.332326
0.775448 0.608026 0.33312
0.805554 0.612467 0.334569
0.835264 0.616968 0.337026
0.864317 0.621515 0.339864
0.893385 0.626093 0.343877
0.92166 0.629984 0.347738
0.942962 0.631357 0.351766
0.958282 0.631693 0.35285
0.963531 0.633066 0.355322
0.233799 0.536126 0.391943
0.247105 0.537957 0.398001
0.26421 0.539818 0.404395
0.28336 0.542672 0.412436
0.30309 0.54583 0.421317
0.322911 0.549371 0.426673
0.342107 0.553323 0.430457
0.361654 0.557565 0.432273
0.378912 0.562478 0.433875
0.395666 0.567651 0.434974
0.411017 0.57377 0.43476
0.425483 0.580316 0.432609
0.439185 0.58735 0.428
0.453162 0.594491 0.420508
0.468956 0.601221 0.410636
0.487907 0.607569 0.40264
0.509621 0.613169 0.397803
0.531548 0.618479 0.396002
0.555261 0.623377 0.395605
0.582864 0.627802 0.391165
0.616663 0.631403 0.382208
0.657984 0.633463 0.369482
0.702983 0.634028 0.359655
0.745251 0.634897 0.351217
0.781598 0.637217 0.347463
0.812787 0.640864 0.348013
0.842283 0.64538 0.349828
0.871427 0.649897 0.35198
0.900191 0.654505 0.354543
0.926711 0.658564 0.358022
0.948516 0.661723 0.364462
0.962585 0.662699 0.37293
0.967422 0.662623 0.380072
0.252003 0.565438 0.412894
0.264637 0.567376 0.41825
0.281819 0.569116 0.424292
0.300771 0.571817 0.43238
0.320653 0.575189 0.440818
0.340108 0.578485 0.448615
0.359518 0.582406 0.451545
0.378302 0.586587 0.453742
0.397009 0.591134 0.455238
0.413642 0.596353 0.456138
0.429557 0.602167 0.456901
0.44445 0.608499 0.455344
0.458213 0.614954 0.451728
0.471641 0.621988 0.444862
0.486351 0.629038 0.435737
0.503319 0.63563 0.426368
0.523552 0.64155 0.419638
0.545205 0.646876 0.415961
0.567315 0.65211 0.414755
0.590814 0.657008 0.414252
0.619562 0.661418 0.408347
0.654536 0.664607 0.398291
0.696513 0.66627 0.385397
0.740902 0.666819 0.376013
0.782712 0.667704 0.366949
0.818875 0.669978 0.362371
0.84947 0.673548 0.362966
0.878325 0.677943 0.364569
0.906371 0.682216 0.366354
0.931502 0.686275 0.370184
0.95256 0.691752 0.38323
0.965393 0.694148 0.395117
0.97142 0.694453 0.402762
0.26833 0.594827 0.432227
0.281941 0.596613 0.43798
0.299184 0.598352 0.444892
0.318257 0.601007 0.452384
0.337896 0.604227 0.461509
0.35758 0.607614 0.468193
0.376745 0.6112 0.473167
0.396338 0.615335 0.474922
0.414481 0.619898 0.476722
0.431769 0.624933 0.478431
0.447593 0.630518 0.478706
0.462501 0.636454 0.478004
0.476738 0.642725 0.474754
0.490288 0.64947 0.469673
0.504219 0.656413 0.461433
0.519646 0.663233 0.451118
0.538262 0.669383 0.442695
0.559289 0.675044 0.437156
0.58088 0.680461 0.434592
0.602808 0.685679 0.433478
0.626154 0.690562 0.432609
0.655802 0.694759 0.425025
0.692164 0.697536 0.414237
0.734173 0.698985 0.401846
0.77789 0.699504 0.392035
0.819791 0.700236 0.382147
0.855802 0.702205 0.376883
0.885252 0.70576 0.377691
0.912505 0.709743 0.379202
0.935149 0.714397 0.387655
0.953872 0.720348 0.404746
0.968002 0.724361 0.419043
0.97557 0.725567 0.427024
0.286046 0.62388 0.452873
0.299702 0.625635 0.458503
0.31667 0.627436 0.464408
0.335714 0.630014 0.472221
0.35552 0.633036 0.48069
0.374823 0.636332 0.489128
0.39411 0.639994 0.493812
0.413306 0.644007 0.496391
0.43209 0.648524 0.498207
0.449577 0.653239 0.499352
0.465736 0.658366 0.500252
0.480964 0.664256 0.49984
0.495155 0.670298 0.49752
0.508934 0.676753 0.493065
0.522576 0.683436 0.48574
0.53695 0.690333 0.47631
0.553292 0.696986 0.466194
0.573388 0.702998 0.459464
0.594705 0.708553 0.455085
0.616159 0.713726 0.453025
0.637934 0.718685 0.45185
0.661036 0.723598 0.45034
0.691814 0.72755 0.440986
0.729122 0.729961 0.429725
0.771405 0.73106 0.417762
0.814206 0.731563 0.407691
0.855619 0.732219 0.397299
0.891844 0.734005 0.391028
0.91809 0.737621 0.394568
0.937484 0.742947 0.411612
0.955489 0.748867 0.429175
0.970657 0.753811 0.443061
0.979797 0.755764 0.450568
0.303349 0.652918 0.472724
0.316747 0.654505 0.47808
0.333928 0.656229 0.48452
0.353155 0.658656 0.492088
0.372671 0.661707 0.500725
0.39234 0.665019 0.508705
0.41146 0.668528 0.514534
0.431037 0.672511 0.517586
0.449851 0.676753 0.519356
0.467094 0.681315 0.52108
0.483314 0.68629 0.52163
0.498634 0.69163 0.521569
0.513619 0.697627 0.519997
0.527245 0.703792 0.516091
0.540841 0.71043 0.510353
0.554818 0.71722 0.501244
0.570062 0.724041 0.491249
0.588129 0.730297 0.482139
0.608423 0.736004 0.476371
0.629511 0.741344 0.47274
0.650767 0.746426 0.470695
0.672129 0.751339 0.469627
0.695247 0.75613 0.467292
0.72723 0.759625 0.456306
0.765652 0.761563 0.444892
0.807782 0.762463 0.433219
0.849714 0.763134 0.423102
0.889738 0.763851 0.413794
0.921111 0.765911 0.417288
0.939803 0.771481 0.43679
0.957397 0.777218 0.453696
0.97348 0.782559 0.467613
0.983688 0.785153 0.475212
0.320668 0.681804 0.492851
0.334325 0.682933 0.498268
0.351461 0.684672 0.504448
0.370459 0.687251 0.511986
0.390143 0.690196 0.520607
0.409644 0.693507 0.528862
0.428687 0.696925 0.53518
0.448081 0.700725 0.538628
0.46659 0.70486 0.540429
0.484749 0.709163 0.541695
0.501122 0.713863 0.542916
0.516472 0.718975 0.54284
0.531319 0.724727 0.541817
0.545678 0.73077 0.538918
0.559442 0.737133 0.533898
0.572732 0.743938 0.526085
0.586419 0.750652 0.515572
0.603204 0.757107 0.506157
0.622644 0.763012 0.498344
0.643137 0.768475 0.493599
0.663874 0.773632 0.490257
0.684794 0.778515 0.488289
0.705943 0.783276 0.486763
0.729 0.788159 0.483268
0.762524 0.791424 0.471199
0.801663 0.792874 0.459907
0.84329 0.793652 0.448753
0.883314 0.794278 0.441413
0.917922 0.795895 0.442359
0.941726 0.799405 0.460807
0.959762 0.804913 0.477302
0.975692 0.809979 0.491005
0.986908 0.813092 0.498695
0.338689 0.710307 0.513802
0.351171 0.711269 0.517861
0.368627 0.712978 0.523903
0.387945 0.715557 0.531762
0.407324 0.718456 0.539971
0.426886 0.721706 0.548928
0.446235 0.725078 0.555184
0.465141 0.728634 0.559319
0.484352 0.732479 0.561105
0.501686 0.736782 0.562799
0.518441 0.741192 0.563958
0.534157 0.746136 0.564309
0.549157 0.75172 0.563607
0.563775 0.757534 0.561273
0.577585 0.763684 0.557046
0.591272 0.770062 0.550607
0.604623 0.776806 0.540963
0.618875 0.783459 0.530221
0.636713 0.789578 0.521477
0.656855 0.795163 0.514839
0.677104 0.800183 0.510521
0.697322 0.80531 0.507393
0.718318 0.810101 0.505379
0.739559 0.814939 0.503197
0.762615 0.81976 0.49868
0.79736 0.822339 0.485969
0.837049 0.823545 0.474678
0.877028 0.824323 0.466728
0.912184 0.825605 0.469642
0.939544 0.828107 0.484886
0.962051 0.831907 0.500206
