code/data/lut/35浓郁蓝调3.cube
TITLE "LD - Tonal Blue 3"
# Copyright (c) 2019 Lens Distortions, LLC. All Rights Reserved.
# LensDistortions.com
# ref-TB7
LUT_3D_SIZE 5
0 0.013077 0.0320287
0.0771038 0.0426795 0.0724041
0.317678 0.0795453 0.109575
0.558587 0.127077 0.129564
0.765423 0.174884 0.150408
0.0318914 0.188327 0.162707
0.168612 0.218952 0.176715
0.430838 0.251759 0.170397
0.672465 0.299504 0.190204
0.867582 0.340978 0.207706
0.166171 0.418326 0.312673
0.307454 0.446937 0.348028
0.46421 0.495613 0.314031
0.753506 0.521004 0.295766
0.944366 0.550134 0.302205
0.303349 0.652918 0.472724
0.449851 0.676753 0.519356
0.570062 0.724041 0.491249
0.765652 0.761563 0.444892
0.983688 0.785153 0.475212
0.439643 0.869307 0.626642
0.585092 0.887984 0.679622
0.72639 0.919921 0.677531
0.848264 0.961959 0.623331
1 0.9841 0.583246
0 0.0221561 0.0802167
0.088365 0.0532387 0.16527
0.323415 0.0853895 0.227481
0.552056 0.133928 0.255818
0.758724 0.187854 0.28542
0.00921645 0.206683 0.265522
0.174746 0.228885 0.280446
0.384009 0.275227 0.297337
0.603021 0.336156 0.343725
0.82179 0.397024 0.383536
0.127153 0.442115 0.385794
0.334752 0.460304 0.494423
0.480781 0.50016 0.454292
0.759915 0.525383 0.425101
0.930846 0.569589 0.467033
0.273777 0.67422 0.53846
0.505089 0.695857 0.660441
0.607813 0.724071 0.643397
0.78172 0.762966 0.618021
0.983291 0.787839 0.653666
0.418494 0.88751 0.690974
0.657862 0.904051 0.792859
0.764721 0.924697 0.798245
0.871473 0.95993 0.7729
1 0.985306 0.710719
0 0.0331273 0.172656
0.100832 0.0619669 0.310887
0.331273 0.0983139 0.388235
0.561288 0.146624 0.414588
0.769772 0.198383 0.44567
0.00823987 0.217853 0.414816
0.147036 0.257313 0.389075
0.389517 0.287236 0.450187
0.614069 0.345907 0.453559
0.828443 0.401953 0.502693
0.0932937 0.463554 0.509865
0.326574 0.472816 0.585946
0.485725 0.513039 0.546288
0.686107 0.559182 0.549264
0.903349 0.598138 0.585626
0.222049 0.700755 0.629892
0.484718 0.710445 0.733928
0.630457 0.734798 0.735775
0.783886 0.771115 0.698589
0.983917 0.797299 0.715908
0.369589 0.91284 0.763882
0.662364 0.915892 0.844434
0.771023 0.933715 0.85243
0.886702 0.962554 0.851026
1 0.988937 0.828153
0 0.0425879 0.313024
0.12163 0.0668956 0.48191
0.343511 0.103868 0.551568
0.567452 0.161654 0.573938
0.779019 0.213062 0.605631
0.0159304 0.22826 0.573541
0.154345 0.293217 0.496025
0.316747 0.326909 0.597925
0.614466 0.365118 0.626062
0.837629 0.421668 0.64773
0.0812543 0.478126 0.65977
0.281788 0.496895 0.681407
0.457633 0.537179 0.665583
0.703777 0.563638 0.714595
0.909163 0.610742 0.705989
0.188602 0.722225 0.755901
0.457816 0.725078 0.840284
0.632624 0.746563 0.829679
0.784329 0.783276 0.798245
0.975128 0.81384 0.812512
0.31725 0.938537 0.863462
0.617365 0.937118 0.907362
0.751339 0.951415 0.914046
0.902449 0.969268 0.927596
1 0.994812 0.935576
0.00192264 0.0529183 0.487526
0.139361 0.0720684 0.646082
0.358541 0.110323 0.696132
0.579034 0.169314 0.72221
0.787427 0.228626 0.751629
0.0235599 0.238773 0.717815
0.18201 0.321004 0.644892
0.317281 0.346334 0.725185
0.576364 0.39588 0.794247
0.840406 0.444709 0.807141
0.0887312 0.489479 0.801953
0.275837 0.525017 0.774884
0.407889 0.56202 0.80502
0.638575 0.596277 0.859434
0.914961 0.622675 0.879103
0.167758 0.738262 0.893538
0.462165 0.742565 0.920073
0.604227 0.767178 0.921355
0.75259 0.801495 0.932265
0.978927 0.822904 0.948974
0.304326 0.95729 0.977646
0.622553 0.950545 0.976913
0.740581 0.967803 0.985
0.887282 0.984466 0.990188
1 1 1
