code/data/lut/35浓郁蓝调2.cube
TITLE "LD - Tonal Blue 2"
# Copyright (c) 2019 Lens Distortions, LLC. All Rights Reserved.
# LensDistortions.com
# ref-TB7
LUT_3D_SIZE 9
0.0167849 0.0322728 0.0455024
0.035523 0.041001 0.0576791
0.0867475 0.0550698 0.0769513
0.177707 0.070222 0.0954299
0.286275 0.0836805 0.105379
0.393225 0.0996872 0.112215
0.498024 0.118471 0.119738
0.605829 0.137789 0.126802
0.695415 0.150668 0.131579
0.0270237 0.0802014 0.0887922
0.0587167 0.090959 0.100252
0.137789 0.104982 0.105196
0.235904 0.121462 0.113863
0.336507 0.141512 0.123339
0.441093 0.161547 0.131518
0.548409 0.181888 0.138186
0.658839 0.202884 0.144823
0.744549 0.214267 0.148836
0.0508888 0.174258 0.146304
0.10013 0.181231 0.159838
0.161852 0.199878 0.158831
0.273793 0.21239 0.148165
0.381765 0.227329 0.154757
0.491035 0.24448 0.161547
0.603906 0.263386 0.168048
0.718868 0.283375 0.174441
0.801724 0.292592 0.178195
0.0999924 0.270787 0.203479
0.155276 0.278798 0.221698
0.21677 0.296483 0.228336
0.28423 0.318425 0.211353
0.412116 0.328817 0.199924
0.533761 0.341192 0.208164
0.650477 0.358526 0.209995
0.769421 0.37734 0.213596
0.853513 0.385245 0.215839
0.153658 0.372076 0.268009
0.211429 0.381323 0.288823
0.276448 0.398825 0.298909
0.329213 0.423728 0.283604
0.41735 0.443336 0.270604
0.560693 0.452201 0.253361
0.687144 0.466331 0.261219
0.813672 0.481285 0.266026
0.892668 0.488457 0.263096
0.207782 0.479835 0.333989
0.268513 0.490257 0.358373
0.336614 0.507286 0.371786
0.393408 0.530983 0.36846
0.459648 0.556268 0.341634
0.561105 0.574197 0.329412
0.71548 0.581216 0.306554
0.844007 0.596185 0.312428
0.921569 0.601572 0.330617
0.264134 0.592767 0.403677
0.326604 0.603616 0.428412
0.397772 0.620218 0.44686
0.459602 0.641779 0.449683
0.516075 0.668833 0.424613
0.596765 0.692195 0.404456
0.711391 0.708263 0.385565
0.869169 0.713741 0.365942
0.943191 0.731838 0.40882
0.321767 0.708995 0.47538
0.385534 0.719692 0.499733
0.458488 0.73547 0.522362
0.524849 0.755306 0.528969
0.582666 0.780804 0.515129
0.64918 0.808026 0.480034
0.736309 0.829541 0.466682
0.862577 0.842969 0.451957
0.958938 0.854078 0.483024
0.377569 0.821134 0.543343
0.442741 0.832654 0.568246
0.519081 0.847822 0.59498
0.596002 0.865827 0.603967
0.663722 0.886961 0.598428
0.726421 0.910536 0.573907
0.799847 0.930968 0.542565
0.888808 0.944488 0.534539
0.967132 0.951354 0.514549
0.0182498 0.0352178 0.0585336
0.0364233 0.0431373 0.0731365
0.0903944 0.0580911 0.102846
0.1794 0.071931 0.127108
0.284092 0.0851759 0.142367
0.38674 0.10193 0.151873
0.489998 0.12108 0.160952
0.595499 0.141421 0.170153
0.688884 0.157153 0.177356
0.0259251 0.0846876 0.117571
0.0578927 0.0949416 0.128969
0.123339 0.111971 0.143526
0.209583 0.134798 0.159609
0.308141 0.157137 0.176593
0.411658 0.17879 0.18851
0.520592 0.19884 0.19733
0.633158 0.217365 0.20354
0.730007 0.231037 0.208606
0.0426795 0.182284 0.18117
0.104997 0.186084 0.226947
0.166613 0.201984 0.206912
0.276204 0.214282 0.196612
0.372061 0.231998 0.210025
0.474174 0.251728 0.2206
0.582666 0.271687 0.228687
0.696666 0.291112 0.235462
0.786313 0.301274 0.237766
0.0868849 0.280095 0.233616
0.171786 0.288579 0.294957
0.214664 0.30219 0.287648
0.29514 0.319478 0.284932
0.445731 0.322194 0.250751
0.539788 0.342107 0.260441
0.649577 0.360449 0.265843
0.76582 0.379019 0.271214
0.847822 0.388128 0.27483
0.141588 0.381201 0.296849
0.2336 0.393912 0.36112
0.272816 0.405707 0.357336
0.350545 0.423484 0.365789
0.4327 0.444068 0.353445
0.605478 0.444663 0.305211
0.703166 0.464561 0.312657
0.820523 0.481422 0.318318
0.893416 0.490333 0.325109
0.197833 0.488853 0.363607
0.288716 0.503105 0.424689
0.329946 0.514702 0.428199
0.4112 0.532906 0.4327
0.47097 0.557382 0.431968
0.57557 0.575738 0.414069
0.755169 0.575875 0.360784
0.858412 0.59585 0.363912
0.920485 0.609339 0.416754
0.256397 0.601709 0.434852
0.339269 0.615106 0.486442
0.38996 0.627283 0.497581
0.470741 0.645029 0.505058
0.537881 0.668605 0.506981
0.59649 0.696071 0.486503
0.720668 0.710613 0.469139
0.890639 0.713451 0.434669
0.943587 0.732952 0.462791
0.31429 0.717266 0.506584
0.394537 0.72987 0.551003
0.454185 0.742412 0.568978
0.532372 0.759869 0.580316
0.601038 0.781521 0.578866
0.662287 0.808804 0.568826
0.74081 0.832227 0.548516
0.866636 0.846006 0.537392
0.963012 0.855589 0.543099
0.372015 0.829648 0.576349
0.443763 0.841016 0.607019
0.519615 0.85452 0.634577
0.599573 0.870848 0.651011
0.673564 0.88925 0.649912
0.737331 0.911177 0.633112
0.806622 0.932662 0.603296
0.891737 0.946853 0.592355
0.96817 0.952972 0.573892
0.0200504 0.0394598 0.085481
0.0387274 0.0471809 0.104997
0.0963607 0.0630503 0.153048
0.18735 0.0752117 0.185443
0.291142 0.0885481 0.20444
0.391196 0.10547 0.215869
0.492927 0.124407 0.226184
0.59707 0.14493 0.236606
0.690379 0.161364 0.244953
0.0246891 0.0912337 0.162585
0.0500649 0.104784 0.169635
0.122774 0.117525 0.201724
0.215595 0.137865 0.209705
0.31136 0.160113 0.224201
0.411353 0.181216 0.241352
0.516197 0.201846 0.254932
0.62562 0.222934 0.266728
0.724315 0.238956 0.2757
0.0350195 0.189197 0.234668
0.103258 0.19144 0.262943
0.166812 0.208423 0.248219
0.249516 0.227512 0.251011
0.344274 0.246952 0.264652
0.437201 0.272892 0.28333
0.543191 0.296803 0.302251
0.652949 0.322072 0.319341
0.762753 0.344076 0.332204
0.0725109 0.290028 0.278553
0.164828 0.29395 0.333028
0.227848 0.306264 0.333684
0.299107 0.323156 0.320363
0.415244 0.336324 0.307073
0.514305 0.355291 0.321157
0.619013 0.375875 0.338399
0.727611 0.398108 0.353185
0.822843 0.415732 0.364126
0.124132 0.392462 0.334707
0.233783 0.401175 0.395331
0.300816 0.411139 0.436072
0.338521 0.430472 0.41149
0.431464 0.44828 0.40206
0.60087 0.450324 0.364691
0.698833 0.470008 0.375677
0.809049 0.488792 0.388388
0.88426 0.507881 0.410651
0.18056 0.50013 0.397711
0.288533 0.511696 0.458076
0.379538 0.524239 0.515251
0.413123 0.539513 0.502678
0.480781 0.557733 0.499886
0.578073 0.577996 0.482994
0.790066 0.570077 0.422065
0.885771 0.58912 0.429252
0.920058 0.621347 0.499474
0.240482 0.612467 0.467323
0.340902 0.624308 0.522026
0.452949 0.639948 0.59263
0.48539 0.653193 0.588632
0.550744 0.669963 0.58117
0.616571 0.692287 0.592813
0.729122 0.71133 0.558648
0.931411 0.699916 0.529351
0.945815 0.736095 0.592493
0.300526 0.727626 0.539559
0.39144 0.73875 0.585382
0.512261 0.75668 0.663417
0.545541 0.768902 0.662821
0.610529 0.784543 0.654643
0.692454 0.804898 0.667475
0.743664 0.832563 0.664195
0.879042 0.845533 0.642206
0.965362 0.855344 0.660456
0.35967 0.839719 0.609842
0.439521 0.850141 0.643107
0.593408 0.868193 0.724254
0.644755 0.879499 0.731273
0.707408 0.893019 0.734447
0.769436 0.910079 0.729778
0.828351 0.930678 0.707805
0.898924 0.946639 0.695918
0.968994 0.954452 0.648157
0.0215 0.0436866 0.12015
0.0426947 0.052018 0.148013
0.100938 0.0666056 0.211841
0.193439 0.0790112 0.252064
0.295155 0.0935836 0.272572
0.395346 0.110292 0.282734
0.497704 0.128603 0.293278
0.601968 0.148699 0.304417
0.695949 0.16527 0.313893
0.0248112 0.0960861 0.223987
0.0484627 0.118502 0.214771
0.104799 0.130373 0.264591
0.213733 0.145815 0.281102
0.313481 0.167926 0.288884
0.417121 0.186389 0.300435
0.522362 0.204913 0.317464
0.630457 0.225437 0.331228
0.728359 0.242893 0.342275
0.0327153 0.194354 0.296605
0.0883497 0.201251 0.304479
0.156451 0.218204 0.300587
0.254017 0.230854 0.320989
0.347906 0.252964 0.312657
0.444648 0.275364 0.326329
0.546883 0.299199 0.347494
0.655436 0.323705 0.366476
0.764385 0.34699 0.383764
0.0642863 0.297765 0.338231
0.155749 0.299489 0.381003
0.230121 0.31165 0.377951
0.29752 0.330404 0.364599
0.390539 0.348501 0.367697
0.481758 0.371817 0.375357
0.588327 0.392386 0.393683
0.688838 0.420432 0.414664
0.801038 0.441001 0.43125
0.108293 0.40267 0.385367
0.211826 0.408682 0.436545
0.29218 0.416999 0.47361
0.359731 0.435187 0.443076
0.437766 0.453269 0.436454
0.562081 0.466697 0.423819
0.666239 0.485771 0.435752
0.772091 0.50692 0.453971
0.870604 0.524407 0.472663
0.160601 0.511955 0.442817
0.275837 0.521416 0.497566
0.374304 0.530037 0.549493
0.433341 0.543679 0.560906
0.475853 0.565026 0.534844
0.579782 0.582895 0.520836
0.755261 0.585336 0.484138
0.855329 0.60528 0.49279
0.91783 0.628641 0.541436
0.21976 0.624659 0.507271
0.33756 0.635325 0.564446
0.450935 0.647013 0.627222
0.515373 0.657832 0.665599
0.55494 0.676463 0.64654
0.613413 0.696559 0.629862
0.725444 0.715862 0.607034
0.914885 0.713314 0.587976
0.946792 0.740429 0.625193
0.280934 0.739696 0.576593
0.383581 0.749767 0.624613
0.515969 0.763989 0.69807
0.60032 0.775479 0.743511
0.63772 0.790646 0.737316
0.697261 0.807813 0.726116
0.76144 0.829984 0.743999
0.87248 0.848798 0.722194
0.96643 0.859159 0.689464
0.340963 0.851759 0.645396
0.428046 0.861311 0.681834
0.595056 0.874052 0.750332
0.651026 0.884535 0.758755
0.710048 0.897337 0.763973
0.776104 0.912413 0.766934
0.836591 0.932387 0.751446
0.904021 0.948638 0.740337
0.970092 0.956558 0.711849
0.0227512 0.0477302 0.16347
0.0470283 0.057557 0.205081
0.107729 0.06981 0.277287
0.198901 0.0818494 0.32398
0.298756 0.0981003 0.342779
0.39765 0.116167 0.353094
0.50132 0.134005 0.363836
0.606653 0.153964 0.374487
0.701198 0.16965 0.384939
0.0249943 0.100404 0.292012
0.0540169 0.131441 0.277348
0.0981155 0.139895 0.328283
0.19147 0.160464 0.355444
0.312139 0.178027 0.360632
0.417777 0.19556 0.373388
0.526345 0.212589 0.384619
0.636149 0.230518 0.399741
0.734905 0.24741 0.412589
0.0351568 0.198718 0.365225
0.0850996 0.213382 0.345022
0.144594 0.232258 0.342535
0.226642 0.244724 0.385489
0.349187 0.257176 0.398016
0.447318 0.281865 0.398718
0.554101 0.305089 0.402975
0.663111 0.327611 0.422904
0.77023 0.349035 0.443381
0.0605783 0.303624 0.406668
0.136934 0.307759 0.429816
0.217243 0.319432 0.434241
0.290455 0.338964 0.425513
0.390875 0.352895 0.444495
0.490715 0.376013 0.42771
0.595605 0.397177 0.435126
0.697322 0.422187 0.458137
0.807019 0.442069 0.480232
0.0983902 0.410819 0.449088
0.203387 0.415412 0.49276
0.293828 0.42211 0.522454
0.360647 0.44152 0.495659
0.437034 0.460227 0.488777
0.541512 0.476753 0.494514
0.628748 0.503548 0.493584
0.736706 0.524712 0.510216
0.858946 0.536736 0.526421
0.144305 0.522393 0.498482
0.257069 0.530098 0.54815
0.342443 0.53756 0.598505
0.426398 0.550027 0.604105
0.505028 0.56939 0.560235
0.587839 0.588174 0.558145
0.714244 0.602045 0.54641
0.816968 0.622614 0.55436
0.914382 0.636744 0.587884
0.198749 0.636576 0.557916
0.306859 0.646296 0.602838
0.43209 0.65478 0.667399
0.508644 0.663813 0.702708
0.575723 0.681025 0.679149
0.626459 0.701915 0.659815
0.732586 0.720592 0.641962
0.884031 0.727687 0.63978
0.947555 0.746822 0.658579
0.2589 0.752361 0.622553
0.36875 0.762295 0.669749
0.511437 0.772702 0.7393
0.598123 0.781781 0.77702
0.663676 0.793744 0.795651
0.719356 0.811612 0.782559
0.773541 0.832639 0.782925
0.871305 0.852872 0.772702
0.967712 0.864286 0.72253
0.318578 0.86482 0.687388
0.423926 0.875196 0.732738
0.596689 0.881773 0.78378
0.650004 0.891417 0.788647
0.71516 0.90277 0.797513
0.781949 0.916411 0.805097
0.84651 0.933867 0.799558
0.909972 0.950851 0.789441
0.971389 0.959014 0.778363
0.0238346 0.0514839 0.217777
0.0518349 0.0629282 0.274769
0.114656 0.0723735 0.349386
0.207813 0.083238 0.398108
0.302602 0.100923 0.417075
0.401053 0.120836 0.425559
0.503456 0.140124 0.4365
0.610269 0.15874 0.448218
0.706081 0.175402 0.458045
0.0251621 0.104463 0.364874
0.0616922 0.133806 0.365972
0.108888 0.145525 0.393729
0.198642 0.161257 0.426902
0.306859 0.18378 0.440742
0.419135 0.203815 0.446708
0.528344 0.221057 0.461051
0.64033 0.236652 0.474128
0.74081 0.253498 0.485298
0.0377661 0.202747 0.437659
0.0901961 0.221195 0.410727
0.144198 0.247089 0.388312
0.197772 0.259373 0.447196
0.323445 0.271839 0.476356
0.449989 0.287388 0.479057
0.553292 0.314046 0.484825
0.666896 0.336858 0.489067
0.777401 0.355505 0.506386
0.0620432 0.308125 0.477333
0.127642 0.317632 0.475257
0.203815 0.332158 0.475242
0.272419 0.35317 0.47071
0.366278 0.365301 0.516442
0.495628 0.37792 0.524605
0.596033 0.404013 0.517388
0.704265 0.42916 0.51368
0.814252 0.44715 0.538262
0.091249 0.41735 0.520851
0.18323 0.422248 0.553567
0.274586 0.430106 0.578637
0.352712 0.448234 0.563714
0.434424 0.467124 0.557916
0.531701 0.484398 0.575006
0.642008 0.505867 0.554498
0.747982 0.529122 0.549966
0.862562 0.542031 0.5841
0.13402 0.530877 0.565652
0.246372 0.537499 0.607843
0.352209 0.542519 0.65594
0.434165 0.555291 0.6533
0.497292 0.578241 0.616785
0.583978 0.595529 0.617533
0.696315 0.610513 0.626047
0.794202 0.635447 0.612696
0.906844 0.648081 0.643854
0.181567 0.647257 0.61738
0.294926 0.655665 0.660731
0.397589 0.662867 0.718364
0.486717 0.671656 0.749065
0.563958 0.688457 0.729992
0.656672 0.706249 0.685267
0.74226 0.725582 0.685527
0.861967 0.740642 0.681056
0.946838 0.754513 0.703227
0.23801 0.764462 0.677256
0.338308 0.774029 0.713802
0.485069 0.781704 0.778775
0.578973 0.788876 0.816876
0.664561 0.799664 0.828565
0.733989 0.817121 0.810361
0.789761 0.837903 0.804532
0.878492 0.858366 0.797513
0.968948 0.869993 0.764904
0.295766 0.877485 0.738567
0.384588 0.88629 0.770153
0.571756 0.892332 0.816297
0.640223 0.900832 0.825269
0.713481 0.910185 0.83386
0.788144 0.92163 0.843534
0.857969 0.936233 0.848325
0.916777 0.953109 0.842451
0.9729 0.961929 0.845106
0.0249485 0.0552377 0.28368
0.0564584 0.065156 0.354635
0.123308 0.0739452 0.428733
0.214908 0.0852522 0.474784
0.308415 0.102815 0.491646
0.405493 0.123232 0.501305
0.507134 0.144488 0.51107
0.613016 0.165316 0.523262
0.710704 0.180529 0.535073
0.0254215 0.108324 0.44329
0.0681315 0.124941 0.461631
0.125765 0.145724 0.469276
0.209842 0.161227 0.500938
0.312032 0.182177 0.519493
0.421561 0.204379 0.526543
0.532403 0.22594 0.537179
0.642313 0.246509 0.551217
0.744411 0.259007 0.563241
0.0403754 0.206729 0.511833
0.0960098 0.222934 0.496223
0.151263 0.261845 0.441978
0.19173 0.274815 0.497566
0.292821 0.288396 0.541711
0.429297 0.304173 0.559838
0.555093 0.322011 0.564385
0.662943 0.350072 0.573236
0.78056 0.366766 0.584802
0.064744 0.312184 0.550896
0.129076 0.324926 0.538811
0.199969 0.345602 0.521111
0.264088 0.368215 0.517143
0.325963 0.38291 0.57818
0.472282 0.391775 0.605081
0.601083 0.407095 0.608438
0.704402 0.435294 0.608835
0.817288 0.455711 0.608789
0.0903182 0.422721 0.594369
0.1664 0.430518 0.606165
0.256443 0.442741 0.616999
0.337743 0.460319 0.612741
0.412161 0.482643 0.605951
0.517494 0.493721 0.651423
0.647211 0.507637 0.656382
0.74876 0.534417 0.642496
0.865827 0.549691 0.650355
0.124331 0.53817 0.639643
0.222614 0.544579 0.67332
0.329702 0.550225 0.716197
0.419562 0.562509 0.718288
0.494804 0.583551 0.69482
0.586435 0.600977 0.693049
0.67631 0.62089 0.70808
0.798672 0.639673 0.685115
0.907439 0.655558 0.707347
0.171481 0.656123 0.68716
0.285222 0.663798 0.725765
0.407019 0.668696 0.781003
0.500618 0.675929 0.804318
0.577676 0.693477 0.779278
0.640574 0.717388 0.741497
0.734615 0.733593 0.748363
0.846922 0.75021 0.746914
0.94107 0.765545 0.764416
0.220371 0.774838 0.739498
0.326986 0.784085 0.774594
0.471107 0.789151 0.826474
0.564904 0.796078 0.863066
0.686564 0.803998 0.86424
0.734066 0.824033 0.855329
0.806226 0.844114 0.832181
0.884627 0.864851 0.827054
0.969619 0.876051 0.819669
0.274342 0.889113 0.795987
0.369223 0.897978 0.826017
0.547784 0.902586 0.858122
0.615534 0.911604 0.864912
0.692668 0.920867 0.871382
0.780148 0.930083 0.880705
0.865141 0.940673 0.891478
0.926497 0.955184 0.89749
0.974578 0.965347 0.90338
0.0260929 0.059556 0.362158
0.06009 0.0672923 0.4365
0.130526 0.0758526 0.510597
0.220966 0.0878462 0.551629
0.314565 0.104646 0.566201
0.409277 0.126574 0.577661
0.511498 0.147494 0.587472
0.617029 0.169696 0.599329
0.713863 0.187304 0.611444
0.025742 0.11194 0.524437
0.0726177 0.120943 0.547753
0.141024 0.144381 0.551202
0.219486 0.163149 0.575357
0.322072 0.180423 0.594079
0.421149 0.207645 0.607126
0.535592 0.226307 0.615259
0.647303 0.248783 0.629252
0.74789 0.266697 0.641794
0.0429236 0.210742 0.58677
0.100526 0.222156 0.584237
0.161822 0.27631 0.504036
0.198352 0.286763 0.557671
0.286122 0.298009 0.60882
0.398566 0.317922 0.649348
0.540185 0.338811 0.645472
0.665629 0.358404 0.65388
0.777829 0.383597 0.666423
0.0675364 0.316228 0.626535
0.132464 0.327825 0.621042
0.204273 0.358846 0.574807
0.263096 0.383688 0.566461
0.308659 0.402792 0.61735
0.42472 0.411765 0.677119
0.580972 0.423117 0.689342
0.70901 0.44036 0.695399
0.818936 0.463157 0.702358
0.0925612 0.427482 0.670024
0.16556 0.4374 0.672251
0.250355 0.456291 0.657618
0.326543 0.474266 0.659342
0.396704 0.498177 0.653758
0.469749 0.512779 0.716075
0.62739 0.520256 0.737148
0.757046 0.535546 0.741924
0.868116 0.556359 0.74432
0.121401 0.544121 0.716045
0.205356 0.551949 0.733989
0.307774 0.561746 0.757458
0.39675 0.57496 0.765698
0.480018 0.595148 0.74992
0.553185 0.617243 0.751156
0.672007 0.62855 0.783444
0.802243 0.641779 0.790341
0.909194 0.662577 0.787625
0.159609 0.663844 0.762188
0.257313 0.671183 0.791531
0.385183 0.675959 0.844327
0.510292 0.683452 0.848325
0.592264 0.699657 0.828824
0.649012 0.72134 0.8206
0.72723 0.741299 0.823774
0.841138 0.756283 0.835248
0.941573 0.772168 0.835431
0.210758 0.783688 0.810849
0.32314 0.792218 0.845365
0.491722 0.795316 0.881193
0.656733 0.797192 0.888258
0.729854 0.808057 0.882033
0.769345 0.827726 0.882155
0.812238 0.851606 0.879484
0.8851 0.871916 0.878813
0.967697 0.884306 0.884718
0.256596 0.89897 0.861067
0.37322 0.905837 0.882246
0.53994 0.910231 0.903258
0.599207 0.920836 0.909026
0.669703 0.931426 0.915129
0.756222 0.941009 0.921965
0.857557 0.948547 0.92932
0.937285 0.957977 0.938857
0.975357 0.96936 0.94728
0.0268711 0.0630655 0.439277
0.0625467 0.0694285 0.511986
0.136004 0.0777142 0.58471
0.22591 0.0901656 0.619287
0.31931 0.107362 0.633219
0.415473 0.127184 0.645029
0.51603 0.14966 0.656779
0.62121 0.1738 0.668452
0.718776 0.191592 0.681773
0.0264591 0.115053 0.596857
0.0755932 0.124163 0.617975
0.149126 0.144549 0.625605
0.229877 0.163058 0.645853
0.329564 0.182132 0.662013
0.42884 0.205615 0.675929
0.536431 0.23032 0.688121
0.650553 0.251331 0.700145
0.752041 0.270817 0.713863
0.0451972 0.214252 0.654368
0.103639 0.222385 0.659159
0.1738 0.28336 0.588129
0.21059 0.287816 0.637324
0.293019 0.303014 0.673365
0.404639 0.319905 0.719615
0.523339 0.347753 0.736477
0.66276 0.3673 0.736538
0.783917 0.387945 0.748974
0.0701305 0.319936 0.695552
0.13547 0.329885 0.697078
0.211841 0.368902 0.644968
0.266636 0.399145 0.623194
0.306203 0.416556 0.674205
0.406592 0.426307 0.734096
0.544854 0.439521 0.776867
0.694957 0.454719 0.776745
0.825849 0.466133 0.788846
0.0953689 0.431754 0.741543
0.167544 0.442374 0.743206
0.251987 0.467353 0.716548
0.311315 0.486122 0.723018
0.368215 0.504143 0.752682
0.460685 0.522606 0.781537
0.588632 0.537789 0.812818
0.736996 0.54995 0.82266
0.872129 0.561578 0.83331
0.12224 0.549142 0.787915
0.201907 0.55816 0.79939
0.296986 0.573419 0.803693
0.348531 0.588235 0.818219
0.432059 0.605768 0.832807
0.530327 0.625559 0.839185
0.636378 0.643915 0.855055
0.776593 0.656458 0.867857
0.912184 0.6663 0.877073
0.155856 0.670207 0.837461
0.244602 0.677653 0.858747
0.409827 0.685817 0.875685
0.486107 0.698085 0.876509
0.546868 0.714321 0.883375
0.617411 0.732937 0.891691
0.703517 0.752285 0.898817
0.828016 0.765499 0.909407
0.945251 0.775479 0.917113
0.196521 0.79147 0.882856
0.300908 0.799924 0.902785
0.545556 0.802777 0.911879
0.598688 0.813428 0.917952
0.656611 0.827008 0.925124
0.72282 0.842863 0.93228
0.794614 0.861189 0.939178
0.877546 0.879164 0.944137
0.969375 0.88922 0.951293
0.260563 0.90692 0.925185
0.421683 0.910414 0.933806
0.548684 0.916609 0.939742
0.602014 0.927153 0.945296
0.675883 0.937011 0.951202
0.754376 0.947234 0.956786
0.847272 0.955398 0.959945
0.93521 0.963409 0.96434
0.975723 0.973205 0.973068
