code/data/lut/35浓郁蓝调1.cube
TITLE "LD - Tonal Blue 1"
# Copyright (c) 2019 Lens Distortions, LLC. All Rights Reserved.
# LensDistortions.com
# ref-TB7
LUT_3D_SIZE 9
0.000762951 0.0209812 0.0376898
0.037171 0.0341955 0.055787
0.12166 0.0509041 0.0779889
0.242206 0.0641947 0.0923629
0.367727 0.0750439 0.0973526
0.484718 0.0901656 0.101244
0.59617 0.108629 0.10721
0.70724 0.128832 0.114031
0.798764 0.141878 0.119356
0.0143587 0.0940566 0.0914321
0.0689097 0.105211 0.102129
0.181369 0.117357 0.10248
0.299321 0.13138 0.105226
0.413382 0.149111 0.110445
0.525719 0.16849 0.116228
0.637308 0.188922 0.121752
0.748989 0.210101 0.127825
0.835431 0.220264 0.132097
0.0427253 0.207675 0.13991
0.113603 0.213718 0.15079
0.197787 0.230274 0.150484
0.320577 0.241596 0.136675
0.444068 0.252735 0.138964
0.56109 0.267948 0.142443
0.677821 0.284733 0.147173
0.793072 0.302739 0.152102
0.87599 0.309377 0.155505
0.0891585 0.315892 0.189136
0.16318 0.322881 0.202579
0.24567 0.33785 0.213535
0.329885 0.358114 0.18291
0.452186 0.368948 0.179614
0.586786 0.375769 0.186069
0.705821 0.390082 0.18294
0.82472 0.405219 0.18378
0.909514 0.41004 0.185229
0.135271 0.426474 0.246479
0.210468 0.433982 0.260243
0.294728 0.447669 0.272801
0.366751 0.469245 0.250996
0.465797 0.485161 0.223514
0.586755 0.495995 0.222705
0.721202 0.50396 0.229923
0.849943 0.513451 0.230503
0.93315 0.518425 0.22533
0.179461 0.538415 0.304417
0.256718 0.54612 0.318135
0.34226 0.558709 0.331899
0.416922 0.577722 0.326543
0.495338 0.599802 0.284627
0.602457 0.612177 0.266941
0.72221 0.623148 0.26453
0.853986 0.63209 0.270573
0.951949 0.630793 0.280156
0.223301 0.651072 0.362387
0.301778 0.658473 0.375616
0.388479 0.670817 0.390036
0.466575 0.687007 0.392844
0.537057 0.709895 0.360281
0.628351 0.728161 0.321065
0.738903 0.738933 0.308461
0.85742 0.749722 0.303395
0.969329 0.756268 0.313924
0.267201 0.763912 0.419715
0.345846 0.77113 0.432441
0.432807 0.782712 0.446281
0.514015 0.797299 0.453422
0.585367 0.817929 0.435584
0.661784 0.840543 0.387625
0.762341 0.854917 0.357412
0.874434 0.864805 0.347494
0.980911 0.874479 0.346456
0.308797 0.87126 0.472114
0.386954 0.87921 0.485145
0.474571 0.890837 0.498909
0.557641 0.904768 0.507622
0.632151 0.922988 0.499352
0.701976 0.94519 0.458793
0.789197 0.9626 0.412177
0.895033 0.971695 0.392447
0.992813 0.975097 0.408545
0.00321965 0.0256046 0.0615854
0.03888 0.037232 0.0836042
0.125917 0.0544137 0.118364
0.242756 0.0660563 0.142
0.36405 0.0772412 0.152605
0.477745 0.0928054 0.158373
0.588418 0.111177 0.164935
0.698817 0.131289 0.172107
0.794644 0.146426 0.178302
0.0124056 0.0989853 0.136217
0.0674754 0.109438 0.145449
0.162585 0.126452 0.157046
0.26717 0.148196 0.173449
0.381231 0.168215 0.185641
0.498146 0.186191 0.192157
0.614664 0.203616 0.196323
0.729946 0.220203 0.198505
0.826902 0.232136 0.201495
0.0314488 0.215839 0.190967
0.119112 0.217456 0.244968
0.200778 0.231479 0.220188
0.331411 0.239368 0.203891
0.439261 0.254719 0.213809
0.550546 0.271473 0.219654
0.664164 0.288518 0.222858
0.77847 0.30576 0.225391
0.868055 0.313237 0.225238
0.0742657 0.325292 0.234241
0.184665 0.330938 0.305592
0.239292 0.34342 0.296422
0.336736 0.357031 0.29514
0.500801 0.3552 0.249378
0.598993 0.372763 0.255116
0.712093 0.387533 0.254566
0.828 0.402472 0.254734
0.909865 0.408408 0.256016
0.123415 0.435386 0.289998
0.241443 0.443656 0.358907
0.28835 0.453788 0.353475
0.381384 0.466331 0.373861
0.475761 0.483635 0.348562
0.64535 0.481224 0.293614
0.744945 0.497398 0.29688
0.862333 0.509651 0.297108
0.937621 0.515648 0.301961
0.16994 0.546792 0.347295
0.284352 0.555825 0.405676
0.333135 0.565225 0.408179
0.428473 0.577737 0.421393
0.501701 0.598001 0.41619
0.611429 0.611658 0.389868
0.771603 0.61207 0.337011
0.876112 0.627008 0.335851
0.955673 0.632319 0.386282
0.215076 0.658976 0.404944
0.319783 0.667323 0.448768
0.379126 0.676783 0.458045
0.47245 0.689006 0.471702
0.553994 0.706905 0.473854
0.627344 0.729625 0.437064
0.744945 0.739574 0.422599
0.894408 0.742687 0.378927
0.971069 0.754955 0.390616
0.25951 0.771145 0.461952
0.358114 0.779004 0.495781
0.428183 0.788281 0.508095
0.516762 0.800504 0.525277
0.599359 0.816678 0.522683
0.67364 0.838697 0.503426
0.76051 0.857237 0.460044
0.878782 0.866026 0.451118
0.987091 0.873045 0.450095
0.30222 0.87863 0.514916
0.388434 0.88603 0.534447
0.473854 0.896178 0.552056
0.560128 0.908446 0.570611
0.643046 0.923308 0.567758
0.714183 0.94345 0.542977
0.793942 0.963149 0.496757
0.895674 0.973541 0.473686
0.993545 0.976074 0.487037
0.00624094 0.032105 0.108232
0.0430915 0.0420233 0.136965
0.1355 0.0587472 0.189105
0.251133 0.0683146 0.221302
0.370062 0.0798657 0.237201
0.480873 0.0961929 0.244404
0.590433 0.114717 0.252079
0.699779 0.135073 0.260487
0.795926 0.150851 0.267628
0.00994888 0.105562 0.202045
0.0551614 0.121401 0.201968
0.165316 0.130602 0.235431
0.272663 0.150912 0.23801
0.383001 0.170474 0.252964
0.495644 0.188724 0.266453
0.609369 0.206394 0.276493
0.723079 0.224659 0.284657
0.823804 0.237644 0.290333
0.0205844 0.22237 0.263188
0.1187 0.222278 0.293263
0.19968 0.238041 0.273396
0.298436 0.2551 0.272358
0.409049 0.270481 0.288792
0.51043 0.294606 0.30457
0.620737 0.316503 0.319051
0.736278 0.33669 0.331151
0.848066 0.353475 0.338689
0.0565652 0.335363 0.297932
0.172946 0.337026 0.35407
0.254108 0.345968 0.359854
0.34139 0.359869 0.342245
0.47126 0.368627 0.322896
0.5776 0.383703 0.334295
0.684291 0.401236 0.347524
0.795697 0.418296 0.357778
0.892226 0.430961 0.364263
0.105196 0.446433 0.345022
0.240208 0.45066 0.402777
0.321752 0.455406 0.460502
0.367315 0.47332 0.429068
0.471092 0.487037 0.415091
0.648371 0.482628 0.36997
0.745846 0.499199 0.37641
0.857313 0.512764 0.384482
0.933257 0.527459 0.405692
0.153277 0.557412 0.39707
0.285374 0.563485 0.447578
0.395224 0.568383 0.525429
0.433249 0.581979 0.510369
0.505425 0.59649 0.51191
0.611032 0.612222 0.483268
0.820264 0.598856 0.414771
0.915587 0.613596 0.415946
0.956756 0.640604 0.488823
0.201129 0.668772 0.45211
0.323919 0.675059 0.493996
0.458824 0.681437 0.584054
0.493233 0.69279 0.580179
0.560494 0.706218 0.578653
0.630426 0.724498 0.588525
0.749813 0.737835 0.544747
0.959091 0.719188 0.502876
0.97435 0.753002 0.571969
0.247776 0.780285 0.508125
0.357443 0.786419 0.539559
0.500465 0.795224 0.63212
0.535836 0.805325 0.632166
0.601892 0.817731 0.627405
0.691402 0.832624 0.641443
0.749981 0.856352 0.622339
0.88748 0.863203 0.592645
0.990082 0.86836 0.620829
0.29192 0.887266 0.560693
0.384817 0.893706 0.580194
0.555154 0.903487 0.671626
0.614893 0.911543 0.678157
0.68278 0.922271 0.681224
0.750576 0.937407 0.672557
0.816419 0.957397 0.637263
0.900893 0.971191 0.612085
0.993713 0.97673 0.579705
0.00843824 0.0377203 0.164843
0.0496834 0.0466316 0.20383
0.144884 0.0606851 0.268254
0.258869 0.0704814 0.306249
0.374716 0.0829786 0.323751
0.484276 0.0997635 0.330953
0.593805 0.118288 0.338933
0.703166 0.138643 0.347799
0.799832 0.154681 0.355505
0.00976577 0.110048 0.283726
0.0521096 0.136645 0.261631
0.141665 0.143023 0.326955
0.271733 0.158328 0.326101
0.384115 0.178607 0.33225
0.500053 0.193286 0.345037
0.613718 0.208698 0.359808
0.726375 0.226642 0.370184
0.826352 0.241382 0.37789
0.0174411 0.226841 0.344076
0.0990311 0.232273 0.350271
0.186023 0.248249 0.340536
0.305715 0.256443 0.36054
0.410712 0.276692 0.349172
0.516228 0.296315 0.364736
0.62356 0.317861 0.38172
0.736019 0.338338 0.395956
0.847501 0.356542 0.40853
0.047303 0.342504 0.375601
0.16434 0.342245 0.415259
0.256687 0.350927 0.41355
0.33846 0.366979 0.396689
0.441794 0.382239 0.394522
0.542626 0.401114 0.402502
0.655985 0.416114 0.419867
0.756664 0.440833 0.43505
0.867796 0.457084 0.445457
0.0874342 0.456321 0.413474
0.209384 0.459464 0.454887
0.308934 0.462135 0.502556
0.39234 0.475639 0.470863
0.478416 0.49073 0.458213
0.609277 0.498924 0.44126
0.719097 0.512139 0.451499
0.823789 0.529198 0.464759
0.920348 0.54255 0.479805
0.132998 0.568719 0.457816
0.271031 0.572854 0.498314
0.384054 0.574716 0.566278
0.455543 0.583108 0.585382
0.50071 0.602945 0.552483
0.611017 0.616358 0.530236
0.78999 0.611658 0.490135
0.887221 0.627771 0.493126
0.95404 0.646601 0.540047
0.181247 0.680125 0.50724
0.322881 0.684718 0.546822
0.454582 0.688121 0.623468
0.525628 0.693156 0.681407
0.569253 0.709468 0.657649
0.626307 0.727703 0.635904
0.744945 0.741268 0.603601
0.938521 0.731517 0.576898
0.97557 0.756146 0.612634
0.230091 0.791211 0.559869
0.35288 0.79585 0.589014
0.504967 0.801312 0.671534
0.59913 0.805417 0.73959
0.637568 0.81825 0.732845
0.695445 0.833249 0.718502
0.763394 0.850858 0.735073
0.880034 0.863935 0.701534
0.991333 0.871107 0.659327
0.276417 0.897765 0.61062
0.376471 0.903136 0.629282
0.553185 0.908995 0.703441
0.619867 0.915862 0.712657
0.685939 0.925719 0.718837
0.757153 0.938659 0.718532
0.823728 0.957855 0.694697
0.904555 0.972824 0.669306
0.994537 0.978439 0.657679
0.00979629 0.0423133 0.229374
0.0558938 0.0513466 0.282307
0.152575 0.0631876 0.352834
0.265553 0.072694 0.393469
0.378637 0.0862135 0.41059
0.487602 0.10341 0.418006
0.597131 0.122377 0.426123
0.706783 0.142885 0.435004
0.803738 0.158541 0.442847
0.00967422 0.114641 0.369024
0.0599985 0.149798 0.340871
0.128939 0.152346 0.4112
0.25658 0.171542 0.418585
0.382208 0.188861 0.418601
0.499428 0.202792 0.431235
0.616098 0.216007 0.443244
0.729839 0.231174 0.456489
0.830381 0.245197 0.465797
0.0202487 0.230426 0.429068
0.0933852 0.244663 0.402823
0.169085 0.264088 0.392111
0.279393 0.268788 0.450446
0.411887 0.280079 0.449027
0.518273 0.302327 0.44802
0.630198 0.322103 0.453605
0.742718 0.34081 0.468467
0.852262 0.357244 0.484215
0.0448615 0.34757 0.460136
0.143816 0.349813 0.480522
0.242161 0.358694 0.48278
0.329488 0.375174 0.470619
0.445121 0.384619 0.485573
0.549508 0.404669 0.465919
0.660121 0.420691 0.474388
0.763027 0.441688 0.493797
0.87216 0.457282 0.510414
0.0769055 0.463813 0.492241
0.200687 0.465614 0.523507
0.312749 0.466011 0.560647
0.391257 0.481651 0.530282
0.477791 0.496498 0.520272
0.587106 0.50901 0.521355
0.677211 0.531624 0.517342
0.79237 0.544945 0.534417
0.913268 0.551614 0.545541
0.116121 0.578378 0.529763
0.24242 0.582132 0.561929
0.342504 0.584482 0.616892
0.444053 0.590127 0.631296
0.533837 0.604669 0.583185
0.620233 0.620005 0.574975
0.747387 0.628656 0.560296
0.853971 0.642725 0.567086
0.951095 0.653208 0.595438
0.160662 0.69131 0.572702
0.288365 0.695491 0.598169
0.42591 0.697429 0.668467
0.514397 0.699779 0.719829
0.592447 0.711513 0.698405
0.641627 0.731029 0.671061
0.7514 0.744839 0.645029
0.904051 0.745205 0.64303
0.976318 0.761334 0.652583
0.208942 0.802869 0.619654
0.339666 0.806943 0.645182
0.497459 0.809506 0.718349
0.587869 0.812284 0.778607
0.663127 0.818219 0.808209
0.723491 0.832837 0.788037
0.77644 0.85153 0.783932
0.878492 0.866255 0.765606
0.992752 0.875059 0.701259
0.25597 0.909499 0.666758
0.377661 0.914977 0.690181
0.551034 0.916259 0.745418
0.61619 0.922484 0.750576
0.691264 0.930282 0.760037
0.762997 0.941649 0.765957
0.833204 0.957885 0.75816
0.909621 0.974426 0.734264
0.995529 0.980591 0.737896
0.0107576 0.0466163 0.30309
0.0619669 0.0559243 0.370748
0.159289 0.0655528 0.441245
0.271519 0.0751659 0.482109
0.382132 0.0894179 0.49688
0.490898 0.106981 0.504677
0.600458 0.125978 0.513115
0.710033 0.146563 0.522042
0.807675 0.162783 0.530297
0.00976577 0.118685 0.457786
0.0705425 0.150042 0.449928
0.14287 0.154299 0.495293
0.269368 0.168292 0.507836
0.382773 0.191989 0.511604
0.500145 0.211002 0.517189
0.617288 0.223911 0.530938
0.733379 0.235645 0.543984
0.834302 0.250034 0.553201
0.0234531 0.234165 0.514824
0.100053 0.250904 0.487785
0.167514 0.27924 0.449622
0.23917 0.28603 0.528344
0.393103 0.293294 0.53904
0.519631 0.307576 0.538964
0.627741 0.331212 0.542626
0.744396 0.34905 0.548577
0.856855 0.362829 0.561303
0.0474098 0.351415 0.5449
0.132799 0.359442 0.539086
0.225315 0.37232 0.53138
0.305394 0.391333 0.522164
0.422782 0.395392 0.574395
0.553964 0.405356 0.574014
0.658701 0.426825 0.566461
0.768154 0.447242 0.564004
0.878401 0.460441 0.583658
0.0721599 0.469505 0.577356
0.181079 0.471504 0.60061
0.291936 0.473838 0.627192
0.3823 0.487648 0.609018
0.474067 0.502373 0.600198
0.580179 0.514565 0.611887
0.690242 0.532097 0.58912
0.800839 0.548699 0.583597
0.911711 0.557 0.62034
0.105394 0.585855 0.609537
0.230411 0.588846 0.6336
0.356924 0.587366 0.684184
0.454215 0.593668 0.687373
0.524773 0.612665 0.646891
0.616876 0.625803 0.643565
0.730282 0.636225 0.647974
0.829374 0.65568 0.63183
0.943801 0.662898 0.661448
0.14435 0.700801 0.647074
0.267811 0.704585 0.669551
0.381201 0.707362 0.723308
0.48661 0.70901 0.765652
0.575906 0.719524 0.751461
0.675288 0.732708 0.70013
0.761349 0.748257 0.694453
0.880705 0.757671 0.69015
0.975464 0.767346 0.70515
0.188739 0.813733 0.688365
0.304967 0.81799 0.704677
0.4551 0.820432 0.765499
0.550851 0.822187 0.825147
0.656321 0.82504 0.842542
0.739269 0.836423 0.820905
0.794339 0.854871 0.808713
0.88481 0.870863 0.794766
0.9944 0.879423 0.752758
0.234165 0.921233 0.730617
0.336858 0.926024 0.742458
0.522271 0.927001 0.788067
0.604028 0.931716 0.796506
0.686732 0.937697 0.804364
0.769131 0.946014 0.814878
0.843397 0.958923 0.820111
0.916411 0.975616 0.806149
0.996963 0.983368 0.817105
0.0117647 0.0511635 0.388602
0.0670787 0.0598306 0.464454
0.165637 0.0681315 0.533471
0.276707 0.0779278 0.57084
0.385824 0.0929732 0.582773
0.494301 0.110338 0.590799
0.60354 0.129778 0.599496
0.713649 0.150378 0.60911
0.811688 0.166827 0.617685
0.0102541 0.122545 0.549035
0.0796063 0.138033 0.563073
0.1664 0.14963 0.585077
0.283436 0.165698 0.59382
0.395117 0.186038 0.602335
0.5084 0.206699 0.609445
0.620981 0.227924 0.618189
0.73518 0.244434 0.630411
0.838331 0.253132 0.641291
0.0265812 0.237858 0.60061
0.106554 0.251194 0.588113
0.175875 0.293645 0.517067
0.228382 0.302632 0.58761
0.366705 0.30605 0.633631
0.502083 0.323644 0.62768
0.627588 0.339055 0.630121
0.737987 0.362966 0.636866
0.857969 0.372976 0.649973
0.05037 0.3552 0.630152
0.135424 0.365332 0.618494
0.220386 0.38558 0.587488
0.293568 0.407019 0.575204
0.37351 0.414252 0.653864
0.5355 0.417502 0.662913
0.661814 0.429664 0.663844
0.767651 0.452369 0.663874
0.880827 0.46659 0.668101
0.073228 0.473732 0.663157
0.164096 0.478691 0.668376
0.270054 0.487083 0.671855
0.363729 0.500175 0.663905
0.447318 0.518425 0.65391
0.567132 0.522652 0.698665
0.696071 0.53196 0.69926
0.798367 0.553307 0.686946
0.914824 0.562509 0.698634
0.0996109 0.591882 0.695109
0.207385 0.594903 0.713664
0.335073 0.594217 0.755291
0.439078 0.600046 0.76112
0.520775 0.61706 0.733028
0.617761 0.629953 0.727687
0.71397 0.644495 0.737728
0.832471 0.658671 0.713283
0.944457 0.668345 0.736767
0.133501 0.708324 0.727535
0.255039 0.711849 0.745449
0.39498 0.710994 0.794629
0.504875 0.710567 0.829938
0.590967 0.722759 0.805325
0.658518 0.742824 0.763714
0.75523 0.754498 0.766171
0.866072 0.766232 0.761532
0.969787 0.776043 0.775952
0.172747 0.822721 0.764324
0.286152 0.827207 0.778653
0.419379 0.829602 0.827573
0.522805 0.830716 0.880354
0.680247 0.827359 0.881758
0.733944 0.843427 0.869307
0.8121 0.859007 0.840284
0.890639 0.876371 0.828702
0.995697 0.884047 0.816983
0.214527 0.93196 0.80206
0.31812 0.937057 0.813138
0.483635 0.938781 0.843992
0.5664 0.944396 0.847593
0.658717 0.949813 0.853086
0.758251 0.955016 0.862913
0.850767 0.962493 0.875532
0.927123 0.976104 0.881102
0.998901 0.987015 0.890074
0.0129091 0.0558175 0.484962
0.0712291 0.0629892 0.560571
0.171344 0.0705577 0.626337
0.281361 0.0814374 0.658244
0.389517 0.0965744 0.667994
0.497856 0.114092 0.676249
0.607126 0.133288 0.685359
0.717113 0.154192 0.695155
0.815686 0.170428 0.704509
0.0110933 0.126375 0.640955
0.0857404 0.134615 0.658457
0.186435 0.14786 0.669902
0.292607 0.166506 0.679179
0.407279 0.181949 0.687922
0.513588 0.207126 0.697688
0.628656 0.223285 0.707637
0.740215 0.244663 0.718349
0.842222 0.258274 0.728374
0.0297246 0.241596 0.685863
0.111452 0.249973 0.686091
0.188235 0.30695 0.593683
0.235584 0.313344 0.660563
0.356497 0.313649 0.720897
0.48426 0.334417 0.725643
0.614435 0.354742 0.718517
0.738476 0.371008 0.72369
0.852064 0.390631 0.734676
0.0534371 0.358968 0.715404
0.139025 0.366415 0.715587
0.225681 0.397528 0.653498
0.291814 0.422202 0.633112
0.347738 0.436759 0.694362
0.499199 0.432395 0.758938
0.64387 0.444129 0.751431
0.769512 0.457359 0.754452
0.881285 0.473381 0.761868
0.0758221 0.477607 0.74847
0.165133 0.483833 0.748455
0.26273 0.500023 0.71989
0.349981 0.514199 0.716564
0.427359 0.534646 0.705974
0.515648 0.54081 0.783352
0.677882 0.543313 0.787381
0.803891 0.554177 0.789014
0.915831 0.568261 0.793317
0.0985733 0.596658 0.781735
0.191882 0.601068 0.788907
0.310826 0.605478 0.804211
0.411872 0.613184 0.812055
0.503304 0.628336 0.793454
0.581827 0.645991 0.792859
0.708034 0.651102 0.820478
0.837858 0.658534 0.824414
0.945754 0.673548 0.824002
0.127062 0.714641 0.813291
0.229252 0.718334 0.825467
0.371191 0.717357 0.869795
0.513115 0.71606 0.884611
0.605859 0.726741 0.862531
0.665888 0.74519 0.849714
0.746349 0.761059 0.848829
0.863127 0.76994 0.856306
0.970047 0.780667 0.85713
0.161608 0.830243 0.845075
0.277104 0.83444 0.858778
0.430457 0.834333 0.901473
0.644877 0.822492 0.911238
0.733455 0.827131 0.902296
0.774899 0.843885 0.899428
0.817502 0.864958 0.892699
0.892134 0.881819 0.887465
0.992996 0.890684 0.891295
0.198734 0.94107 0.879606
0.294759 0.946075 0.887144
0.45037 0.948882 0.909209
0.535897 0.95523 0.9131
0.627726 0.96173 0.917144
0.726192 0.968246 0.922072
0.836988 0.972168 0.928283
0.938735 0.978103 0.943511
0.999649 0.991775 0.952636
0.014023 0.0595102 0.574548
0.0745251 0.0653239 0.646021
0.176211 0.0728008 0.708583
0.285267 0.0845197 0.73431
0.393042 0.100175 0.743648
0.501198 0.117525 0.75198
0.610498 0.136721 0.761501
0.720714 0.157565 0.772259
0.819608 0.174441 0.782498
0.0124819 0.129534 0.721141
0.0894179 0.137499 0.736721
0.195529 0.150057 0.745892
0.301686 0.167239 0.755215
0.413138 0.183841 0.764477
0.523049 0.203052 0.774823
0.633356 0.224537 0.786404
0.745159 0.243977 0.797925
0.846143 0.260639 0.808118
0.0326543 0.244938 0.761975
0.114916 0.250645 0.767285
0.202548 0.310552 0.69752
0.251225 0.309056 0.760616
0.365332 0.315602 0.797284
0.497658 0.332357 0.806546
0.605951 0.360647 0.815534
0.737774 0.37734 0.815
0.856718 0.393866 0.823285
0.0563211 0.362509 0.792752
0.141833 0.367956 0.799176
0.235416 0.404868 0.740337
0.295888 0.436271 0.700954
0.344167 0.449363 0.761303
0.475532 0.445762 0.835004
0.62005 0.45771 0.842908
0.757153 0.469856 0.842603
0.886336 0.475746 0.852552
0.0785077 0.481239 0.827558
0.167514 0.486915 0.831342
0.265934 0.508797 0.792584
0.33344 0.524712 0.793088
0.399374 0.537942 0.826596
0.508202 0.547997 0.861784
0.651102 0.557244 0.870634
0.785901 0.566781 0.87602
0.917205 0.573541 0.883497
0.100572 0.600397 0.861982
0.191867 0.605158 0.867216
0.299519 0.6159 0.860212
0.357046 0.627756 0.871
0.450263 0.639673 0.886229
0.562341 0.651987 0.893187
0.684977 0.662089 0.902373
0.813153 0.671962 0.908339
0.947097 0.676707 0.915343
0.124392 0.719631 0.895949
0.217807 0.72369 0.902708
0.392889 0.724819 0.912062
0.474922 0.732723 0.915709
0.545708 0.744381 0.921965
0.628916 0.757214 0.928237
0.727428 0.769543 0.933608
0.852354 0.777096 0.940291
0.973587 0.782818 0.947021
0.154498 0.836423 0.927428
0.247974 0.841154 0.93431
0.499016 0.8365 0.942641
0.564416 0.843076 0.947509
0.633875 0.852079 0.953719
0.712978 0.862287 0.959869
0.795743 0.87451 0.965667
0.886839 0.887083 0.969207
0.995026 0.894209 0.975128
0.188006 0.948394 0.956222
0.300923 0.952621 0.962722
0.465187 0.952773 0.965682
0.534478 0.960922 0.970321
0.618692 0.968841 0.97525
0.714 0.976181 0.980026
0.825422 0.980453 0.982116
0.934859 0.985534 0.98584
1 0.997024 0.996765
