code/data/lut/35浓郁蓝调1.cube
TITLE "LD - Tonal Blue 1"
# Copyright (c) 2019 Lens Distortions, LLC. All Rights Reserved.
# LensDistortions.com
# ref-TB7
LUT_3D_SIZE 33
0.000762951 0.0209812 0.0376898
0.00669871 0.0239414 0.0416724
0.0139315 0.0271153 0.0459907
0.0246586 0.0307012 0.0509499
0.037171 0.0341955 0.055787
0.0524758 0.0378576 0.0607919
0.071458 0.0419013 0.0662547
0.0946517 0.0463569 0.0721294
0.12166 0.0509041 0.0779889
0.15108 0.0551461 0.0832532
0.181262 0.058732 0.0872816
0.211353 0.0615702 0.090135
0.242206 0.0641947 0.0923629
0.273793 0.0667277 0.0940719
0.305119 0.0692607 0.0953689
0.336645 0.0720226 0.0964675
0.367727 0.0750439 0.0973526
0.398199 0.0783398 0.0981155
0.427817 0.0818952 0.09897
0.456672 0.0858778 0.0999924
0.484718 0.0901656 0.101244
0.512489 0.0946365 0.102632
0.540215 0.0991531 0.104051
0.568276 0.103929 0.105623
0.59617 0.108629 0.10721
0.623804 0.11342 0.108751
0.651743 0.118486 0.110521
0.679591 0.123659 0.112306
0.70724 0.128832 0.114031
0.735027 0.134142 0.115801
0.75993 0.138354 0.117357
0.780438 0.140581 0.118441
0.798764 0.141878 0.119356
0.005066 0.0333257 0.0498054
0.0104219 0.0348058 0.0519112
0.0187991 0.0373541 0.0550851
0.0305028 0.040116 0.0589303
0.0450446 0.0440223 0.0639963
0.0643626 0.0491188 0.0703593
0.0879377 0.0544442 0.0768749
0.114199 0.0593576 0.082536
0.141772 0.0635233 0.0869154
0.169833 0.0670024 0.0900435
0.198566 0.0701305 0.0922408
0.22797 0.0730755 0.0939498
0.258045 0.0759747 0.0951858
0.288518 0.0788586 0.0961013
0.318639 0.0820172 0.0968643
0.349004 0.0854353 0.0976883
0.378912 0.089128 0.0985428
0.408194 0.09308 0.0995193
0.436713 0.0973068 0.10071
0.464881 0.101839 0.102129
0.492973 0.106538 0.10367
0.521035 0.111238 0.105257
0.549065 0.116152 0.106889
0.577173 0.121294 0.108644
0.605035 0.126375 0.110323
0.632853 0.131563 0.112001
0.660731 0.137072 0.113832
0.68864 0.142504 0.115633
0.716335 0.147951 0.117403
0.744198 0.153552 0.119249
0.768505 0.157549 0.120745
0.78851 0.159548 0.121752
0.806867 0.160769 0.122637
0.0075227 0.045716 0.0599985
0.0137331 0.0474556 0.0628061
0.0220035 0.0509499 0.0663462
0.0377661 0.0555276 0.0711376
0.0573129 0.0607462 0.0769055
0.0797894 0.0658732 0.0822309
0.10428 0.0705119 0.0865339
0.129854 0.0743877 0.0896468
0.15642 0.0778515 0.0920119
0.184314 0.081239 0.0938277
0.213321 0.0844739 0.0952163
0.242771 0.0875868 0.0962997
0.272816 0.0908217 0.0970779
0.302907 0.0941634 0.0979477
0.332738 0.0979019 0.0988632
0.362203 0.101793 0.0999161
0.391089 0.106096 0.101091
0.419318 0.11046 0.102327
0.447349 0.115099 0.103716
0.475593 0.119997 0.105241
0.503532 0.12488 0.106798
0.53138 0.129961 0.108415
0.559442 0.135302 0.110155
0.587472 0.140734 0.11194
0.615137 0.145968 0.113634
0.643061 0.151385 0.11545
0.670954 0.157031 0.117342
0.69868 0.162493 0.119081
0.726436 0.168017 0.120851
0.754437 0.173648 0.122652
0.777859 0.177111 0.123995
0.797452 0.178851 0.124956
0.815885 0.180117 0.125811
0.010544 0.066865 0.074876
0.0185855 0.0702373 0.080705
0.0271153 0.074815 0.0831311
0.0429541 0.0782177 0.0860761
0.0650187 0.0817121 0.0881361
0.0885634 0.0853132 0.0908675
0.114534 0.0887465 0.0932937
0.141756 0.0923171 0.0953078
0.16968 0.0956741 0.0967575
0.198535 0.0989395 0.0979477
0.228244 0.102174 0.0988937
0.257984 0.10547 0.0996262
0.287633 0.109026 0.100435
0.317082 0.112871 0.101411
0.345937 0.116991 0.10248
0.374609 0.121477 0.103792
0.402625 0.126101 0.105119
0.430579 0.13077 0.106508
0.45861 0.135576 0.107912
0.486702 0.140612 0.109316
0.51458 0.145708 0.11078
0.542489 0.150988 0.112367
0.570459 0.15639 0.114031
0.598337 0.161715 0.115618
0.626017 0.166903 0.117205
0.653925 0.172427 0.118975
0.681849 0.177951 0.120821
0.709361 0.18323 0.122484
0.737301 0.188785 0.124315
0.765484 0.194308 0.126085
0.7879 0.197299 0.127306
0.806928 0.198749 0.128191
0.825406 0.200031 0.129107
0.0143587 0.0940566 0.0914321
0.0237736 0.0961929 0.097612
0.0332036 0.0994888 0.0986191
0.0487068 0.102174 0.100221
0.0689097 0.105211 0.102129
0.0995804 0.107134 0.101686
0.125444 0.110826 0.101122
0.152834 0.114076 0.101808
0.181369 0.117357 0.10248
0.210681 0.120668 0.102998
0.240467 0.123995 0.103487
0.27013 0.127504 0.104189
0.299321 0.13138 0.105226
0.328023 0.135668 0.106462
0.356603 0.13991 0.107698
0.384863 0.144396 0.109026
0.413382 0.149111 0.110445
0.441535 0.153765 0.111925
0.469596 0.158541 0.113344
0.497597 0.163439 0.114748
0.525719 0.16849 0.116228
0.553735 0.173541 0.117617
0.581582 0.1785 0.118929
0.609415 0.183658 0.120256
0.637308 0.188922 0.121752
0.665171 0.194232 0.123262
0.693126 0.199435 0.124773
0.720897 0.204669 0.126207
0.748989 0.210101 0.127825
0.776898 0.215488 0.129442
0.798123 0.217853 0.13051
0.816922 0.219059 0.131212
0.835431 0.220264 0.132097
0.0185092 0.122148 0.104829
0.028809 0.124163 0.111437
0.0395514 0.126955 0.111711
0.0570993 0.129061 0.112688
0.076173 0.13196 0.115846
0.102174 0.134325 0.117968
0.135607 0.136522 0.111467
0.161151 0.140688 0.108629
0.189654 0.143923 0.108827
0.219532 0.146822 0.109468
0.24921 0.149798 0.109957
0.278431 0.153231 0.110704
0.307454 0.157107 0.111696
0.336477 0.161166 0.112795
0.365377 0.165209 0.114046
0.394141 0.169558 0.115358
0.422644 0.173632 0.116594
0.451118 0.178073 0.117952
0.479713 0.182757 0.119371
0.507942 0.187427 0.120806
0.53611 0.192248 0.122316
0.564126 0.196841 0.123705
0.592233 0.201709 0.125002
0.62034 0.206744 0.12636
0.648463 0.211765 0.127718
0.676463 0.2168 0.12903
0.704555 0.221729 0.130297
0.73257 0.226963 0.131502
0.760693 0.232059 0.132662
0.788556 0.237232 0.133883
0.808591 0.239033 0.134768
0.827344 0.240101 0.1355
0.845701 0.24126 0.136324
0.0241398 0.151278 0.116762
0.0344244 0.153323 0.122881
0.0465705 0.15555 0.122728
0.066453 0.15697 0.123659
0.0882734 0.159274 0.127275
0.110292 0.162448 0.13109
0.136751 0.16524 0.13373
0.167254 0.168978 0.119753
0.193744 0.172961 0.11635
0.223163 0.175647 0.116808
0.254887 0.17789 0.117983
0.285344 0.180621 0.118746
0.31458 0.183932 0.119265
0.343603 0.187564 0.119997
0.372534 0.191257 0.120882
0.401587 0.195285 0.122042
0.430747 0.199374 0.123278
0.459648 0.203555 0.124559
0.488289 0.207889 0.125933
0.516808 0.21207 0.127184
0.545434 0.216617 0.128634
0.573877 0.221225 0.130022
0.602426 0.225925 0.131472
0.630762 0.230594 0.132845
0.659022 0.235264 0.134127
0.687358 0.240162 0.1355
0.715663 0.245029 0.136736
0.743908 0.250019 0.137896
0.772229 0.254917 0.139055
0.800107 0.259785 0.140139
0.818982 0.26099 0.140871
0.837705 0.262165 0.14168
0.85594 0.263203 0.142473
0.0320745 0.179995 0.128161
0.0424048 0.181979 0.132952
0.0561074 0.183474 0.132891
0.0776532 0.184604 0.135042
0.100832 0.186587 0.138735
0.124102 0.189303 0.143786
0.145235 0.192844 0.147356
0.1673 0.197421 0.144335
0.197543 0.20148 0.128969
0.224964 0.205234 0.125216
0.255024 0.20795 0.12578
0.288029 0.209659 0.127169
0.320317 0.211749 0.128145
0.350347 0.214694 0.128542
0.379355 0.21825 0.128954
0.40827 0.221912 0.129595
0.437507 0.225727 0.130526
0.466697 0.229618 0.131594
0.495659 0.233631 0.132769
0.524849 0.237797 0.134096
0.553826 0.242023 0.135378
0.582544 0.246281 0.136538
0.611475 0.250706 0.137957
0.640223 0.255146 0.139254
0.66894 0.259739 0.140551
0.697536 0.264332 0.141863
0.726116 0.269001 0.143069
0.754742 0.273838 0.144381
0.783093 0.278523 0.145632
0.8103 0.282856 0.146838
0.829099 0.283909 0.147555
0.847822 0.284886 0.148241
0.866224 0.286 0.149096
0.0427253 0.207675 0.13991
0.0533608 0.209415 0.143542
0.0685588 0.210773 0.144442
0.0902113 0.21181 0.14728
0.113603 0.213718 0.15079
0.136858 0.216434 0.155535
0.15816 0.219806 0.159792
0.177386 0.224384 0.161135
0.197787 0.230274 0.150484
0.227207 0.234058 0.138186
0.255726 0.237522 0.134722
0.286885 0.239887 0.135119
0.320577 0.241596 0.136675
0.354223 0.243198 0.138186
0.385687 0.245716 0.13875
0.41503 0.249226 0.138705
0.444068 0.252735 0.138964
0.473182 0.256306 0.139467
0.50248 0.26006 0.140307
0.531853 0.263951 0.14136
0.56109 0.267948 0.142443
0.590433 0.272023 0.143648
0.619684 0.276234 0.144854
0.648692 0.280385 0.145953
0.677821 0.284733 0.147173
0.706767 0.289219 0.148455
0.735637 0.293645 0.149706
0.764523 0.298207 0.150942
0.793072 0.302739 0.152102
0.81976 0.3066 0.153231
0.838804 0.307546 0.153918
0.857633 0.308431 0.154665
0.87599 0.309377 0.155505
0.0542763 0.234623 0.151629
0.065507 0.236454 0.154543
0.0818036 0.237751 0.156741
0.103197 0.238941 0.159991
0.126131 0.240833 0.163134
0.149096 0.243534 0.167269
0.170626 0.247028 0.171984
0.190051 0.251255 0.173404
0.207492 0.256977 0.169406
0.229618 0.262684 0.155703
0.258106 0.266255 0.146441
0.2878 0.269306 0.144381
0.319539 0.271763 0.145068
0.352926 0.273655 0.146715
0.387015 0.27512 0.148653
0.419867 0.276905 0.149813
0.450492 0.279911 0.149706
0.479881 0.283497 0.149386
0.509224 0.287114 0.149508
0.538506 0.290791 0.149935
0.56791 0.294286 0.150484
0.59733 0.298299 0.151324
0.627085 0.30222 0.152255
0.656519 0.30631 0.153353
0.685863 0.310506 0.154467
0.715038 0.314611 0.155535
0.744152 0.318853 0.156664
0.773297 0.323217 0.157809
0.802335 0.327642 0.158984
0.828626 0.331197 0.160021
0.847684 0.331868 0.160616
0.866789 0.332692 0.161349
0.885298 0.333623 0.162188
0.0657969 0.261524 0.16286
0.0778973 0.263386 0.165545
0.0953994 0.264622 0.168872
0.116213 0.265888 0.17258
0.138491 0.26807 0.175875
0.161212 0.270848 0.179095
0.182528 0.274281 0.183215
0.202518 0.278416 0.186252
0.220081 0.283711 0.181491
0.238056 0.28983 0.172717
0.262104 0.294575 0.160937
0.290303 0.298192 0.1552
0.320699 0.300938 0.154559
0.352865 0.303181 0.155749
0.385916 0.305287 0.157397
0.419821 0.30692 0.159487
0.453635 0.308461 0.161318
0.48574 0.31078 0.161822
0.515526 0.314046 0.160922
0.544991 0.317708 0.160449
0.574685 0.32134 0.160372
0.604242 0.325124 0.160601
0.633646 0.328756 0.160876
0.663279 0.332509 0.161593
0.692927 0.336492 0.162478
0.722362 0.340566 0.163378
0.75198 0.344732 0.164309
0.781399 0.348898 0.165362
0.810513 0.353109 0.16643
0.836561 0.356252 0.16733
0.856168 0.357061 0.167956
0.875334 0.357717 0.168566
0.894209 0.358587 0.169253
0.0773938 0.28864 0.175326
0.0898604 0.290425 0.178119
0.108354 0.291493 0.181277
0.128908 0.293065 0.185412
0.150759 0.295399 0.189075
0.17322 0.298222 0.192294
0.194446 0.301625 0.196033
0.214511 0.305577 0.198566
0.232959 0.310643 0.19733
0.250217 0.316732 0.189548
0.270314 0.32253 0.179477
0.296147 0.326589 0.17142
0.325063 0.329595 0.167239
0.355291 0.332326 0.166339
0.386435 0.334829 0.167224
0.418769 0.337041 0.168597
0.452415 0.338857 0.170352
0.486946 0.340215 0.172442
0.520455 0.341955 0.173831
0.551507 0.344762 0.173541
0.580972 0.348363 0.172366
0.610636 0.35201 0.17174
0.640223 0.355627 0.171527
0.669856 0.359411 0.171527
0.699626 0.363165 0.171878
0.729244 0.366949 0.172351
0.758801 0.370901 0.172976
0.788373 0.374807 0.173754
0.817914 0.378943 0.174609
0.843885 0.381888 0.175357
0.864179 0.382742 0.175814
0.883543 0.383413 0.176349
0.902281 0.383917 0.176806
0.0891585 0.315892 0.189136
0.101549 0.3178 0.192004
0.120638 0.31873 0.194873
0.141405 0.320424 0.198703
0.16318 0.322881 0.202579
0.185046 0.325673 0.206546
0.206317 0.329061 0.210391
0.226688 0.333089 0.213306
0.24567 0.33785 0.213535
0.263249 0.343526 0.208591
0.281147 0.349508 0.198749
0.303105 0.354589 0.189532
0.329885 0.358114 0.18291
0.359091 0.361151 0.17908
0.389151 0.364004 0.177722
0.420066 0.366629 0.178302
0.452186 0.368948 0.179614
0.485603 0.370871 0.181216
0.519829 0.372381 0.183337
0.554116 0.373754 0.185412
0.586786 0.375769 0.186069
0.616907 0.37908 0.184848
0.646555 0.382635 0.183856
0.676188 0.386297 0.183139
0.705821 0.390082 0.18294
0.735653 0.393851 0.182757
0.765316 0.397498 0.182925
0.794919 0.401266 0.183307
0.82472 0.405219 0.18378
0.85069 0.408011 0.184253
0.871626 0.409064 0.184512
0.89099 0.409461 0.184787
0.909514 0.41004 0.185229
0.100984 0.343343 0.203311
0.113085 0.345312 0.206226
0.13254 0.346212 0.209201
0.15314 0.348058 0.212955
0.174838 0.350484 0.217227
0.196826 0.353491 0.2215
0.21828 0.356847 0.225208
0.238895 0.360678 0.228092
0.258183 0.365148 0.229084
0.276066 0.370321 0.226398
0.293492 0.376333 0.218418
0.312764 0.382193 0.207187
0.336339 0.386648 0.199771
0.363912 0.38999 0.19379
0.392798 0.392828 0.189853
0.422644 0.395712 0.188479
0.453452 0.398474 0.189197
0.485618 0.4009 0.190555
0.518883 0.40296 0.19205
0.552956 0.404532 0.193957
0.587427 0.405859 0.196231
0.621485 0.40734 0.197955
0.652827 0.409979 0.197559
0.682445 0.413458 0.19617
0.712032 0.416999 0.195209
0.741787 0.420676 0.1944
0.771557 0.424399 0.19408
0.801389 0.428183 0.194064
0.831205 0.431998 0.194186
0.857282 0.434531 0.194217
0.878782 0.43563 0.194232
0.898314 0.436133 0.194369
0.916182 0.436652 0.194491
0.112642 0.371008 0.217685
0.124422 0.373007 0.221012
0.143999 0.373739 0.223682
0.164721 0.375647 0.22742
0.186557 0.378256 0.231846
0.208728 0.381323 0.236149
0.230274 0.384665 0.23978
0.250889 0.38822 0.242451
0.27039 0.392462 0.243687
0.288685 0.397467 0.242451
0.306188 0.403204 0.236957
0.324163 0.409323 0.225742
0.345159 0.414542 0.214664
0.370047 0.41854 0.209201
0.397635 0.421622 0.203418
0.426291 0.424628 0.2
0.455909 0.427527 0.198825
0.487022 0.430137 0.199786
0.51928 0.432563 0.201373
0.552438 0.434745 0.20293
0.58616 0.436667 0.204654
0.620554 0.438239 0.20679
0.655192 0.439628 0.209033
0.68835 0.441276 0.209827
0.718578 0.444419 0.208713
0.748104 0.447822 0.207324
0.777691 0.451469 0.206271
0.807324 0.455131 0.205585
0.837125 0.458717 0.205219
0.863737 0.461372 0.204852
0.885786 0.462684 0.204593
0.905379 0.463233 0.204395
0.922026 0.463569 0.204105
0.124056 0.398764 0.232105
0.135531 0.400534 0.235111
0.155627 0.401404 0.237858
0.176593 0.403464 0.241764
0.198581 0.406165 0.246235
0.220569 0.409216 0.250568
0.2421 0.412375 0.253971
0.262867 0.415946 0.25658
0.282551 0.42002 0.258106
0.301167 0.424811 0.257511
0.318776 0.430289 0.253468
0.336309 0.436179 0.244862
0.355398 0.442054 0.231769
0.378088 0.446815 0.222766
0.4038 0.450416 0.218189
0.431632 0.453376 0.212924
0.460258 0.45623 0.210391
0.489662 0.459159 0.20943
0.520607 0.46186 0.210452
0.55288 0.464317 0.212192
0.58587 0.46659 0.213657
0.619562 0.468528 0.215213
0.653696 0.470298 0.217166
0.68838 0.471763 0.219562
0.722957 0.473152 0.221805
0.754574 0.475685 0.221424
0.784161 0.478828 0.219715
0.813809 0.482261 0.218112
0.843275 0.485878 0.21706
0.870268 0.488685 0.21622
0.89247 0.489998 0.215412
0.912062 0.490425 0.214832
0.927611 0.490761 0.214389
0.135271 0.426474 0.246479
0.147051 0.428244 0.249241
0.167178 0.429206 0.252064
0.188251 0.431312 0.255909
0.210468 0.433982 0.260243
0.232349 0.437018 0.264729
0.254017 0.440238 0.268025
0.274861 0.443732 0.270863
0.294728 0.447669 0.272801
0.313466 0.452094 0.272663
0.331258 0.457328 0.269627
0.348623 0.463188 0.262486
0.366751 0.469245 0.250996
0.387594 0.474647 0.239658
0.411551 0.479011 0.231922
0.437919 0.482231 0.227222
0.465797 0.485161 0.223514
0.494377 0.488075 0.221469
0.523705 0.49099 0.220356
0.554635 0.493675 0.221012
0.586755 0.495995 0.222705
0.619608 0.498299 0.224262
0.652918 0.50045 0.225635
0.686778 0.502358 0.227527
0.721202 0.50396 0.229923
0.756176 0.505196 0.232364
0.789776 0.506935 0.233585
0.820294 0.509987 0.232136
0.849943 0.513451 0.230503
0.877577 0.516411 0.228962
0.899367 0.517433 0.227314
0.919081 0.518105 0.226261
0.93315 0.518425 0.22533
0.146426 0.454414 0.260914
0.158572 0.456062 0.263661
0.178607 0.457176 0.266575
0.199756 0.45919 0.270268
0.222293 0.461967 0.274495
0.244236 0.464958 0.278752
0.265782 0.468132 0.2822
0.286687 0.47155 0.285344
0.306676 0.475227 0.287556
0.32575 0.479591 0.288121
0.343893 0.484611 0.285924
0.361273 0.490288 0.280079
0.378897 0.496361 0.270481
0.398138 0.502083 0.258747
0.42031 0.507027 0.248631
0.445167 0.511055 0.241703
0.472099 0.514229 0.237247
0.500206 0.517143 0.23447
0.528756 0.519905 0.2327
0.558114 0.522805 0.231418
0.588739 0.525444 0.231769
0.620569 0.527871 0.233371
0.653178 0.530175 0.234958
0.686412 0.53225 0.236255
0.720043 0.534249 0.237858
0.754253 0.535973 0.239963
0.789029 0.537408 0.242542
0.823941 0.538628 0.245151
0.855924 0.540917 0.244587
0.884932 0.543984 0.242603
0.906447 0.545022 0.240482
0.925917 0.545769 0.238651
0.938277 0.546075 0.23711
0.157412 0.482383 0.275349
0.16997 0.483833 0.278019
0.190097 0.485145 0.281086
0.211414 0.487312 0.284932
0.233875 0.490043 0.289128
0.255894 0.492958 0.293065
0.277363 0.495949 0.29662
0.298344 0.499306 0.29987
0.3187 0.503014 0.302434
0.338048 0.507195 0.303563
0.356405 0.511971 0.302296
0.374014 0.517433 0.297871
0.391363 0.523339 0.289677
0.409659 0.529427 0.278676
0.430289 0.534997 0.267338
0.453529 0.539528 0.258106
0.479088 0.543145 0.251774
0.506249 0.546044 0.247837
0.534264 0.548821 0.245457
0.56286 0.551675 0.243732
0.592233 0.554543 0.242313
0.622904 0.557321 0.242451
0.654643 0.559762 0.243992
0.687099 0.562081 0.24564
0.719875 0.564202 0.246815
0.75314 0.566186 0.248188
0.787121 0.568017 0.250095
0.821851 0.569482 0.252476
0.857038 0.570718 0.255116
0.890776 0.572381 0.256428
0.913268 0.572992 0.254963
0.932784 0.573571 0.252613
0.943236 0.573754 0.250492
0.168383 0.510307 0.28986
0.181643 0.511833 0.292622
0.201526 0.513237 0.295674
0.222889 0.51545 0.299535
0.245319 0.518151 0.3037
0.267338 0.520882 0.307622
0.288975 0.523934 0.311254
0.310033 0.52723 0.314473
0.330556 0.530831 0.317189
0.350164 0.534874 0.318746
0.368811 0.539376 0.318303
0.386679 0.54461 0.315114
0.404135 0.5505 0.308354
0.421866 0.556664 0.29839
0.441032 0.562509 0.286702
0.462577 0.567437 0.275853
0.486702 0.571572 0.267689
0.512825 0.574945 0.261967
0.540291 0.577844 0.258625
0.568429 0.580591 0.256291
0.597055 0.583307 0.25449
0.626429 0.586175 0.253056
0.656809 0.588952 0.252811
0.688396 0.591531 0.254368
0.720806 0.593942 0.256275
0.75378 0.596155 0.25742
0.786999 0.598276 0.258793
0.820523 0.600092 0.26038
0.854765 0.601709 0.262577
0.889677 0.603006 0.265217
0.917815 0.602335 0.267689
0.939345 0.601633 0.267063
0.948043 0.601724 0.265339
0.179461 0.538415 0.304417
0.193256 0.539895 0.307195
0.212848 0.541344 0.310307
0.234302 0.543465 0.314046
0.256718 0.54612 0.318135
0.278813 0.548943 0.322072
0.300435 0.551965 0.325765
0.321569 0.555215 0.329076
0.34226 0.558709 0.331899
0.362142 0.562554 0.333684
0.381231 0.567041 0.333974
0.399405 0.572106 0.331838
0.416922 0.577722 0.326543
0.434256 0.583734 0.317769
0.452399 0.589624 0.30631
0.472572 0.595132 0.294591
0.495338 0.599802 0.284627
0.52018 0.603616 0.277256
0.54667 0.60679 0.272328
0.574243 0.609506 0.269123
0.602457 0.612177 0.266941
0.631144 0.615 0.265293
0.660594 0.617868 0.263691
0.690806 0.620661 0.26331
0.72221 0.623148 0.26453
0.754513 0.625589 0.266423
0.787228 0.627924 0.26775
0.820386 0.630106 0.268925
0.853986 0.63209 0.270573
0.888106 0.633707 0.272526
0.919448 0.634379 0.274891
0.94258 0.632624 0.277226
0.951949 0.630793 0.280156
0.190478 0.566583 0.318959
0.2047 0.568017 0.321736
0.224216 0.569406 0.324804
0.245823 0.571603 0.328603
0.26804 0.574228 0.332616
0.290135 0.577035 0.336477
0.311772 0.580056 0.340185
0.332998 0.583154 0.343542
0.353918 0.586587 0.346471
0.374121 0.590448 0.348608
0.393469 0.594827 0.349386
0.411917 0.59968 0.348119
0.429496 0.604898 0.343877
0.446738 0.610681 0.3364
0.464424 0.616754 0.325917
0.483421 0.622568 0.313863
0.504662 0.62771 0.302556
0.528176 0.631922 0.293477
0.553597 0.635462 0.286961
0.580438 0.638514 0.28249
0.608347 0.641291 0.279683
0.636667 0.643946 0.277562
0.665431 0.646662 0.275883
0.694697 0.649531 0.274342
0.724697 0.652293 0.273487
0.755871 0.654871 0.27454
0.78822 0.657282 0.276585
0.820874 0.659632 0.277943
0.85391 0.661753 0.279072
0.887312 0.663813 0.280446
0.920943 0.665614 0.282353
0.944091 0.664607 0.284153
0.95584 0.662669 0.287358
0.20145 0.594675 0.333471
0.216052 0.596048 0.336217
0.235477 0.597543 0.339254
0.25713 0.599725 0.343008
0.279332 0.60235 0.347005
0.301366 0.605142 0.350881
0.323125 0.608042 0.354543
0.344488 0.611246 0.357961
0.365484 0.614633 0.361044
0.385946 0.618448 0.363424
0.405554 0.622644 0.364569
0.42414 0.627115 0.363836
0.442023 0.632212 0.360601
0.459327 0.637812 0.354437
0.476616 0.643778 0.345144
0.494789 0.64976 0.333562
0.514733 0.655207 0.321462
0.536965 0.659998 0.31078
0.561379 0.664042 0.302632
0.587381 0.667491 0.296681
0.614542 0.670436 0.292714
0.642557 0.673152 0.29015
0.670939 0.675776 0.288167
0.699641 0.678492 0.286488
0.728954 0.68127 0.284672
0.758831 0.684077 0.283406
0.789822 0.686564 0.284245
0.821912 0.68893 0.286534
0.854475 0.69131 0.287953
0.887312 0.693538 0.289006
0.91986 0.695369 0.29012
0.946136 0.695537 0.29163
0.960403 0.694316 0.293935
0.21239 0.622858 0.347951
0.227115 0.62417 0.350622
0.246571 0.625681 0.353674
0.268421 0.627863 0.357412
0.290593 0.63035 0.361273
0.312642 0.633143 0.365133
0.334386 0.636103 0.368841
0.355825 0.639338 0.372366
0.377035 0.642786 0.375647
0.397635 0.646357 0.378149
0.417441 0.650309 0.379446
0.436301 0.654673 0.379263
0.454383 0.659571 0.376989
0.471824 0.664973 0.372
0.488945 0.670695 0.363775
0.5066 0.676768 0.353017
0.525673 0.682658 0.340795
0.54667 0.687922 0.329076
0.569894 0.69247 0.319387
0.594842 0.696178 0.311864
0.62118 0.699382 0.306432
0.648585 0.702251 0.302846
0.676677 0.704906 0.30042
0.705043 0.707469 0.298466
0.733791 0.710155 0.296712
0.762997 0.71284 0.294835
0.792737 0.715648 0.293309
0.823606 0.718273 0.293889
0.855726 0.720653 0.296254
0.88809 0.722972 0.297841
0.920119 0.724926 0.298802
0.948333 0.726055 0.299779
0.965301 0.725429 0.301564
0.223301 0.651072 0.362387
0.238132 0.652262 0.36492
0.25771 0.653788 0.367971
0.279515 0.655879 0.371664
0.301778 0.658473 0.375616
0.323842 0.661234 0.379416
0.345602 0.664225 0.383154
0.367254 0.667506 0.386786
0.388479 0.670817 0.390036
0.409155 0.674281 0.392706
0.429099 0.678065 0.394247
0.448234 0.682292 0.394415
0.466575 0.687007 0.392844
0.484184 0.692119 0.388785
0.501503 0.697826 0.381918
0.518853 0.703853 0.372168
0.537057 0.709895 0.360281
0.556939 0.715572 0.348013
0.578882 0.720439 0.336828
0.602777 0.72462 0.327871
0.628351 0.728161 0.321065
0.655009 0.731212 0.316075
0.68249 0.733959 0.312917
0.710491 0.736385 0.310353
0.738903 0.738933 0.308461
0.767681 0.741604 0.306783
0.796994 0.744396 0.304768
0.826703 0.747173 0.303075
0.85742 0.749722 0.303395
0.889296 0.752209 0.305715
0.921431 0.754498 0.3075
0.951049 0.756191 0.308415
0.969329 0.756268 0.313924
0.234318 0.679377 0.376913
0.248768 0.680262 0.379187
0.26862 0.681773 0.382223
0.290562 0.684001 0.385962
0.312856 0.686595 0.389883
0.335088 0.689418 0.393759
0.356924 0.692348 0.397467
0.378485 0.695552 0.400977
0.399634 0.698817 0.404166
0.420432 0.702205 0.406897
0.440589 0.705882 0.408774
0.460044 0.70988 0.409323
0.47866 0.714397 0.408194
0.49659 0.719493 0.405112
0.51397 0.725017 0.399405
0.531212 0.730968 0.390829
0.548867 0.73695 0.37969
0.567773 0.742824 0.367315
0.588586 0.74818 0.355108
0.611337 0.752773 0.344656
0.635843 0.756649 0.336431
0.661738 0.759976 0.33019
0.688609 0.762783 0.325734
0.716274 0.765499 0.322606
0.744472 0.768032 0.320211
0.7729 0.77052 0.318456
0.801709 0.773159 0.316701
0.8309 0.77583 0.314687
0.860578 0.778622 0.31284
0.891142 0.781277 0.312764
0.922866 0.783749 0.314824
0.952575 0.785626 0.316899
0.972457 0.786297 0.325719
0.245228 0.707668 0.391424
0.259434 0.708354 0.393378
0.279561 0.70988 0.396445
0.301671 0.712154 0.400214
0.32398 0.714778 0.404089
0.346181 0.71754 0.40795
0.368078 0.720562 0.411688
0.389578 0.723644 0.415137
0.410758 0.726818 0.418296
0.431708 0.730175 0.421042
0.451972 0.733654 0.423072
0.471687 0.737621 0.424094
0.490608 0.742 0.423514
0.508827 0.746929 0.421164
0.52636 0.752285 0.416403
0.543648 0.757992 0.408911
0.561013 0.764019 0.398764
0.579171 0.769985 0.386709
0.598825 0.775601 0.374105
0.620401 0.780606 0.362387
0.643854 0.784787 0.352605
0.66891 0.788464 0.345037
0.695262 0.791638 0.3393
0.722393 0.794491 0.335134
0.750149 0.797116 0.33228
0.778256 0.799466 0.329992
0.806745 0.801938 0.328206
0.835538 0.804547 0.326421
0.864836 0.807294 0.324331
0.894499 0.81004 0.322408
