code/data/lut/35浓郁蓝调2.cube
TITLE "LD - Tonal Blue 2"
# Copyright (c) 2019 Lens Distortions, LLC. All Rights Reserved.
# LensDistortions.com
# ref-TB7
LUT_3D_SIZE 33
0.0167849 0.0322728 0.0455024
0.0197757 0.0341802 0.0481575
0.0234836 0.0362554 0.0510719
0.0288396 0.0385595 0.0542153
0.035523 0.041001 0.0576791
0.0437934 0.0436103 0.0614023
0.0547494 0.0468299 0.0657969
0.0689555 0.0506294 0.0709697
0.0867475 0.0550698 0.0769513
0.107637 0.0595407 0.0827802
0.130068 0.063508 0.087892
0.153079 0.0669413 0.0918593
0.177707 0.070222 0.0954299
0.203937 0.0735027 0.0983597
0.2309 0.0768139 0.101167
0.258579 0.0801556 0.103456
0.286275 0.0836805 0.105379
0.313726 0.0874189 0.10724
0.340658 0.0912947 0.108888
0.367041 0.0953994 0.110491
0.393225 0.0996872 0.112215
0.419196 0.104219 0.113924
0.445365 0.108812 0.115785
0.471763 0.11371 0.117845
0.498024 0.118471 0.119738
0.524193 0.123537 0.121706
0.551415 0.128283 0.123522
0.578653 0.133059 0.12517
0.605829 0.137789 0.126802
0.633158 0.142565 0.128359
0.657542 0.146654 0.129824
0.677516 0.149035 0.130816
0.695415 0.150668 0.131579
0.0193942 0.0395666 0.0533761
0.0219883 0.0406195 0.0548562
0.0262913 0.0423896 0.0571603
0.0324407 0.0443732 0.0599985
0.0402838 0.0471656 0.0637827
0.0509651 0.0510109 0.0688029
0.0657206 0.0555581 0.0748455
0.0829328 0.0602426 0.0807965
0.102098 0.0646525 0.0855726
0.12253 0.0685893 0.0898146
0.144213 0.0721599 0.0935378
0.167544 0.0756085 0.096788
0.19202 0.0792096 0.0994888
0.21767 0.0828717 0.102007
0.243839 0.0865797 0.104295
0.270497 0.090425 0.106188
0.297429 0.0945144 0.108217
0.324208 0.0987411 0.110109
0.350317 0.103105 0.111894
0.376333 0.107805 0.113939
0.402182 0.112718 0.115984
0.428275 0.117647 0.118166
0.45452 0.122774 0.120424
0.48159 0.127749 0.12221
0.508446 0.132601 0.124071
0.535363 0.137392 0.125765
0.562417 0.142382 0.127382
0.589792 0.14757 0.129229
0.617044 0.152743 0.131136
0.644511 0.157916 0.132891
0.668559 0.161852 0.134157
0.688319 0.16408 0.135103
0.706081 0.165545 0.135714
0.0211337 0.0471046 0.0604562
0.0242008 0.0482643 0.0623789
0.0286107 0.0506294 0.0652476
0.0371099 0.0540322 0.069398
0.0478828 0.0581674 0.0741588
0.0617227 0.0628672 0.0797894
0.0776684 0.0673991 0.0846418
0.0949111 0.0715038 0.088304
0.113619 0.0753338 0.0916609
0.134401 0.0790875 0.0950027
0.157214 0.0827039 0.0979629
0.181003 0.0863813 0.100755
0.205905 0.0903944 0.103243
0.231922 0.0944533 0.105562
0.258457 0.0986191 0.107744
0.284688 0.102953 0.10988
0.310674 0.107637 0.112123
0.335958 0.112352 0.114092
0.361486 0.117327 0.116258
0.387518 0.122438 0.118532
0.413779 0.127367 0.120562
0.440284 0.132403 0.122499
0.46717 0.137438 0.124437
0.49395 0.142611 0.12636
0.520668 0.14757 0.128161
0.547784 0.152789 0.130022
0.575113 0.158053 0.131914
0.602289 0.163302 0.133669
0.62974 0.168597 0.13547
0.657618 0.173938 0.137331
0.680751 0.177447 0.138506
0.699962 0.179461 0.139391
0.718029 0.181033 0.140032
0.0235142 0.0603037 0.0721752
0.027924 0.0630808 0.076936
0.0326848 0.0665751 0.080293
0.0415351 0.0699168 0.083299
0.0542 0.073518 0.0859541
0.0688487 0.0771649 0.0892348
0.0859693 0.0807965 0.0923018
0.104601 0.0847181 0.0953841
0.125048 0.0885939 0.0978256
0.147982 0.092195 0.100633
0.172076 0.0960403 0.103288
0.196674 0.0999466 0.105547
0.221942 0.104173 0.107866
0.247456 0.108629 0.110262
0.272602 0.113375 0.112535
0.297856 0.118471 0.114946
0.323171 0.123522 0.117266
0.348821 0.128481 0.119402
0.374578 0.133288 0.121431
0.400916 0.138354 0.12343
0.42707 0.14342 0.125383
0.453773 0.148608 0.127352
0.480522 0.153811 0.129076
0.507515 0.158999 0.130922
0.534188 0.164096 0.132616
0.56141 0.169421 0.134569
0.588769 0.174655 0.136324
0.61593 0.179889 0.13814
0.643702 0.185336 0.140063
0.671748 0.190646 0.141848
0.694087 0.193896 0.143053
0.712795 0.195666 0.143709
0.730846 0.19733 0.144442
0.0270237 0.0802014 0.0887922
0.0324254 0.0821851 0.0943923
0.0376287 0.0850996 0.095964
0.0465705 0.087892 0.0979629
0.0587167 0.090959 0.100252
0.0777447 0.0937057 0.100526
0.0952621 0.0975204 0.101747
0.115663 0.101183 0.103334
0.137789 0.104982 0.105196
0.161044 0.108858 0.107195
0.185489 0.112718 0.109239
0.210712 0.116838 0.111513
0.235904 0.121462 0.113863
0.260731 0.126467 0.116182
0.285664 0.131426 0.118685
0.310811 0.136431 0.12108
0.336507 0.141512 0.123339
0.362264 0.146319 0.125536
0.388144 0.151324 0.127672
0.414481 0.156359 0.129656
0.441093 0.161547 0.131518
0.467765 0.166522 0.133196
0.494255 0.17145 0.134798
0.521263 0.176623 0.136431
0.548409 0.181888 0.138186
0.575753 0.187152 0.139803
0.603189 0.192248 0.141451
0.630671 0.197421 0.143099
0.658839 0.202884 0.144823
0.686671 0.208255 0.146441
0.70782 0.211002 0.147585
0.726329 0.21265 0.148165
0.744549 0.214267 0.148836
0.0303197 0.102037 0.104173
0.0365148 0.103868 0.109865
0.043061 0.106279 0.111315
0.0538338 0.108385 0.113252
0.0655375 0.111681 0.115282
0.0820935 0.114778 0.116854
0.104952 0.117952 0.11313
0.124758 0.12221 0.112673
0.148348 0.125856 0.113207
0.172564 0.129549 0.114778
0.197635 0.133135 0.116609
0.222827 0.13724 0.118761
0.247547 0.141955 0.121004
0.272557 0.146807 0.123323
0.297673 0.151629 0.125765
0.323232 0.156451 0.128054
0.349111 0.160922 0.130098
0.375006 0.165774 0.132204
0.401495 0.170733 0.134371
0.427955 0.175769 0.136431
0.45452 0.180819 0.138186
0.481025 0.18555 0.139986
0.508141 0.190524 0.141756
0.535286 0.195636 0.14342
0.562737 0.200778 0.144961
0.590234 0.205844 0.146441
0.618067 0.210986 0.148043
0.645945 0.216373 0.149508
0.674083 0.221408 0.15079
0.702144 0.226673 0.152163
0.722072 0.228946 0.153033
0.74052 0.230655 0.153719
0.758663 0.232273 0.154467
0.034699 0.125811 0.11841
0.0409552 0.127794 0.123903
0.0486 0.129809 0.125643
0.0611582 0.131456 0.127352
0.0755932 0.134051 0.130571
0.0905623 0.138018 0.132113
0.109071 0.141726 0.133806
0.131899 0.145907 0.125093
0.154269 0.150011 0.123491
0.181033 0.152865 0.123644
0.207446 0.156161 0.125399
0.233295 0.159869 0.127306
0.258442 0.163928 0.129137
0.283452 0.1682 0.131029
0.308583 0.172747 0.13315
0.334524 0.177371 0.135409
0.360708 0.182086 0.137575
0.387091 0.186801 0.139696
0.413703 0.191546 0.141787
0.440208 0.195941 0.14342
0.46717 0.2009 0.14548
0.494347 0.205859 0.147372
0.521828 0.210864 0.149187
0.549218 0.215686 0.150759
0.576928 0.2206 0.152361
0.604959 0.225742 0.153948
0.632944 0.230945 0.155566
0.661051 0.236072 0.156909
0.689479 0.241276 0.158373
0.717586 0.246525 0.159762
0.736324 0.248188 0.160433
0.754757 0.249943 0.161242
0.7729 0.25156 0.161959
0.0413519 0.150301 0.132174
0.0480354 0.152071 0.137163
0.0572213 0.153521 0.139147
0.0715648 0.154925 0.142275
0.0873274 0.157656 0.145129
0.103258 0.161105 0.147921
0.118593 0.16527 0.149096
0.135363 0.170153 0.147494
0.158984 0.174548 0.137881
0.184237 0.17821 0.135561
0.21297 0.181048 0.134966
0.240742 0.183902 0.136614
0.267918 0.187259 0.138399
0.293812 0.191089 0.140154
0.319341 0.195392 0.141848
0.344976 0.199771 0.143786
0.371298 0.204273 0.145724
0.397848 0.208621 0.147524
0.424857 0.213138 0.149493
0.452232 0.217746 0.151476
0.479759 0.222293 0.153429
0.507057 0.226932 0.154955
0.534798 0.231785 0.15671
0.562783 0.236667 0.158389
0.590829 0.241718 0.160006
0.619043 0.246647 0.161563
0.64744 0.251637 0.163119
0.676081 0.25687 0.164813
0.704509 0.262074 0.16643
0.732036 0.26685 0.16791
0.750484 0.268498 0.168597
0.76907 0.270069 0.169223
0.787488 0.271809 0.170199
0.0508888 0.174258 0.146304
0.0581826 0.175967 0.150576
0.0685588 0.177325 0.153079
0.0834669 0.17879 0.157015
0.10013 0.181231 0.159838
0.117021 0.184695 0.161929
0.132464 0.188754 0.164096
0.146319 0.193881 0.164797
0.161852 0.199878 0.158831
0.186419 0.203983 0.150912
0.214466 0.207218 0.148516
0.245182 0.209583 0.146838
0.273793 0.21239 0.148165
0.301976 0.215442 0.150317
0.329198 0.218982 0.151949
0.35552 0.223163 0.153399
0.381765 0.227329 0.154757
0.408499 0.231495 0.156359
0.435752 0.235767 0.158083
0.46334 0.24004 0.159854
0.491035 0.24448 0.161547
0.519036 0.249134 0.163165
0.547387 0.253895 0.164889
0.575555 0.258595 0.166522
0.603906 0.263386 0.168048
0.632654 0.268406 0.169711
0.661372 0.27335 0.171389
0.690227 0.278477 0.173007
0.718868 0.283375 0.174441
0.745892 0.287861 0.176013
0.764645 0.289448 0.176684
0.783475 0.291081 0.177447
0.801724 0.292592 0.178195
0.0621653 0.198108 0.159838
0.0700847 0.199847 0.163806
0.0817273 0.201266 0.167971
0.0970169 0.202792 0.171984
0.113725 0.205158 0.174777
0.130358 0.208621 0.176989
0.146105 0.213046 0.179065
0.160586 0.217853 0.1794
0.173159 0.223804 0.177462
0.190082 0.229633 0.16939
0.215656 0.23331 0.163653
0.245991 0.236011 0.161776
0.278172 0.238392 0.159411
0.307179 0.241306 0.160525
0.33608 0.244129 0.162692
0.36437 0.247257 0.164645
0.391897 0.250889 0.165743
0.41912 0.255024 0.166735
0.446448 0.25922 0.168093
0.474144 0.263478 0.169421
0.502129 0.267567 0.170703
0.530251 0.272114 0.172122
0.55903 0.27657 0.173693
0.587976 0.281224 0.175463
0.616663 0.286122 0.17705
0.645502 0.290883 0.178531
0.674342 0.29572 0.17998
0.703655 0.300755 0.181582
0.732982 0.305821 0.18323
0.759365 0.310033 0.184543
0.778317 0.311345 0.185183
0.797177 0.312871 0.18584
0.815747 0.314595 0.186801
0.0742046 0.222049 0.173526
0.0831311 0.223789 0.177722
0.0957961 0.22533 0.182391
0.111086 0.226795 0.187274
0.127413 0.229679 0.18999
0.144289 0.233097 0.191562
0.160479 0.237171 0.193652
0.174365 0.242069 0.195148
0.186648 0.247745 0.192233
0.199741 0.254032 0.187442
0.220111 0.2589 0.180423
0.246662 0.262516 0.177203
0.278172 0.264973 0.175525
0.311482 0.26714 0.17258
0.341375 0.270008 0.173281
0.37055 0.272999 0.175463
0.399939 0.275898 0.177829
0.428977 0.279286 0.179263
0.456794 0.283024 0.179812
0.484642 0.287266 0.180468
0.513237 0.291508 0.181476
0.541756 0.295903 0.182666
0.570352 0.300145 0.183902
0.599405 0.304601 0.185367
0.628473 0.309209 0.186496
0.657618 0.314137 0.188022
0.687053 0.319097 0.189548
0.716426 0.324117 0.191073
0.745663 0.32903 0.192584
0.771878 0.332952 0.193759
0.791501 0.3346 0.194553
0.81059 0.335973 0.195132
0.82919 0.337499 0.195834
0.0873274 0.246265 0.18851
0.0964218 0.248157 0.192355
0.109957 0.249317 0.197299
0.12488 0.251225 0.202045
0.141299 0.254047 0.206043
0.158145 0.257496 0.207919
0.173632 0.261692 0.209674
0.188693 0.266255 0.210788
0.201587 0.271916 0.209766
0.213474 0.278294 0.205081
0.228977 0.284459 0.199588
0.251957 0.28867 0.195377
0.28043 0.2916 0.192721
0.31223 0.294148 0.190005
0.345586 0.296391 0.186404
0.376287 0.299077 0.186603
0.405692 0.302205 0.188312
0.436042 0.305043 0.190845
0.466133 0.308125 0.192996
0.495384 0.311772 0.193881
0.523568 0.315908 0.19408
0.552468 0.320165 0.19469
0.581323 0.324559 0.195514
0.610391 0.329076 0.196475
0.639612 0.333684 0.197513
0.668879 0.338201 0.198627
0.698543 0.342977 0.199954
0.728038 0.34786 0.201266
0.75787 0.352956 0.202777
0.784024 0.356756 0.203784
0.804181 0.358328 0.204334
0.823438 0.359747 0.204944
0.841764 0.360952 0.205493
0.0999924 0.270787 0.203479
0.10956 0.272694 0.207965
0.123583 0.273777 0.212955
0.139116 0.275792 0.218692
0.155276 0.278798 0.221698
0.171832 0.282139 0.224521
0.188418 0.286183 0.22652
0.203021 0.291051 0.228138
0.21677 0.296483 0.228336
0.228977 0.302739 0.225132
0.241779 0.309133 0.218784
0.25977 0.314611 0.214221
0.28423 0.318425 0.211353
0.313695 0.321538 0.208377
0.346197 0.324025 0.20412
0.380423 0.326192 0.200214
0.412116 0.328817 0.199924
0.441855 0.331991 0.201556
0.472282 0.335073 0.20383
0.503182 0.337987 0.206531
0.533761 0.341192 0.208164
0.562966 0.345266 0.208453
0.591882 0.349493 0.208637
0.621149 0.353918 0.209186
0.650477 0.358526 0.209995
0.680201 0.363104 0.210819
0.709834 0.367712 0.211749
0.739254 0.372381 0.212421
0.769421 0.37734 0.213596
0.795529 0.381094 0.214511
0.816495 0.382925 0.214984
0.835752 0.384176 0.215442
0.853513 0.385245 0.215839
0.113588 0.295567 0.219883
0.12311 0.29752 0.22414
0.137438 0.29865 0.228794
0.152605 0.300893 0.233982
0.168994 0.303639 0.239338
0.185748 0.307393 0.241932
0.20209 0.311513 0.24419
0.217853 0.316106 0.245518
0.23183 0.321538 0.245975
0.244511 0.327367 0.244358
0.256779 0.333913 0.239246
0.270893 0.340291 0.232059
0.290974 0.345235 0.229328
0.316884 0.348989 0.226978
0.34696 0.351949 0.222766
0.380407 0.354513 0.217899
0.41593 0.356588 0.214038
0.4486 0.359045 0.213275
0.478859 0.362387 0.214817
0.509575 0.365515 0.216953
0.540764 0.368566 0.21973
0.572412 0.371588 0.22208
0.602701 0.375219 0.22295
0.631907 0.379507 0.22295
0.661311 0.383719 0.22327
0.69102 0.388296 0.22359
0.720821 0.393042 0.224247
0.750622 0.397833 0.224964
0.780499 0.402564 0.22562
0.80679 0.406073 0.226261
0.828397 0.408225 0.226642
0.847364 0.409323 0.22681
0.864424 0.410391 0.226963
0.126925 0.320806 0.235874
0.135775 0.322805 0.240085
0.150484 0.323949 0.244984
0.166217 0.326055 0.250889
0.182834 0.329168 0.255482
0.199832 0.332876 0.25919
0.216938 0.337041 0.261234
0.232288 0.341527 0.26276
0.246601 0.346731 0.263569
0.259663 0.35256 0.262608
0.271626 0.359045 0.25919
0.285267 0.365606 0.252079
0.302464 0.371313 0.245396
0.323674 0.376089 0.244297
0.349676 0.379843 0.24155
0.38056 0.382971 0.236484
0.415122 0.385412 0.231067
0.452003 0.387213 0.227466
0.485557 0.389639 0.226642
0.516243 0.393027 0.228016
0.547127 0.396475 0.229969
0.578592 0.399756 0.23267
0.610681 0.40293 0.235492
0.642435 0.405936 0.237186
0.672312 0.410071 0.237461
0.701762 0.414221 0.237339
0.731426 0.418845 0.237461
0.761395 0.423529 0.237888
0.791394 0.428183 0.238376
0.818265 0.43183 0.238605
0.840101 0.433982 0.238605
0.858824 0.435111 0.238529
0.874372 0.43592 0.238407
0.13994 0.346319 0.251606
0.149325 0.348119 0.256199
0.164462 0.349477 0.261128
0.180224 0.351904 0.266773
0.196994 0.355062 0.272679
0.214237 0.358862 0.276204
0.230838 0.36289 0.278431
0.24686 0.367483 0.280079
0.261479 0.37258 0.280873
0.274861 0.378317 0.280461
0.287495 0.384558 0.277714
0.299794 0.391165 0.271519
0.314885 0.397498 0.263813
0.334569 0.402869 0.259449
0.35671 0.407446 0.259205
0.383185 0.411368 0.255619
0.415381 0.414282 0.250126
0.451011 0.416541 0.244541
0.488518 0.418341 0.241093
0.522805 0.420813 0.240146
0.553918 0.424094 0.241276
0.585153 0.427573 0.243076
0.616785 0.431113 0.245518
0.648997 0.434455 0.248478
0.681834 0.437522 0.251362
0.712932 0.44123 0.25214
0.742657 0.445243 0.251865
0.772732 0.449577 0.251637
0.802625 0.454185 0.251774
0.82974 0.458106 0.251606
0.851453 0.460227 0.251179
0.870192 0.461311 0.250843
0.883696 0.461769 0.250507
0.153658 0.372076 0.268009
0.162539 0.373999 0.271885
0.177905 0.375525 0.277012
0.19408 0.378058 0.283055
0.211429 0.381323 0.288823
0.228351 0.385046 0.29337
0.245548 0.389166 0.295537
0.261769 0.39382 0.297459
0.276448 0.398825 0.298909
0.290028 0.404242 0.29868
0.302571 0.410452 0.296513
0.315251 0.41706 0.29192
0.329213 0.423728 0.283604
0.347036 0.429618 0.277531
0.367834 0.434836 0.274601
0.390463 0.439246 0.274067
0.41735 0.443336 0.270604
0.451057 0.446159 0.264302
0.487739 0.44828 0.258488
0.525826 0.449912 0.254582
0.560693 0.452201 0.253361
0.592203 0.455497 0.254368
0.623423 0.459144 0.256031
0.655085 0.462791 0.258427
0.687144 0.466331 0.261219
0.720333 0.469413 0.264347
0.753002 0.472724 0.266361
0.783536 0.476783 0.266285
0.813672 0.481285 0.266026
0.841733 0.485283 0.265522
0.86276 0.48687 0.264546
0.880949 0.48806 0.263905
0.892668 0.488457 0.263096
0.166583 0.398535 0.283879
0.176379 0.40032 0.288136
0.192035 0.402014 0.293706
0.208316 0.404562 0.299641
0.225605 0.408026 0.305806
0.242893 0.41178 0.310384
0.259831 0.415839 0.31313
0.276005 0.420462 0.31516
0.291371 0.425345 0.316579
0.30544 0.430777 0.317006
0.318669 0.43682 0.315572
0.331273 0.443381 0.311345
0.344686 0.450156 0.304845
0.360037 0.456519 0.296605
0.379736 0.462119 0.292302
0.401312 0.467201 0.290318
0.424979 0.471702 0.289235
0.452567 0.475883 0.285649
0.487404 0.478492 0.278645
0.525307 0.480308 0.272526
0.56376 0.481819 0.268208
0.598932 0.484169 0.266865
0.630594 0.487419 0.267735
0.662043 0.490974 0.269108
0.693797 0.494652 0.271275
0.725917 0.49836 0.27396
0.758877 0.501747 0.27718
0.792508 0.504723 0.280095
0.824338 0.508309 0.280674
0.853605 0.512276 0.28014
0.87425 0.513787 0.278843
0.891142 0.514809 0.277775
0.901366 0.515312 0.276692
0.180362 0.425193 0.300557
0.190219 0.426932 0.304814
0.205844 0.428992 0.310231
0.222431 0.431769 0.316655
0.240101 0.435111 0.323201
0.25713 0.438895 0.327672
0.274205 0.442863 0.330694
0.291142 0.447303 0.332952
0.306401 0.452323 0.334997
0.320867 0.457694 0.335821
0.33434 0.463569 0.334905
0.347265 0.470054 0.332067
0.36022 0.476829 0.326009
0.375174 0.483528 0.318502
0.392905 0.489708 0.31136
0.413245 0.49514 0.307836
0.435233 0.500008 0.306401
0.459632 0.504356 0.30486
0.488045 0.5084 0.300526
0.523949 0.511055 0.292851
0.562921 0.512627 0.286519
0.602304 0.514076 0.281788
0.637797 0.516335 0.280171
0.669779 0.519615 0.281025
0.700984 0.523247 0.282353
0.732662 0.526925 0.284245
0.764782 0.530694 0.28658
0.797665 0.534188 0.289662
0.831388 0.537224 0.292729
0.863966 0.540413 0.294697
0.884749 0.541634 0.294286
0.900908 0.54226 0.292805
0.909255 0.542657 0.291722
0.194125 0.452262 0.317327
0.204562 0.454154 0.321447
0.220295 0.456291 0.32723
0.236789 0.459205 0.33373
0.25417 0.462684 0.340185
0.271565 0.466209 0.345663
0.288685 0.470344 0.348806
0.305333 0.47483 0.351385
0.321721 0.479637 0.353323
0.336492 0.484901 0.354421
0.350439 0.490562 0.354253
0.363638 0.496941 0.351888
0.376883 0.503731 0.347143
0.390509 0.510735 0.339818
0.406638 0.517235 0.332128
0.42594 0.522866 0.326238
0.446799 0.52813 0.323507
0.469383 0.532921 0.322347
0.494667 0.537362 0.320287
0.524468 0.541238 0.314992
0.561059 0.543709 0.306844
0.601175 0.545037 0.300374
0.640696 0.546365 0.29514
0.676463 0.54873 0.293431
0.708843 0.552132 0.294286
0.740551 0.555901 0.295613
0.772396 0.559686 0.297459
0.804318 0.563378 0.299565
0.836744 0.566903 0.302296
0.869123 0.56997 0.305379
0.893141 0.570504 0.308186
0.910002 0.570367 0.308553
0.915999 0.571359 0.309957
0.207782 0.479835 0.333989
0.219104 0.481682 0.33875
0.234302 0.48397 0.34432
0.250935 0.486854 0.350881
0.268513 0.490257 0.358373
0.285939 0.494057 0.363088
0.303227 0.498024 0.367193
0.320485 0.502403 0.369512
0.336614 0.507286 0.371786
0.352026 0.512398 0.373266
0.366369 0.518105 0.373465
0.380102 0.5243 0.372137
0.393408 0.530983 0.36846
0.406699 0.537911 0.362005
0.421515 0.544503 0.353414
0.439323 0.550698 0.346212
0.459648 0.556268 0.341634
0.48069 0.561502 0.339361
0.503548 0.566308 0.338613
0.52987 0.570565 0.335409
0.561105 0.574197 0.329412
0.598566 0.576593 0.321004
0.639582 0.577768 0.314412
0.679515 0.57908 0.308904
0.71548 0.581216 0.306554
0.748104 0.584665 0.307332
0.779919 0.58854 0.308797
0.811856 0.592371 0.310445
0.844007 0.596185 0.312428
0.874693 0.599313 0.314931
0.899672 0.601785 0.319509
0.915831 0.602029 0.325536
0.921569 0.601572 0.330617
0.222278 0.507729 0.351705
0.233387 0.509636 0.355917
0.248737 0.511788 0.361334
0.265476 0.5149 0.368338
0.282856 0.51838 0.37528
0.300374 0.521981 0.382116
0.317815 0.526101 0.385168
0.334829 0.530358 0.388159
0.351827 0.535073 0.390249
0.367651 0.540261 0.391974
0.382528 0.545922 0.39295
0.396536 0.55198 0.391989
0.41001 0.558251 0.388861
0.42327 0.565042 0.383246
0.437308 0.571984 0.375433
0.453376 0.578561 0.36701
0.47248 0.584497 0.360723
0.493324 0.589822 0.357015
0.514977 0.594995 0.355367
0.538125 0.599847 0.354543
0.565652 0.604166 0.350576
0.598169 0.607569 0.343679
0.636881 0.609613 0.335027
0.678157 0.610758 0.328496
0.718227 0.611948 0.322347
0.754726 0.614023 0.319554
0.787594 0.617502 0.320424
0.819547 0.621302 0.321813
0.851102 0.624949 0.323232
0.880232 0.628412 0.325917
0.904891 0.63299 0.334966
0.91989 0.634836 0.343313
0.92694 0.634623 0.349081
0.235782 0.535866 0.368475
0.247562 0.537728 0.373297
0.262821 0.540002 0.378943
0.279911 0.543175 0.385565
0.297337 0.546593 0.393317
0.314855 0.550362 0.399283
0.332464 0.554162 0.404181
0.350042 0.558587 0.406546
0.366964 0.56321 0.409064
0.383169 0.568429 0.411048
0.398459 0.573983 0.412055
0.412802 0.57966 0.41178
0.42652 0.585916 0.409339
0.439872 0.592599 0.404868
0.453437 0.599512 0.397757
0.468467 0.606302 0.388937
0.486351 0.612497 0.381201
0.50631 0.618341 0.375845
0.52755 0.623804 0.372854
0.54963 0.628977 0.37145
0.573007 0.63386 0.370489
0.601785 0.638041 0.365301
0.635859 0.641154 0.3579
0.675135 0.643061 0.349493
0.716579 0.643977 0.342458
0.757504 0.645014 0.335622
0.794614 0.646937 0.33228
0.827161 0.650355 0.333364
0.858137 0.653941 0.334874
0.884855 0.658106 0.340764
0.907378 0.663371 0.352621
0.92401 0.666773 0.3626
0.932464 0.667338 0.368307
0.25008 0.564263 0.386099
0.261982 0.56611 0.391012
0.277165 0.568383 0.396353
0.294453 0.571603 0.403326
0.312016 0.575006 0.410437
0.329519 0.578637 0.417792
0.347173 0.582666 0.422248
0.364889 0.586954 0.425589
0.382147 0.59176 0.427939
0.398795 0.596582 0.429862
0.41442 0.601892 0.431281
0.429038 0.607675 0.43122
0.443076 0.613748 0.429725
0.456779 0.620233 0.425971
0.470314 0.626932 0.419547
0.484306 0.633982 0.4112
0.500313 0.640772 0.402121
0.519921 0.646906 0.395697
0.540658 0.652689 0.391409
0.562112 0.65803 0.388693
0.58436 0.66305 0.387442
0.608026 0.667964 0.386252
0.638041 0.672007 0.379736
0.673609 0.674784 0.371954
0.713771 0.676356 0.363546
0.755138 0.677256 0.356512
0.796551 0.678172 0.349187
0.834455 0.679973 0.344869
0.864622 0.68336 0.347753
0.888701 0.688548 0.359945
0.910185 0.693996 0.372335
0.927947 0.69839 0.382391
0.938216 0.699672 0.387701
0.264134 0.592767 0.403677
0.275944 0.59469 0.408255
0.291432 0.596963 0.414038
0.308873 0.600061 0.420874
0.326604 0.603616 0.428412
0.344228 0.60737 0.435264
0.362036 0.611276 0.440986
0.380118 0.615686 0.444236
0.397772 0.620218 0.44686
0.41416 0.625055 0.449058
0.43003 0.630167 0.45034
0.445121 0.635721 0.450828
0.459602 0.641779 0.449683
0.473442 0.64802 0.446662
0.487098 0.65481 0.441596
0.500923 0.661799 0.433616
0.516075 0.668833 0.424613
0.533761 0.67538 0.416251
0.553811 0.681361 0.410468
0.574945 0.686946 0.40676
0.596765 0.692195 0.404456
0.619135 0.697246 0.403098
0.64303 0.702144 0.401389
0.674418 0.705806 0.393713
0.711391 0.708263 0.385565
0.752178 0.709514 0.377447
0.793851 0.710628 0.370245
0.834745 0.71162 0.363546
0.869169 0.713741 0.365942
0.892164 0.719173 0.379995
0.913527 0.724834 0.392401
0.932113 0.729732 0.402487
0.943191 0.731838 0.40882
0.278325 0.621729 0.421485
0.29044 0.623255 0.426184
0.305913 0.625589 0.431769
0.323232 0.628779 0.438575
0.341344 0.632471 0.446265
0.359197 0.636194 0.453498
0.376989 0.640131 0.459373
0.395102 0.644404 0.463188
0.412558 0.648936 0.465797
0.429862 0.653605 0.467781
0.445899 0.65861 0.469535
0.461158 0.66392 0.470054
0.475868 0.669764 0.469429
0.490242 0.676127 0.467338
0.504143 0.682795 0.462882
0.5178 0.68983 0.456031
0.531624 0.696834 0.446799
0.548257 0.703655 0.438102
0.567468 0.709987 0.430594
0.588113 0.715831 0.425589
0.609354 0.721325 0.422171
0.631342 0.726436 0.419959
0.653956 0.731334 0.418494
0.678294 0.736355 0.415854
0.711391 0.73994 0.407401
0.749584 0.741833 0.399268
0.790799 0.743114 0.391424
0.831617 0.744167 0.386069
0.868559 0.746059 0.386389
0.895476 0.749798 0.399405
0.916854 0.755261 0.411612
0.935347 0.760296 0.422171
0.947509 0.762966 0.429099
0.293019 0.650767 0.439979
0.30425 0.652125 0.443763
0.320317 0.654459 0.449409
0.337942 0.65774 0.456535
0.355886 0.661341 0.463966
0.374121 0.66511 0.47187
0.392126 0.669184 0.477638
0.410147 0.673259 0.482048
0.428244 0.677638 0.484489
0.445197 0.682307 0.4869
0.46154 0.68716 0.488609
0.47718 0.692439 0.489601
0.492271 0.698085 0.489296
0.506828 0.704326 0.487526
0.520943 0.710887 0.484138
0.535027 0.717739 0.478325
0.548806 0.724865 0.469978
0.563531 0.731899 0.460075
0.581262 0.738552 0.451621
0.601511 0.74464 0.445182
0.622293 0.750164 0.44062
0.643748 0.755596 0.43743
0.665949 0.760769 0.435401
0.689097 0.765805 0.433433
0.713741 0.770794 0.429984
0.748547 0.773754 0.421088
0.787854 0.775464 0.412955
0.828595 0.776776 0.407248
0.865965 0.778592 0.408911
