code/data/lut/35浓郁蓝调2.cube
TITLE "LD - Tonal Blue 2"
# Copyright (c) 2019 Lens Distortions, LLC. All Rights Reserved.
# LensDistortions.com
# ref-TB7
LUT_3D_SIZE 5
0.0167849 0.0322728 0.0455024
0.0867475 0.0550698 0.0769513
0.286275 0.0836805 0.105379
0.498024 0.118471 0.119738
0.695415 0.150668 0.131579
0.0508888 0.174258 0.146304
0.161852 0.199878 0.158831
0.381765 0.227329 0.154757
0.603906 0.263386 0.168048
0.801724 0.292592 0.178195
0.153658 0.372076 0.268009
0.276448 0.398825 0.298909
0.41735 0.443336 0.270604
0.687144 0.466331 0.261219
0.892668 0.488457 0.263096
0.264134 0.592767 0.403677
0.397772 0.620218 0.44686
0.516075 0.668833 0.424613
0.711391 0.708263 0.385565
0.943191 0.731838 0.40882
0.377569 0.821134 0.543343
0.519081 0.847822 0.59498
0.663722 0.886961 0.598428
0.799847 0.930968 0.542565
0.967132 0.951354 0.514549
0.0200504 0.0394598 0.085481
0.0963607 0.0630503 0.153048
0.291142 0.0885481 0.20444
0.492927 0.124407 0.226184
0.690379 0.161364 0.244953
0.0350195 0.189197 0.234668
0.166812 0.208423 0.248219
0.344274 0.246952 0.264652
0.543191 0.296803 0.302251
0.762753 0.344076 0.332204
0.124132 0.392462 0.334707
0.300816 0.411139 0.436072
0.431464 0.44828 0.40206
0.698833 0.470008 0.375677
0.88426 0.507881 0.410651
0.240482 0.612467 0.467323
0.452949 0.639948 0.59263
0.550744 0.669963 0.58117
0.729122 0.71133 0.558648
0.945815 0.736095 0.592493
0.35967 0.839719 0.609842
0.593408 0.868193 0.724254
0.707408 0.893019 0.734447
0.828351 0.930678 0.707805
0.968994 0.954452 0.648157
0.0227512 0.0477302 0.16347
0.107729 0.06981 0.277287
0.298756 0.0981003 0.342779
0.50132 0.134005 0.363836
0.701198 0.16965 0.384939
0.0351568 0.198718 0.365225
0.144594 0.232258 0.342535
0.349187 0.257176 0.398016
0.554101 0.305089 0.402975
0.77023 0.349035 0.443381
0.0983902 0.410819 0.449088
0.293828 0.42211 0.522454
0.437034 0.460227 0.488777
0.628748 0.503548 0.493584
0.858946 0.536736 0.526421
0.198749 0.636576 0.557916
0.43209 0.65478 0.667399
0.575723 0.681025 0.679149
0.732586 0.720592 0.641962
0.947555 0.746822 0.658579
0.318578 0.86482 0.687388
0.596689 0.881773 0.78378
0.71516 0.90277 0.797513
0.84651 0.933867 0.799558
0.971389 0.959014 0.778363
0.0249485 0.0552377 0.28368
0.123308 0.0739452 0.428733
0.308415 0.102815 0.491646
0.507134 0.144488 0.51107
0.710704 0.180529 0.535073
0.0403754 0.206729 0.511833
0.151263 0.261845 0.441978
0.292821 0.288396 0.541711
0.555093 0.322011 0.564385
0.78056 0.366766 0.584802
0.0903182 0.422721 0.594369
0.256443 0.442741 0.616999
0.412161 0.482643 0.605951
0.647211 0.507637 0.656382
0.865827 0.549691 0.650355
0.171481 0.656123 0.68716
0.407019 0.668696 0.781003
0.577676 0.693477 0.779278
0.734615 0.733593 0.748363
0.94107 0.765545 0.764416
0.274342 0.889113 0.795987
0.547784 0.902586 0.858122
0.692668 0.920867 0.871382
0.865141 0.940673 0.891478
0.974578 0.965347 0.90338
0.0268711 0.0630655 0.439277
0.136004 0.0777142 0.58471
0.31931 0.107362 0.633219
0.51603 0.14966 0.656779
0.718776 0.191592 0.681773
0.0451972 0.214252 0.654368
0.1738 0.28336 0.588129
0.293019 0.303014 0.673365
0.523339 0.347753 0.736477
0.783917 0.387945 0.748974
0.0953689 0.431754 0.741543
0.251987 0.467353 0.716548
0.368215 0.504143 0.752682
0.588632 0.537789 0.812818
0.872129 0.561578 0.83331
0.155856 0.670207 0.837461
0.409827 0.685817 0.875685
0.546868 0.714321 0.883375
0.703517 0.752285 0.898817
0.945251 0.775479 0.917113
0.260563 0.90692 0.925185
0.548684 0.916609 0.939742
0.675883 0.937011 0.951202
0.847272 0.955398 0.959945
0.975723 0.973205 0.973068
