code/data/lut/36青绿色调3.cube
TITLE "LD - Century 3"
# Copyright (c) 2019 Lens Distortions, LLC. All Rights Reserved.
# LensDistortions.com
# ref-CNT1
LUT_3D_SIZE 5
0.0016022 0.0163272 0.0251774
0.133013 0.0353246 0.0373541
0.40116 0.0534371 0.0382086
0.612253 0.0797894 0.0366827
0.798062 0.108171 0.0390631
0.0261387 0.184649 0.141985
0.182788 0.225132 0.0910201
0.446799 0.231861 0.0691691
0.637858 0.256336 0.0652934
0.827192 0.277134 0.0675059
0.0191196 0.395148 0.283238
0.129747 0.413367 0.207172
0.477714 0.455375 0.161425
0.685664 0.481285 0.160327
0.865904 0.496773 0.161456
0.061265 0.592905 0.377066
0.2421 0.586389 0.36173
0.483635 0.635966 0.306035
0.708949 0.691508 0.275319
0.913222 0.72285 0.276799
0.143969 0.775479 0.426444
0.367407 0.761196 0.43592
0.550271 0.792828 0.42475
0.728939 0.85922 0.423285
0.915816 0.906294 0.385031
0.0164187 0.0820935 0.148302
0.188342 0.0807507 0.222156
0.458778 0.0688487 0.207065
0.656474 0.0716869 0.204883
0.84361 0.0754711 0.203677
0.0251316 0.24921 0.25507
0.215503 0.265446 0.248661
0.480674 0.249622 0.227848
0.671794 0.256703 0.225177
0.853498 0.264347 0.224704
0.0136263 0.433021 0.358618
0.201053 0.460075 0.346395
0.501442 0.483864 0.292195
0.705882 0.498695 0.289555
0.884855 0.507408 0.286427
0.0402991 0.619532 0.430976
0.242374 0.621775 0.424277
0.513863 0.664576 0.402152
0.729366 0.713848 0.36791
0.927291 0.735409 0.382788
0.12221 0.797208 0.465309
0.326863 0.789029 0.474754
0.565499 0.817807 0.487556
0.746731 0.87892 0.497993
0.929168 0.921279 0.456489
0.0305791 0.218265 0.358892
0.157061 0.193347 0.473548
0.488975 0.156786 0.439033
0.688838 0.158145 0.436255
0.868544 0.161242 0.43772
0.0201877 0.335088 0.439963
0.18674 0.337179 0.451301
0.514992 0.309468 0.466712
0.714763 0.310521 0.46453
0.898116 0.296407 0.461677
0.0140383 0.519341 0.508186
0.185641 0.528374 0.509865
0.540642 0.532662 0.498619
0.738216 0.530877 0.494987
0.92546 0.522942 0.485771
0.0189059 0.707546 0.554452
0.202991 0.716365 0.554421
0.570977 0.71751 0.56318
0.762875 0.753735 0.552621
0.963424 0.758953 0.534386
0.084535 0.852872 0.561318
0.270573 0.857923 0.572534
0.588602 0.880552 0.607889
0.782895 0.929503 0.626657
0.963699 0.95874 0.558923
0.0346075 0.351308 0.560449
0.162707 0.346487 0.580652
0.508263 0.270924 0.675425
0.719203 0.270039 0.666743
0.910201 0.274449 0.669306
0.0291447 0.431952 0.618936
0.179355 0.432242 0.638972
0.520333 0.388098 0.70042
0.739406 0.390723 0.688945
0.9308 0.383047 0.689158
0.0166781 0.600916 0.738521
0.201175 0.600336 0.738155
0.538628 0.582895 0.725002
0.767788 0.586664 0.722637
0.95816 0.581857 0.7205
0.0190738 0.777905 0.748898
0.186679 0.779156 0.749218
0.534356 0.778134 0.744167
0.796765 0.796414 0.759564
0.986236 0.786923 0.749599
0.0658885 0.942672 0.754147
0.23122 0.945403 0.754391
0.528313 0.95758 0.756313
0.807935 0.973465 0.797009
0.993881 0.998581 0.736599
0.0410925 0.434806 0.708598
0.172107 0.438193 0.73669
0.475151 0.388037 0.866239
0.732647 0.373404 0.867216
0.919356 0.380331 0.874235
0.0428779 0.501976 0.778668
0.190448 0.504494 0.801816
0.497139 0.471092 0.898375
0.754971 0.467292 0.894606
0.943633 0.480064 0.901015
0.0261692 0.651118 0.904387
0.211353 0.651286 0.909026
0.526818 0.63447 0.929793
0.783627 0.635813 0.933165
0.973907 0.649805 0.936355
0.0383307 0.835981 0.959533
0.198596 0.83653 0.966155
0.545571 0.827558 0.964599
0.797192 0.83032 0.968673
0.995972 0.83772 0.966308
0.0694896 0.99469 0.961334
0.214115 0.997024 0.96434
0.494026 0.994797 0.961868
0.738842 1 0.96907
0.991928 1 0.970687
