code/data/lut/36青绿色调2.cube
TITLE "LD - Century 2"
# Copyright (c) 2019 Lens Distortions, LLC. All Rights Reserved.
# LensDistortions.com
# ref-CNT1
LUT_3D_SIZE 33
0.0113069 0.0260166 0.0348669
0.0170748 0.0266728 0.0349737
0.0243229 0.028687 0.036408
0.0332799 0.0310216 0.0378576
0.044007 0.0332189 0.0394293
0.0577554 0.0355383 0.0409552
0.0726635 0.0379034 0.0424048
0.0887465 0.0406348 0.0441749
0.106874 0.0430762 0.0456703
0.128511 0.0451667 0.0467536
0.152331 0.0467842 0.047364
0.179644 0.0482643 0.0474556
0.209201 0.049485 0.0472725
0.241337 0.0506752 0.0468299
0.274281 0.0517433 0.0460975
0.308125 0.0529335 0.0451972
0.342519 0.0530709 0.0436103
0.374945 0.0538338 0.0424811
0.404852 0.0552224 0.0417029
0.431098 0.0576944 0.0417639
0.455177 0.0606241 0.0421759
0.477989 0.0636454 0.0424964
0.500603 0.0664836 0.0427405
0.523064 0.0691386 0.0429389
0.545602 0.0719921 0.0431678
0.567849 0.0745556 0.0432441
0.59028 0.0770428 0.0433051
0.612528 0.079469 0.0433204
0.634394 0.0818189 0.0434119
0.656672 0.0839551 0.043473
0.679194 0.0861219 0.0436255
0.701503 0.0880903 0.0435798
0.72401 0.0896315 0.0437018
0.014725 0.0341955 0.0383612
0.0218509 0.0371405 0.0384375
0.0305943 0.0397192 0.0400244
0.0390173 0.0421149 0.0413062
0.0501411 0.0449378 0.0429389
0.0634165 0.0479591 0.0446632
0.0783551 0.0506905 0.0462043
0.0941634 0.0537881 0.0479591
0.112337 0.0569772 0.0493629
0.134386 0.0596475 0.0507973
0.158663 0.0619059 0.0512551
0.186343 0.0635843 0.0513008
0.216632 0.0647746 0.0510567
0.248402 0.0654002 0.0500343
0.281895 0.0659342 0.0489662
0.3149 0.0662852 0.0473487
0.348302 0.0664225 0.0458534
0.380179 0.0672313 0.0446632
0.409201 0.0686809 0.0437629
0.434043 0.0706645 0.0437324
0.457267 0.0733196 0.0437781
0.479637 0.0758831 0.0439612
0.501915 0.0783703 0.0440528
0.524376 0.080827 0.0440986
0.546639 0.0831159 0.0440833
0.568856 0.0854963 0.0440681
0.591348 0.0878157 0.0441749
0.614054 0.090074 0.0442664
0.6365 0.0920424 0.0443122
0.658732 0.0939956 0.0442054
0.680873 0.0958572 0.0441749
0.703563 0.0975662 0.044419
0.726009 0.0991684 0.0444648
0.0181277 0.0454261 0.0431983
0.0245365 0.0482643 0.04271
0.0342718 0.0536202 0.0439155
0.0462806 0.0564889 0.0455634
0.0570687 0.0590677 0.0467231
0.0700542 0.0620737 0.0481117
0.0850843 0.0656291 0.0499123
0.100404 0.0690013 0.0514076
0.118334 0.0721752 0.0528572
0.140749 0.0751049 0.054078
0.16643 0.0773327 0.0544137
0.193957 0.0786297 0.0540932
0.223743 0.0796063 0.0532692
0.25565 0.0804456 0.0523232
0.287968 0.0805371 0.0506752
0.321279 0.0807507 0.0489509
0.353826 0.080705 0.0472267
0.384558 0.0811627 0.0457923
0.412497 0.0822919 0.0448005
0.436591 0.0841077 0.0445258
0.459052 0.0864271 0.0445563
0.481209 0.088777 0.04448
0.5037 0.0910201 0.0445258
0.526223 0.0936141 0.0448157
0.548516 0.0959487 0.0447395
0.571359 0.0979019 0.0449073
0.593729 0.100008 0.044892
0.615991 0.102068 0.0447852
0.638621 0.104005 0.0449226
0.661295 0.105989 0.0450141
0.683543 0.107805 0.0450446
0.706264 0.109682 0.0453803
0.728527 0.111254 0.0454414
0.0217288 0.0593576 0.0513619
0.0267796 0.0606699 0.0473945
0.0340429 0.0670787 0.0484474
0.0487373 0.0730755 0.0497597
0.0651865 0.0765698 0.0519112
0.0781872 0.079881 0.0528878
0.0928664 0.0834516 0.0544747
0.108476 0.0867628 0.0556802
0.126345 0.0903029 0.0569162
0.148272 0.0934157 0.0576638
0.172381 0.0953841 0.057496
0.20032 0.0966201 0.0569162
0.229694 0.0973373 0.0558938
0.261036 0.0974746 0.0543221
0.293736 0.0975967 0.0525216
0.326207 0.0971847 0.0505379
0.357717 0.0968643 0.048127
0.387442 0.0969863 0.0464332
0.414908 0.0979782 0.0456703
0.438651 0.0998703 0.045243
0.461036 0.102022 0.0452125
0.483467 0.104173 0.0454719
0.505791 0.106554 0.045655
0.528313 0.108858 0.0456397
0.551064 0.110872 0.0458991
0.573175 0.112825 0.0457618
0.595728 0.11487 0.0456703
0.61883 0.116793 0.0460517
0.641337 0.118624 0.0459602
0.663828 0.1205 0.0460212
0.686534 0.122377 0.0463874
0.709255 0.124239 0.0465858
0.731823 0.125612 0.0467079
0.0247807 0.0752422 0.0620432
0.0301213 0.0767376 0.0572976
0.0346838 0.0813764 0.0533303
0.04654 0.0899214 0.0562753
0.0664378 0.0960098 0.0565957
0.0867933 0.100267 0.0590066
0.100496 0.104204 0.0601511
0.116304 0.107362 0.0610056
0.135042 0.109957 0.0613413
0.156771 0.112337 0.0615702
0.181155 0.114748 0.0611582
0.207446 0.116182 0.0599985
0.236225 0.116564 0.0584573
0.266682 0.116411 0.0565042
0.298466 0.115709 0.0543526
0.330404 0.114961 0.051957
0.362158 0.114611 0.0500801
0.391577 0.114916 0.0484627
0.417655 0.115877 0.0473945
0.441505 0.117494 0.0469825
0.463508 0.119371 0.0467079
0.485725 0.121416 0.04654
0.508522 0.123583 0.0466316
0.531456 0.125841 0.0469673
0.55404 0.12781 0.0469215
0.576822 0.129702 0.0471046
0.599695 0.131594 0.0472114
0.6224 0.133516 0.0473335
0.645014 0.135302 0.047425
0.668147 0.137285 0.0477913
0.690776 0.13904 0.0479286
0.713375 0.140612 0.0480964
0.735622 0.142123 0.0482948
0.0274815 0.0939956 0.0745098
0.032639 0.0957961 0.0699016
0.0364843 0.0983597 0.0622263
0.0435035 0.106584 0.0590677
0.0628824 0.115526 0.0653391
0.0858778 0.121096 0.0649424
0.109499 0.124956 0.0677043
0.125277 0.129198 0.0675212
0.143725 0.132006 0.0675975
0.166079 0.133379 0.0669718
0.190631 0.134264 0.0656138
0.216861 0.134783 0.0640269
0.244556 0.135164 0.061799
0.273304 0.13547 0.0595102
0.304784 0.135241 0.0572671
0.336324 0.134493 0.0549935
0.367407 0.1337 0.052781
0.396338 0.133562 0.0511482
0.422034 0.135088 0.0505379
0.445686 0.136629 0.0502937
0.467918 0.138567 0.0500954
0.49012 0.140444 0.049897
0.51281 0.142611 0.0498665
0.53547 0.144472 0.0495918
0.55816 0.146517 0.0496376
0.580789 0.148516 0.0493172
0.604028 0.150454 0.0493172
0.626657 0.15227 0.0492561
0.649119 0.154009 0.0493019
0.672007 0.155703 0.0495003
0.695018 0.157641 0.049958
0.71754 0.159228 0.0501106
0.739788 0.160708 0.0502937
0.0297856 0.114351 0.0893416
0.035111 0.116152 0.0851148
0.0398718 0.117861 0.0779889
0.0450752 0.123995 0.0694743
0.0589761 0.134112 0.070161
0.0812848 0.141985 0.0747234
0.106737 0.147082 0.0736553
0.133104 0.149493 0.075288
0.154665 0.152789 0.0743572
0.175311 0.154498 0.0733959
0.199985 0.154864 0.0716564
0.227359 0.155032 0.0695201
0.255756 0.154498 0.0666972
0.285145 0.154116 0.0638437
0.31519 0.153841 0.0613107
0.345174 0.154055 0.0589151
0.374029 0.154421 0.0565194
0.401816 0.15462 0.0548714
0.426673 0.155856 0.0543374
0.449912 0.157549 0.0541085
0.472358 0.159716 0.0541695
0.494789 0.161639 0.0539101
0.51751 0.163607 0.0538796
0.540017 0.165515 0.0537881
0.562661 0.167224 0.053254
0.585214 0.169268 0.0531167
0.608347 0.171374 0.0531167
0.630961 0.173098 0.052842
0.653605 0.174731 0.0525368
0.67599 0.176349 0.0521248
0.698894 0.178515 0.0521706
0.721431 0.17995 0.0523079
0.74377 0.181399 0.0525063
0.0322118 0.136034 0.10544
0.037644 0.137285 0.101579
0.044007 0.139361 0.0964065
0.0478676 0.142611 0.0847791
0.0526131 0.151476 0.0719005
0.0760967 0.160433 0.0817884
0.100175 0.167773 0.0838788
0.128374 0.172091 0.0814679
0.160967 0.173098 0.0820172
0.188418 0.175433 0.0803845
0.2112 0.176776 0.0779736
0.236973 0.176776 0.0754253
0.266072 0.175891 0.0728313
0.296422 0.17528 0.069749
0.326116 0.174594 0.0664988
0.356008 0.174426 0.0635843
0.383932 0.174807 0.0613107
0.409674 0.176318 0.0596933
0.431983 0.178546 0.0585336
0.454566 0.180758 0.0584115
0.4766 0.182544 0.0582132
0.49865 0.184298 0.0578927
0.521492 0.186313 0.0580453
0.544259 0.188235 0.0579385
0.566705 0.190066 0.0577096
0.589044 0.191791 0.0574197
0.611688 0.193576 0.057084
0.634791 0.195544 0.0572061
0.657465 0.197055 0.0569467
0.679805 0.198718 0.0565652
0.702312 0.200412 0.0563058
0.725032 0.202152 0.0561837
0.747341 0.203479 0.0560006
0.0340734 0.157931 0.122484
0.0394751 0.159533 0.119371
0.0467231 0.160937 0.114153
0.051194 0.163027 0.103929
0.0561837 0.170108 0.0913405
0.0691844 0.178683 0.0843214
0.0940566 0.187167 0.0930343
0.119539 0.194369 0.0919356
0.153353 0.196933 0.0881971
0.192386 0.196323 0.0876326
0.224475 0.197955 0.0847181
0.249683 0.199527 0.0820935
0.276173 0.199359 0.0791638
0.305928 0.198581 0.0757458
0.335988 0.197543 0.0724956
0.365896 0.197147 0.0694133
0.393332 0.197421 0.067216
0.417563 0.198535 0.0654002
0.439399 0.200534 0.0640269
0.460578 0.203235 0.0632639
0.481559 0.205844 0.0627604
0.502693 0.208316 0.0620584
0.52491 0.21001 0.0619974
0.547448 0.211643 0.0619821
0.570321 0.213642 0.0621195
0.592889 0.215137 0.0618448
0.615396 0.216785 0.0616617
0.638193 0.218494 0.061738
0.660731 0.220233 0.0616007
0.68333 0.221759 0.0613413
0.705821 0.223178 0.061265
0.728161 0.22475 0.0610666
0.750484 0.226215 0.0610208
0.0350652 0.180575 0.138201
0.0399786 0.181827 0.134997
0.0475624 0.183047 0.130327
0.0536507 0.184146 0.122026
0.0585031 0.189212 0.109926
0.062623 0.197345 0.0900435
0.0854658 0.206348 0.0946059
0.111696 0.214786 0.103517
0.142412 0.220584 0.0987716
0.18172 0.221866 0.0940871
0.225544 0.220157 0.0927901
0.261936 0.220539 0.0888685
0.28983 0.221805 0.0853895
0.315694 0.222446 0.0827802
0.345052 0.221729 0.0793469
0.374121 0.220829 0.0761578
0.400732 0.220737 0.0733501
0.424247 0.222278 0.0719615
0.445975 0.224033 0.0707103
0.46688 0.226017 0.0696574
0.487556 0.228275 0.0687877
0.509026 0.231067 0.0681315
0.529976 0.233402 0.0671244
0.551476 0.235431 0.0665446
0.573465 0.237659 0.0662394
0.595956 0.239139 0.0661784
0.618631 0.240757 0.0662547
0.641398 0.2421 0.0662699
0.66389 0.243702 0.0661021
0.686229 0.245151 0.0660258
0.708721 0.246769 0.06598
0.731121 0.248203 0.0662089
0.753536 0.249348 0.0661631
0.0347753 0.203006 0.153094
0.0396429 0.204028 0.149935
0.047837 0.205356 0.145525
0.0556191 0.205921 0.138949
0.0602884 0.20885 0.127657
0.0652934 0.216464 0.112779
0.0763714 0.224994 0.0981003
0.102937 0.234028 0.106325
0.131609 0.241993 0.112169
0.169284 0.246281 0.104677
0.213764 0.246342 0.09897
0.261204 0.243595 0.0971389
0.300175 0.243015 0.0929274
0.329915 0.244678 0.0887007
0.355169 0.245212 0.0860456
0.381033 0.245808 0.0838483
0.407019 0.245747 0.0809949
0.429694 0.246632 0.0790875
0.451316 0.248188 0.0779431
0.472786 0.250202 0.0769513
0.493446 0.252094 0.0758526
0.514565 0.254154 0.0747387
0.535592 0.256321 0.0736095
0.557305 0.258518 0.0731212
0.578271 0.260792 0.0721599
0.59971 0.263188 0.071519
0.621622 0.264958 0.070985
0.644282 0.266392 0.0711986
0.666926 0.267964 0.0714733
0.689189 0.269184 0.0713359
0.711528 0.270405 0.0712444
0.733806 0.271962 0.0714885
0.756207 0.273411 0.0717937
0.0334936 0.225437 0.167803
0.0384527 0.226123 0.164446
0.0468757 0.227588 0.160113
0.0575113 0.228077 0.15436
0.0620279 0.229816 0.143786
0.0677653 0.235904 0.132174
0.0728771 0.243687 0.110765
0.0927443 0.253162 0.105684
0.122683 0.262272 0.117784
0.156512 0.268421 0.119524
0.199451 0.271382 0.109758
0.247272 0.270222 0.103304
0.29807 0.266636 0.101076
0.337255 0.266148 0.0970321
0.367163 0.268101 0.0927901
0.391546 0.269383 0.0900587
0.41236 0.270832 0.0883497
0.434531 0.272358 0.0870222
0.456062 0.273442 0.0857557
0.477424 0.275013 0.0844739
0.498375 0.276539 0.0832074
0.519722 0.278492 0.082063
0.540887 0.280201 0.0809186
0.562493 0.282094 0.0800793
0.583612 0.284031 0.0793317
0.60502 0.286275 0.078706
0.62652 0.288441 0.0779431
0.64799 0.290349 0.0773632
0.669764 0.291981 0.0770581
0.692287 0.293858 0.0773022
0.714473 0.295048 0.0773022
0.736492 0.296208 0.077409
0.758602 0.297505 0.0775769
0.0319677 0.247883 0.182223
0.0370336 0.248569 0.178988
0.0456245 0.249638 0.174868
0.0562295 0.250614 0.168963
0.0636759 0.251301 0.159945
0.0694285 0.25565 0.148119
0.0754406 0.263142 0.132692
0.0832685 0.271839 0.112367
0.112612 0.281849 0.118914
0.146151 0.289174 0.127245
0.185779 0.29424 0.125505
0.233021 0.295521 0.114122
0.282445 0.293614 0.107103
0.332235 0.290303 0.104845
0.371771 0.289784 0.100862
0.399832 0.292424 0.0976272
0.42118 0.295521 0.0957504
0.439918 0.297459 0.0944839
0.459953 0.299382 0.093431
0.481361 0.300694 0.0921645
0.503014 0.302174 0.0908064
0.524285 0.303426 0.0897993
0.545663 0.304814 0.0886854
0.567239 0.306737 0.0876936
0.588556 0.308537 0.0867933
0.610071 0.310094 0.0860914
0.631357 0.311864 0.0852064
0.653254 0.314 0.0848707
0.67454 0.315755 0.0841993
0.69572 0.317494 0.083711
0.717296 0.319478 0.0836652
0.739513 0.320989 0.0838026
0.761395 0.322118 0.0839399
0.0305791 0.270359 0.196277
0.0354467 0.270939 0.193271
0.0446174 0.272145 0.189624
0.0557412 0.272969 0.183795
0.0655833 0.273655 0.17615
0.071046 0.275517 0.164096
0.078233 0.283177 0.151644
0.0844129 0.290852 0.131258
0.101427 0.300832 0.118471
0.13666 0.309773 0.130541
0.175158 0.315419 0.134997
0.218402 0.319173 0.1299
0.268772 0.318791 0.117052
0.317998 0.317113 0.111055
0.365118 0.314855 0.10898
0.402762 0.314626 0.106355
0.426688 0.318669 0.103639
0.447333 0.322301 0.102022
0.466041 0.324727 0.101076
0.485405 0.326802 0.10042
0.506691 0.327886 0.0991073
0.528405 0.329076 0.0979019
0.550179 0.330571 0.0968948
0.571435 0.331823 0.0956283
0.592767 0.333303 0.0945296
0.614832 0.335103 0.0939651
0.636332 0.336477 0.0934462
0.657679 0.337942 0.0926833
0.679194 0.339742 0.0921798
0.700648 0.34168 0.0918135
0.721736 0.343313 0.0911879
0.743465 0.345006 0.0911269
0.764782 0.346609 0.0909895
0.0284581 0.292836 0.209384
0.0336767 0.293629 0.206882
0.0433814 0.294926 0.203357
0.0545357 0.295445 0.197864
0.0686961 0.295766 0.191867
0.0730907 0.297246 0.18085
0.0803235 0.303136 0.168582
0.0873579 0.310796 0.151812
0.0928054 0.319509 0.127581
0.126146 0.329107 0.131945
0.166537 0.336034 0.140185
0.207752 0.340734 0.141512
0.25391 0.342824 0.133303
0.305211 0.342306 0.120241
0.353124 0.341024 0.11487
0.395834 0.339986 0.113756
0.427619 0.341482 0.112383
0.451209 0.345418 0.110445
0.472755 0.349416 0.108766
0.491737 0.351843 0.107546
0.511345 0.354116 0.107393
0.532403 0.355306 0.106264
0.553887 0.356329 0.105135
0.575677 0.357733 0.104158
0.597498 0.358953 0.103151
0.619028 0.360143 0.102159
0.640833 0.361486 0.101656
0.662669 0.363012 0.101152
0.683848 0.364401 0.100633
0.705242 0.366079 0.100282
0.726558 0.367483 0.0996872
0.747936 0.369192 0.0997024
0.769497 0.370825 0.0997635
0.0263981 0.315709 0.222248
0.0319829 0.316335 0.219974
0.0420691 0.317525 0.216556
0.0541543 0.318318 0.21181
0.0675669 0.318334 0.205646
0.0763409 0.319463 0.19707
0.0829633 0.323125 0.185657
0.090898 0.330877 0.171908
0.0969406 0.33904 0.150195
0.116075 0.348592 0.13521
0.157336 0.356207 0.143725
0.20058 0.36112 0.148775
0.243946 0.364858 0.147234
0.291539 0.366308 0.136934
0.342077 0.365805 0.124651
0.385138 0.365805 0.11989
0.421073 0.366735 0.119814
0.451179 0.368734 0.119203
0.475593 0.372457 0.117449
0.497932 0.376623 0.116045
0.518639 0.378973 0.114763
0.537957 0.381079 0.114137
0.558114 0.382635 0.113573
0.580194 0.383505 0.112428
0.60209 0.384604 0.111452
0.62385 0.385672 0.110826
0.645747 0.386831 0.110384
0.667399 0.388174 0.109926
0.688655 0.38938 0.1093
0.710338 0.390906 0.109071
0.731945 0.392401 0.108843
0.75317 0.393637 0.108659
0.774319 0.394995 0.108522
0.0246586 0.338506 0.234409
0.0305028 0.33901 0.232288
0.0413367 0.340215 0.229191
0.054078 0.340948 0.225116
0.0681163 0.34107 0.219532
0.0800183 0.34197 0.212757
0.0857252 0.34316 0.201602
0.0944228 0.350805 0.189578
0.101869 0.358785 0.171572
0.110628 0.367575 0.147585
0.148577 0.375875 0.148089
0.19382 0.381216 0.154284
0.238163 0.38529 0.157046
0.282521 0.388083 0.152743
0.330282 0.389425 0.141604
0.376806 0.389807 0.129992
0.413108 0.391409 0.126726
0.445624 0.393393 0.127642
0.476143 0.395224 0.127199
0.50042 0.398932 0.125109
0.523476 0.402975 0.123827
0.545586 0.406165 0.123171
0.565072 0.407721 0.122606
0.585534 0.409293 0.122164
0.606989 0.410346 0.121324
0.629099 0.411597 0.120623
0.650935 0.412406 0.11986
0.67245 0.413428 0.119203
0.694209 0.414923 0.119005
0.715846 0.4159 0.11841
0.737209 0.416983 0.118135
0.758862 0.418677 0.118379
0.779995 0.419837 0.118135
0.0234531 0.361379 0.246326
0.0301213 0.361822 0.244266
0.0409705 0.362707 0.241688
0.0545052 0.363302 0.237629
0.0688487 0.363775 0.232914
0.0839857 0.363958 0.227558
0.0901656 0.365164 0.218143
0.0984817 0.37026 0.206485
0.107698 0.378302 0.192004
0.113771 0.386572 0.167865
0.141543 0.394888 0.155215
0.187701 0.400961 0.15964
0.234073 0.405127 0.165209
0.27805 0.408225 0.165133
0.322759 0.411002 0.158679
0.367864 0.412909 0.147585
0.407263 0.414557 0.137316
0.439307 0.417258 0.135485
0.470283 0.419776 0.136065
0.501701 0.421515 0.13637
0.525887 0.425391 0.134386
0.549218 0.429526 0.132921
0.57203 0.432807 0.132204
0.592874 0.434607 0.131518
0.613016 0.436255 0.131167
0.633967 0.437247 0.130434
0.656077 0.438224 0.130083
0.678141 0.439139 0.129702
0.699748 0.440024 0.129152
0.72134 0.44123 0.128878
0.742718 0.442496 0.128634
0.76405 0.443534 0.128222
0.785245 0.444907 0.128313
0.0234836 0.383734 0.257206
0.0307164 0.384466 0.256107
0.0420691 0.385245 0.253498
0.0561074 0.385657 0.24976
0.0710918 0.386175 0.245853
0.0870069 0.386435 0.241581
0.0962539 0.387289 0.234012
0.103273 0.389639 0.222751
0.11426 0.397284 0.21033
0.123552 0.405386 0.191867
0.141329 0.413581 0.170977
0.184207 0.419944 0.168261
0.231556 0.424216 0.172656
0.276677 0.427741 0.175479
0.319631 0.430945 0.173037
0.362219 0.434043 0.16556
0.400748 0.436912 0.154925
0.434714 0.440269 0.146944
0.464973 0.443671 0.145037
0.495415 0.446311 0.145373
0.52546 0.448554 0.14522
0.551095 0.452049 0.143679
0.575128 0.455863 0.142641
0.59826 0.459464 0.141726
0.619562 0.461357 0.140887
0.640467 0.462989 0.140871
0.661433 0.464012 0.140536
0.682857 0.46479 0.139773
0.704662 0.465888 0.139315
0.726116 0.466941 0.138888
0.747677 0.467994 0.138598
0.768902 0.469139 0.138384
0.790097 0.47039 0.138415
0.0249638 0.406043 0.268132
0.0322271 0.406699 0.266941
0.0445411 0.407477 0.26479
0.0585489 0.407752 0.261509
0.0738689 0.408087 0.257847
0.0901503 0.408606 0.254429
0.103288 0.40882 0.248951
0.110369 0.409659 0.238865
0.12195 0.415839 0.227253
0.133227 0.423499 0.211475
0.143664 0.432105 0.187198
0.182757 0.438331 0.180529
0.229786 0.442939 0.179934
0.2766 0.446799 0.184634
0.319966 0.450309 0.18497
0.359884 0.454063 0.180941
0.396704 0.457954 0.173098
0.429603 0.462455 0.164111
0.461326 0.466255 0.157076
0.49073 0.469917 0.155108
0.520714 0.472709 0.155322
0.549767 0.475319 0.154864
0.57612 0.478645 0.153475
0.600397 0.482444 0.152163
0.62414 0.486152 0.151339
0.646433 0.48835 0.150912
0.667216 0.489738 0.150515
0.6878 0.491142 0.150484
0.709087 0.491951 0.150072
0.730739 0.492866 0.149752
0.752041 0.493767 0.149279
0.773587 0.494896 0.149294
0.79501 0.495933 0.149279
0.0276646 0.428473 0.27863
0.035172 0.428946 0.277775
0.0475013 0.429328 0.275624
0.0622721 0.429679 0.273075
0.0780194 0.429953 0.270069
0.0943618 0.430121 0.266987
0.11165 0.43035 0.263493
0.120928 0.430976 0.255055
0.131319 0.434318 0.243442
0.144106 0.44155 0.229557
0.154467 0.44976 0.208515
0.183429 0.456428 0.19379
0.231434 0.461341 0.191943
0.277806 0.465202 0.193545
0.321492 0.46891 0.19556
0.361074 0.473198 0.19408
0.395056 0.477943 0.189136
0.426474 0.483436 0.182071
0.457084 0.488334 0.174212
0.487449 0.492393 0.166812
0.516594 0.495995 0.165194
0.545586 0.499184 0.165087
0.574441 0.501732 0.164675
0.60058 0.504997 0.163317
0.624842 0.50901 0.162173
0.648981 0.512627 0.161471
0.672206 0.515572 0.161196
0.693156 0.51693 0.160891
0.714076 0.517861 0.160693
0.735241 0.51902 0.160647
0.756741 0.520073 0.160449
0.777951 0.520806 0.160052
0.798856 0.521752 0.159792
0.0309911 0.450385 0.288151
0.038941 0.450996 0.287434
0.0519265 0.451225 0.285634
0.0664836 0.451347 0.283177
0.0828107 0.451911 0.281422
0.0998093 0.451911 0.279011
0.121111 0.451637 0.277195
0.132799 0.451392 0.269352
0.142229 0.452888 0.258671
0.155688 0.459403 0.245823
0.167346 0.467231 0.227543
0.188602 0.474571 0.208804
0.235142 0.479271 0.205554
0.280293 0.483543 0.203021
0.324315 0.487236 0.205173
0.363668 0.491966 0.206073
0.396567 0.497139 0.203372
0.425391 0.503426 0.198688
0.454292 0.509407 0.191272
0.484306 0.51426 0.183764
0.513573 0.518303 0.177203
0.541848 0.521935 0.17528
0.570199 0.525246 0.174929
0.598474 0.528328 0.174289
0.624796 0.531731 0.173449
0.649378 0.535439 0.172366
0.673732 0.539132 0.171771
0.697704 0.542458 0.171786
0.718837 0.543816 0.171283
0.739788 0.545083 0.171298
0.760464 0.545968 0.171084
0.781796 0.547127 0.171206
0.802945 0.548089 0.171237
0.0350195 0.472618 0.29691
0.043122 0.472496 0.295918
0.0569009 0.473045 0.29482
0.0719463 0.473152 0.293126
0.0880293 0.473365 0.291752
0.106172 0.473564 0.290166
0.127749 0.47277 0.28809
0.146044 0.471885 0.282902
0.155352 0.472084 0.273274
0.168078 0.47715 0.260624
0.180728 0.484611 0.24445
0.196551 0.492149 0.223438
0.239994 0.497078 0.218723
0.286015 0.50132 0.216159
0.328618 0.505409 0.215213
0.367193 0.510262 0.216968
0.399512 0.516152 0.216464
0.426932 0.522683 0.213657
0.45359 0.529534 0.208164
0.482063 0.535195 0.200931
0.510781 0.540002 0.193408
0.5393 0.544228 0.187686
0.567346 0.54815 0.185763
0.594949 0.551736 0.185016
0.622766 0.554925 0.184344
0.649287 0.558282 0.183688
0.673686 0.562112 0.182376
0.698283 0.565713 0.182101
0.721904 0.569162 0.181979
0.743816 0.571023 0.181643
0.764981 0.572244 0.181674
0.786007 0.573236 0.18204
0.806912 0.573953 0.18204
0.0395972 0.494331 0.304173
0.0481727 0.494301 0.303639
0.0619364 0.49453 0.3028
0.0775464 0.494835 0.301778
0.0938582 0.495155 0.300923
0.113069 0.495033 0.299962
0.136248 0.493919 0.298299
0.159564 0.492271 0.294789
0.17026 0.491936 0.28629
0.181201 0.49456 0.274144
0.194751 0.501778 0.259327
0.20621 0.50956 0.237613
0.245991 0.514946 0.2309
0.293294 0.51873 0.229755
0.334752 0.523445 0.2271
0.37203 0.528313 0.227405
0.40354 0.534829 0.229084
0.430167 0.541787 0.227756
0.455253 0.548806 0.224002
0.481712 0.555383 0.217853
0.508888 0.560845 0.210452
0.537331 0.565774 0.203754
0.565179 0.570245 0.198047
0.592691 0.574319 0.196567
0.619715 0.578119 0.195392
0.647059 0.581445 0.194827
0.673259 0.584878 0.19379
0.698024 0.58854 0.193042
0.722072 0.592401 0.192676
0.746197 0.595895 0.192844
0.769131 0.59823 0.19295
0.790051 0.599207 0.192767
0.810712 0.600275 0.192905
0.0447089 0.516091 0.310384
0.053727 0.516014 0.31017
0.0675975 0.516167 0.309789
0.0830243 0.516258 0.309392
0.100237 0.516442 0.309377
0.121172 0.515923 0.308782
0.145571 0.514565 0.307424
0.173159 0.512184 0.305318
0.18732 0.511635 0.2981
0.196506 0.512551 0.286931
0.20911 0.518807 0.272892
0.220356 0.526497 0.25301
0.253361 0.532418 0.242512
0.301152 0.536065 0.241978
0.342641 0.540963 0.240497
0.377874 0.546227 0.238727
0.407828 0.55314 0.24065
0.433875 0.560372 0.240894
0.458503 0.567605 0.238666
0.483452 0.574701 0.233829
0.509285 0.580911 0.22739
0.536065 0.586694 0.220295
0.563622 0.591714 0.213931
0.591257 0.59617 0.208865
0.617731 0.600473 0.206912
0.644587 0.604364 0.205798
0.671031 0.607858 0.204959
0.697185 0.611475 0.204471
0.721538 0.615106 0.203708
0.745693 0.618662 0.203418
0.769863 0.622126 0.203632
0.793164 0.62536 0.204074
0.814389 0.626429 0.203906
0.0503243 0.537682 0.315984
0.0590524 0.537392 0.316014
0.0737926 0.537499 0.316274
0.0894484 0.537835 0.31664
0.107637 0.537911 0.316976
0.130175 0.536889 0.316686
0.155901 0.534951 0.315572
0.183658 0.532647 0.313893
0.204669 0.531029 0.308873
0.212634 0.531243 0.298283
0.224094 0.535561 0.284993
0.236011 0.543206 0.267109
0.262364 0.549661 0.253315
0.309895 0.553277 0.253819
0.351186 0.558312 0.253437
0.38497 0.564187 0.251652
0.412985 0.571374 0.252201
0.438148 0.578882 0.25388
0.462455 0.586557 0.252888
0.486442 0.59382 0.249058
0.510719 0.600504 0.243732
0.536568 0.60676 0.237232
0.562951 0.612451 0.23032
0.590066 0.617533 0.224384
0.616724 0.622141 0.220127
0.643 0.626413 0.217975
0.668849 0.630243 0.216464
0.695109 0.633967 0.215457
0.720485 0.637705 0.214679
0.745113 0.641489 0.21416
0.76939 0.645182 0.214023
0.793378 0.648707 0.214328
0.817334 0.652125 0.215015
0.0560159 0.558892 0.320562
0.0652171 0.558923 0.321202
0.0798962 0.558785 0.321767
0.0965744 0.559152 0.323003
0.115785 0.558618 0.323507
0.139879 0.557702 0.323766
0.166369 0.555337 0.322744
0.19527 0.55288 0.321599
0.219409 0.550393 0.317739
0.23032 0.550317 0.308934
