code/data/lut/36青绿色调3.cube
TITLE "LD - Century 3"
# Copyright (c) 2019 Lens Distortions, LLC. All Rights Reserved.
# LensDistortions.com
# ref-CNT1
LUT_3D_SIZE 33
0.0016022 0.0163272 0.0251774
0.00830091 0.0170596 0.0253605
0.0179446 0.0192264 0.0269169
0.0309453 0.0216526 0.0285039
0.0474861 0.0238804 0.0299992
0.0670176 0.0264134 0.0316777
0.0873884 0.029221 0.0334325
0.108949 0.0325475 0.0356756
0.133013 0.0353246 0.0373541
0.160052 0.0379492 0.0386053
0.18883 0.040177 0.0396124
0.220554 0.0426795 0.0401923
0.254963 0.0450599 0.0406653
0.291112 0.0476387 0.0406653
0.32784 0.0499428 0.0404212
0.364202 0.052369 0.0396277
0.40116 0.0534371 0.0382086
0.436027 0.0554055 0.037232
0.46775 0.0577859 0.0364233
0.494881 0.0608225 0.0363012
0.519097 0.064332 0.0362097
0.542702 0.068101 0.0363622
0.565698 0.0721141 0.0364538
0.589334 0.075761 0.0366674
0.612253 0.0797894 0.0366827
0.63563 0.0835431 0.0369116
0.658579 0.0874952 0.0370031
0.682048 0.0912642 0.0373083
0.704845 0.0950027 0.0377203
0.72781 0.0985885 0.037995
0.751202 0.10193 0.0384833
0.774578 0.105241 0.0387121
0.798062 0.108171 0.0390631
0.00526436 0.0254673 0.0292058
0.0134127 0.0287327 0.0289921
0.0249638 0.0313878 0.0305638
0.0376287 0.0339208 0.0319219
0.0546426 0.0370489 0.0336614
0.0731365 0.0404517 0.0353857
0.0930343 0.0438697 0.0373236
0.11426 0.047837 0.0395209
0.13904 0.0520943 0.0413672
0.166567 0.0557107 0.0431678
0.195987 0.0592355 0.0440986
0.228214 0.0622416 0.0446632
0.262745 0.064683 0.0448005
0.297765 0.0663005 0.0438697
0.333639 0.0677195 0.0427863
0.369314 0.0692607 0.0413062
0.405097 0.0702831 0.0398566
0.437568 0.0717784 0.0382849
0.467384 0.0736858 0.0370489
0.493004 0.0763867 0.036759
0.516777 0.0799573 0.0366064
0.54049 0.0835126 0.0369421
0.563638 0.0871748 0.0369726
0.587335 0.0907759 0.0372625
0.610681 0.0943618 0.0373083
0.634623 0.0979934 0.0376287
0.65864 0.101625 0.0381018
0.682216 0.105257 0.0383307
0.706111 0.108461 0.0388342
0.729519 0.111742 0.0389868
0.752529 0.114977 0.0392462
0.77615 0.117815 0.0397498
0.799344 0.120668 0.0401007
0.00866712 0.0389715 0.0349889
0.0160678 0.0419776 0.0338445
0.0288853 0.0481575 0.0348974
0.0471351 0.0510719 0.0364538
0.0631571 0.0541238 0.0376898
0.0814984 0.0577707 0.0392157
0.101701 0.0629282 0.0416876
0.122438 0.0677348 0.0435798
0.146731 0.0721447 0.0455024
0.174044 0.0760052 0.0469825
0.203479 0.0793469 0.0473335
0.234638 0.0814984 0.0470741
0.267796 0.0835584 0.0464485
0.302281 0.0855268 0.0454414
0.336889 0.0864576 0.0437018
0.371664 0.087129 0.0417792
0.405158 0.087541 0.0396277
0.437522 0.0885939 0.0381476
0.46659 0.0904707 0.0371099
0.492088 0.0932937 0.0368353
0.516533 0.0965133 0.0370947
0.540139 0.0999619 0.0372015
0.564294 0.103365 0.0374914
0.588678 0.107408 0.0382086
0.612314 0.110872 0.0383001
0.636484 0.114137 0.0387579
0.660304 0.117601 0.0390631
0.683925 0.120989 0.0392767
0.707759 0.124269 0.039704
0.731243 0.127413 0.0401312
0.754726 0.13051 0.040589
0.779034 0.133883 0.0414588
0.802457 0.136706 0.0419013
0.0122683 0.0563363 0.045182
0.0182345 0.0576486 0.0396429
0.027512 0.0657359 0.0402075
0.0496986 0.0729992 0.0414282
0.0737469 0.0775769 0.0438087
0.0920424 0.0821241 0.0449989
0.110658 0.0868391 0.0468757
0.131167 0.0912184 0.0480659
0.154116 0.0959029 0.0492561
0.179797 0.0997482 0.0500038
0.20766 0.102724 0.0499275
0.23856 0.104891 0.0493019
0.27068 0.105943 0.0482185
0.303746 0.10602 0.0462959
0.338491 0.10663 0.0442817
0.37348 0.106859 0.0423743
0.406989 0.107424 0.0400092
0.438636 0.10837 0.038407
0.467842 0.110185 0.0376898
0.493248 0.113191 0.0374609
0.517464 0.116487 0.0376898
0.541772 0.119875 0.0382849
0.566094 0.123537 0.0388495
0.590234 0.127062 0.0392157
0.614878 0.130297 0.0399176
0.63888 0.13344 0.040177
0.663279 0.136706 0.0405585
0.687495 0.139727 0.0413062
0.711528 0.142809 0.0416114
0.735485 0.145998 0.0421454
0.759854 0.149325 0.0431678
0.783291 0.152361 0.0436255
0.806775 0.155047 0.0440986
0.015259 0.0778363 0.0590829
0.0216831 0.0794385 0.0520333
0.0277409 0.08542 0.0464637
0.0454108 0.0965133 0.0500954
0.0746014 0.103258 0.0493629
0.101259 0.108507 0.052018
0.119371 0.113573 0.0535286
0.139956 0.11751 0.0543984
0.163226 0.120699 0.0545968
0.188037 0.123476 0.0543679
0.214557 0.12604 0.0534676
0.243427 0.127779 0.0520027
0.274754 0.128634 0.0503395
0.307836 0.129015 0.0483864
0.342199 0.128878 0.0463111
0.376593 0.128893 0.0441444
0.411002 0.129534 0.0425727
0.442832 0.130709 0.0412299
0.471122 0.132631 0.0404974
0.497505 0.135332 0.0403906
0.521691 0.138323 0.0404822
0.54583 0.141573 0.0407874
0.570459 0.144732 0.0411536
0.595346 0.148577 0.041886
0.619562 0.151858 0.042237
0.644129 0.155001 0.0428626
0.668254 0.158206 0.0431983
0.69221 0.161349 0.0436255
0.716289 0.164431 0.0441596
0.740703 0.168124 0.0450599
0.764157 0.171206 0.0454414
0.787747 0.174014 0.0459754
0.811215 0.176776 0.0466621
0.0186923 0.103502 0.0781872
0.0250706 0.105501 0.0706493
0.0303044 0.108537 0.0590677
0.0400092 0.118776 0.0539101
0.0691386 0.128283 0.0608225
0.100298 0.134813 0.0597086
0.129824 0.138888 0.0625162
0.149523 0.143282 0.061799
0.171145 0.146014 0.0614786
0.197223 0.147616 0.0608072
0.224567 0.148898 0.0593118
0.253941 0.149905 0.0576028
0.284825 0.151049 0.0554208
0.316426 0.152377 0.0531777
0.350072 0.152941 0.0509499
0.38468 0.153048 0.0489662
0.418067 0.153307 0.0470588
0.449165 0.154314 0.0456092
0.477073 0.157 0.045243
0.502922 0.159762 0.0454414
0.527108 0.162966 0.0454719
0.55108 0.16614 0.0455177
0.575479 0.169314 0.0458228
0.599771 0.172519 0.0458381
0.624231 0.176181 0.0461738
0.648615 0.179507 0.0461128
0.673136 0.182513 0.0462196
0.697185 0.185611 0.0464942
0.720729 0.188678 0.0469978
0.7449 0.191653 0.0476081
0.768994 0.194781 0.0485542
0.79237 0.19765 0.0492256
0.815564 0.20032 0.0498817
0.0214847 0.130541 0.0996109
0.027985 0.131792 0.0929427
0.0345769 0.133303 0.0817121
0.0424506 0.140749 0.068925
0.0638285 0.151431 0.0684825
0.0939651 0.158694 0.0726329
0.125444 0.164446 0.0704051
0.158877 0.167132 0.0720684
0.1841 0.171221 0.0707103
0.207843 0.173312 0.0694438
0.235492 0.174365 0.0675975
0.265888 0.175204 0.0651713
0.2972 0.175494 0.0623026
0.329335 0.176135 0.0595254
0.361883 0.177066 0.057023
0.3944 0.178439 0.0547189
0.425696 0.180056 0.0524453
0.455741 0.181353 0.0510567
0.482338 0.183673 0.0507362
0.507637 0.186297 0.050782
0.532433 0.189807 0.0512398
0.556527 0.192981 0.0513161
0.580652 0.195865 0.0513924
0.604974 0.198886 0.051667
0.629068 0.201755 0.0513771
0.653315 0.205081 0.0516213
0.677836 0.208301 0.0519265
0.701686 0.211093 0.0519417
0.725368 0.213947 0.0517891
0.748837 0.216709 0.0516213
0.772915 0.219989 0.0519722
0.79646 0.222568 0.052491
0.819852 0.225086 0.0531777
0.0247044 0.158267 0.122759
0.0315709 0.158587 0.116335
0.0402228 0.159823 0.107836
0.0455787 0.163317 0.0910811
0.0524147 0.173205 0.0706493
0.0856184 0.180804 0.0825971
0.116518 0.189975 0.0851759
0.153048 0.195178 0.0809949
0.191516 0.196521 0.0817884
0.22266 0.199786 0.0798505
0.248234 0.202029 0.0771191
0.276783 0.202869 0.0742962
0.308766 0.202533 0.0714427
0.341802 0.202945 0.0683299
0.374197 0.203113 0.0649119
0.406134 0.203815 0.0618753
0.43624 0.205081 0.059556
0.46421 0.208011 0.0580148
0.488777 0.211246 0.0570382
0.512779 0.214343 0.0570077
0.536721 0.217105 0.0571756
0.560571 0.219867 0.057145
0.585504 0.223133 0.0579538
0.609506 0.225895 0.0579385
0.633509 0.228794 0.0580301
0.657374 0.231556 0.0580911
0.681239 0.234287 0.0579843
0.705806 0.237461 0.0587015
0.729534 0.240116 0.0586557
0.752926 0.242893 0.0586099
0.776242 0.245411 0.0585336
0.800198 0.248524 0.0589456
0.823743 0.250828 0.0591287
0.0261387 0.184649 0.141985
0.0327916 0.185061 0.137041
0.0424353 0.184665 0.129198
0.0490578 0.186709 0.115434
0.0563363 0.194385 0.0977798
0.0759442 0.20383 0.0865034
0.108293 0.213123 0.0979171
0.141711 0.221973 0.096376
0.182788 0.225132 0.0910201
0.227314 0.22504 0.0909133
0.262974 0.227436 0.087602
0.291279 0.230137 0.0851148
0.320195 0.230762 0.0819562
0.352148 0.230625 0.0781567
0.384863 0.230259 0.0743725
0.417243 0.231037 0.0713054
0.446799 0.231861 0.0691691
0.472724 0.234058 0.0671855
0.496742 0.237003 0.0657511
0.520088 0.241016 0.0652628
0.542428 0.244541 0.0643626
0.565194 0.248096 0.0639963
0.589303 0.25066 0.0644694
0.613489 0.253132 0.0647746
0.637858 0.256336 0.0652934
0.661784 0.258854 0.0654459
0.685695 0.261509 0.0657359
0.70959 0.26392 0.0661784
0.733471 0.266926 0.0665446
0.757046 0.269642 0.0667735
0.780301 0.272038 0.0669566
0.80354 0.274479 0.0670329
0.827192 0.277134 0.0675059
0.0268101 0.210864 0.160723
0.0330968 0.211398 0.155535
0.0433509 0.211154 0.148104
0.0524605 0.211749 0.13727
0.0599222 0.216541 0.121843
0.0665141 0.225788 0.0949416
0.098497 0.235904 0.10074
0.131884 0.246006 0.112474
0.17055 0.252613 0.106203
0.216159 0.254795 0.100862
0.264897 0.253681 0.100084
0.304784 0.254963 0.095964
0.3355 0.257206 0.092195
0.363485 0.259098 0.089662
0.395254 0.258839 0.085893
0.42649 0.258595 0.0828107
0.455268 0.259312 0.0798199
0.480797 0.261952 0.0782177
0.504356 0.26453 0.0766766
0.527092 0.267445 0.0758068
0.549447 0.270604 0.0750744
0.572488 0.274571 0.0744793
0.595239 0.277913 0.0734874
0.618219 0.28098 0.0730297
0.641505 0.28394 0.0728161
0.665385 0.286427 0.073228
0.689601 0.289281 0.0739147
0.713512 0.2916 0.0746471
0.736873 0.29395 0.0746929
0.76025 0.296407 0.0751812
0.78407 0.299306 0.075761
0.807141 0.301457 0.0763561
0.830442 0.303624 0.0767987
0.0264744 0.237125 0.179797
0.0326696 0.237293 0.17499
0.0439002 0.237278 0.167605
0.0557717 0.236789 0.158022
0.0630655 0.239628 0.143374
0.0711223 0.24799 0.125612
0.0870222 0.257755 0.106355
0.121675 0.268666 0.117372
0.158465 0.277867 0.125048
0.202686 0.283238 0.115709
0.252857 0.284031 0.108949
0.304829 0.281987 0.10782
0.347387 0.282307 0.103792
0.379553 0.2851 0.0996567
0.406867 0.286488 0.0970626
0.434867 0.287938 0.0948043
0.462837 0.288579 0.091783
0.487388 0.290272 0.0898451
0.510628 0.29247 0.0886854
0.534173 0.295537 0.0879988
0.556573 0.298344 0.0867933
0.578988 0.301183 0.0856031
0.601709 0.304204 0.0845045
0.625071 0.307683 0.0843824
0.647517 0.310933 0.0836805
0.670085 0.314076 0.0832685
0.693294 0.316808 0.0831922
0.717067 0.319371 0.0840009
0.740871 0.321859 0.0849012
0.764111 0.323919 0.0852674
0.787289 0.326146 0.0858015
0.810758 0.328878 0.0868238
0.834043 0.330999 0.0876478
0.0252384 0.263691 0.198764
0.0316625 0.263279 0.193545
0.0433051 0.263676 0.186877
0.0597848 0.262745 0.178073
0.0667735 0.264286 0.164324
0.0755322 0.271077 0.14963
0.0829938 0.279744 0.123964
0.109285 0.291142 0.117723
0.14905 0.301839 0.133318
0.189303 0.308949 0.135515
0.238178 0.312917 0.124559
0.290959 0.312718 0.117479
0.346136 0.309743 0.11606
0.388403 0.310277 0.112306
0.420874 0.313329 0.107973
0.447181 0.315526 0.105196
0.469612 0.317845 0.103655
0.493904 0.320027 0.102373
0.517296 0.321904 0.101167
0.540032 0.324147 0.0996109
0.56257 0.326421 0.0983749
0.585748 0.329534 0.0975357
0.608591 0.332006 0.0967269
0.631373 0.334585 0.0960708
0.653803 0.337499 0.0954299
0.676738 0.341009 0.0951858
0.69926 0.343877 0.0945449
0.722042 0.3467 0.0944991
0.744625 0.349371 0.094667
0.768002 0.352255 0.0954757
0.791196 0.35436 0.0961166
0.814237 0.356405 0.0968948
0.837247 0.358373 0.0975814
0.0241398 0.290135 0.217304
0.0307469 0.289738 0.212345
0.0427253 0.289326 0.205829
0.0593729 0.289219 0.197559
0.0706645 0.289082 0.185611
0.0789197 0.294301 0.170977
0.0880598 0.302831 0.151049
0.0986801 0.31252 0.127108
0.13727 0.324468 0.135439
0.178622 0.333165 0.145602
0.224125 0.339513 0.144305
0.276905 0.34168 0.132189
0.330465 0.340459 0.124773
0.384024 0.337926 0.123339
0.426642 0.33843 0.119783
0.457206 0.342077 0.116716
0.480568 0.346441 0.115282
0.501244 0.349065 0.114366
0.52253 0.351537 0.11339
0.545739 0.353841 0.112291
0.568643 0.356054 0.110918
0.591638 0.357946 0.109957
0.614572 0.360113 0.109209
0.637797 0.363073 0.108568
0.660319 0.36556 0.107774
0.682704 0.368139 0.107301
0.705257 0.370687 0.106645
0.728511 0.3738 0.106889
0.750622 0.376547 0.106722
0.772686 0.379248 0.106722
0.794903 0.381949 0.106966
0.818189 0.384649 0.107973
0.841215 0.386587 0.108843
0.0232395 0.316426 0.234791
0.0296483 0.315999 0.230442
0.0425879 0.315679 0.224475
0.0600137 0.315267 0.216083
0.0747234 0.315343 0.206592
0.0826734 0.317388 0.192203
0.0932174 0.325963 0.176684
0.101259 0.334951 0.150958
0.123964 0.34667 0.135912
0.169162 0.356893 0.151232
0.213931 0.363745 0.158053
0.262119 0.368872 0.152865
0.317357 0.369177 0.137758
0.370275 0.368521 0.131914
0.421027 0.367102 0.130755
0.461799 0.367727 0.128771
0.487556 0.373053 0.126177
0.510292 0.377615 0.125048
0.530846 0.381064 0.124575
0.551446 0.383719 0.123919
0.574212 0.385519 0.123033
0.597772 0.387533 0.122377
0.620752 0.389639 0.12166
0.643412 0.391653 0.120745
0.665995 0.393851 0.119951
0.689342 0.396628 0.119783
0.711803 0.398886 0.119768
0.734249 0.401175 0.119615
0.756374 0.403647 0.119448
0.779049 0.406775 0.11986
0.801099 0.409293 0.119738
0.82324 0.411704 0.119966
0.845869 0.414115 0.1205
0.0216373 0.342351 0.251301
0.0285954 0.342382 0.247913
0.0424964 0.342107 0.241856
0.0601511 0.341161 0.233997
0.0809796 0.340978 0.226581
0.0873579 0.342229 0.213352
0.0972305 0.349203 0.199207
0.10634 0.35819 0.179171
0.114137 0.368338 0.148486
0.158007 0.379263 0.154696
0.205081 0.387213 0.165759
0.251926 0.393423 0.16968
0.302693 0.39649 0.160281
0.358221 0.39707 0.145342
0.409903 0.39675 0.139788
0.455894 0.396597 0.139788
0.490394 0.399039 0.138903
0.516121 0.404074 0.137148
0.539361 0.409171 0.136034
0.559853 0.412421 0.135042
0.580865 0.415351 0.135286
0.603449 0.41738 0.134539
0.626322 0.419165 0.133471
0.649363 0.421164 0.132662
0.672435 0.423285 0.132342
0.695186 0.425162 0.131746
0.717937 0.427115 0.131655
0.740734 0.429831 0.131868
0.762875 0.432059 0.13193
0.784955 0.434318 0.13193
0.807019 0.436606 0.131914
0.829694 0.439368 0.132799
0.852308 0.441474 0.133333
0.0201114 0.368948 0.267491
0.0275273 0.368841 0.264286
0.0424353 0.368429 0.258503
0.061738 0.367483 0.25127
0.081178 0.366888 0.243824
0.0933089 0.367987 0.233692
0.101884 0.372274 0.221012
0.112596 0.381353 0.205478
0.121447 0.390738 0.179507
0.147372 0.401633 0.160388
0.196292 0.410513 0.172641
0.245243 0.416526 0.180148
0.293339 0.421698 0.179812
0.345022 0.424186 0.168444
0.399756 0.42472 0.154421
0.445808 0.425803 0.149966
0.484718 0.427649 0.150927
0.517403 0.430579 0.150988
0.543862 0.435401 0.149264
0.568154 0.440635 0.148211
0.590341 0.443839 0.147112
0.610574 0.446479 0.146685
0.632227 0.448859 0.146807
0.655802 0.450553 0.14612
0.678645 0.45211 0.14519
0.701823 0.453986 0.14522
0.724559 0.456214 0.145159
0.746868 0.458106 0.144808
0.769055 0.460121 0.144701
0.791791 0.46276 0.145312
0.814237 0.46479 0.145388
0.836561 0.466712 0.145892
0.858808 0.468849 0.146395
0.0191196 0.395148 0.283238
0.0270848 0.394583 0.279622
0.0433967 0.394293 0.274479
0.0636149 0.393484 0.268223
0.0840925 0.39295 0.261387
0.0995651 0.394034 0.253864
0.1066 0.395346 0.240711
0.119188 0.404196 0.227695
0.129747 0.413367 0.207172
0.142153 0.423407 0.17821
0.187594 0.43267 0.179339
0.239033 0.439292 0.188495
0.288548 0.444877 0.193668
0.336934 0.448722 0.189685
0.388678 0.45127 0.177661
0.438651 0.452811 0.164477
0.477714 0.455375 0.161425
0.5131 0.458259 0.163638
0.545907 0.460899 0.16379
0.571878 0.465675 0.1617
0.596933 0.47071 0.161242
0.620523 0.475196 0.161166
0.641321 0.477363 0.16083
0.662943 0.479408 0.160662
0.685664 0.481285 0.160327
0.708675 0.483192 0.159945
0.731258 0.48484 0.159579
0.753689 0.486732 0.15938
0.776272 0.488899 0.159854
0.798795 0.490623 0.159792
0.82121 0.492409 0.160204
0.843915 0.49485 0.16112
0.865904 0.496773 0.161456
0.0186465 0.421439 0.298222
0.0281376 0.420584 0.294591
0.0450599 0.419883 0.289998
0.0663615 0.418723 0.28365
0.0871443 0.418997 0.278065
0.106065 0.419226 0.272251
0.114626 0.420676 0.261433
0.125994 0.426505 0.248203
0.139147 0.435691 0.232273
0.147662 0.445075 0.204837
0.181292 0.454322 0.190082
0.233967 0.46186 0.19675
0.285237 0.467109 0.204517
0.333257 0.471534 0.205951
0.381811 0.475593 0.199817
0.430732 0.478645 0.188251
0.472984 0.48127 0.176577
0.507881 0.48484 0.175082
0.541161 0.48838 0.17673
0.574685 0.491112 0.177737
0.600809 0.495979 0.176226
0.625803 0.501228 0.175158
0.650202 0.50544 0.175067
0.672511 0.508263 0.175082
0.693446 0.510353 0.17499
0.71519 0.512108 0.174838
0.738003 0.513649 0.174762
0.761257 0.515465 0.174884
0.783734 0.517067 0.174975
0.805997 0.518807 0.175036
0.828504 0.520989 0.175494
0.850584 0.522774 0.175647
0.872572 0.524575 0.176059
0.0199893 0.446555 0.31162
0.0305638 0.446265 0.30901
0.0485847 0.445426 0.304677
0.0702525 0.444312 0.298848
0.0919203 0.444678 0.294362
0.112276 0.444999 0.289799
0.125139 0.446021 0.281315
0.134188 0.448478 0.268299
0.149081 0.457176 0.254795
0.161059 0.466499 0.234073
0.182635 0.4757 0.210681
0.23125 0.483131 0.208316
0.283909 0.488685 0.214878
0.333089 0.493278 0.21912
0.380209 0.497963 0.218097
0.425986 0.502403 0.210788
0.467414 0.506188 0.199451
0.50428 0.510674 0.190845
0.537057 0.515099 0.189425
0.569467 0.518807 0.1906
0.601938 0.521904 0.191302
0.629236 0.526421 0.190387
0.654932 0.531273 0.189792
0.6795 0.535882 0.189532
0.701717 0.538613 0.189273
0.723888 0.540856 0.189883
0.745617 0.542641 0.189975
0.767712 0.544137 0.189746
0.790173 0.545754 0.189578
0.812711 0.547723 0.189883
0.834821 0.549325 0.190005
0.856962 0.551095 0.190265
0.879393 0.553216 0.191135
0.0233005 0.471794 0.32549
0.0342718 0.470985 0.322637
0.0544442 0.470268 0.318532
0.075761 0.469566 0.313954
0.0969406 0.469566 0.309255
0.118486 0.470375 0.305699
0.135866 0.470405 0.299351
0.145006 0.47126 0.287999
0.159731 0.478187 0.275471
0.173602 0.486854 0.258076
0.186236 0.496605 0.230671
0.230823 0.504036 0.223911
0.283223 0.509728 0.224475
0.3346 0.515007 0.231662
0.381598 0.519524 0.233112
0.42504 0.524834 0.230228
0.464729 0.529702 0.221912
0.500542 0.535348 0.21265
0.534691 0.540291 0.205295
0.566415 0.544991 0.203891
0.598321 0.548806 0.20499
0.629374 0.552361 0.20531
0.657542 0.556634 0.204562
0.683207 0.561486 0.2038
0.708309 0.566186 0.203769
0.731594 0.569253 0.203922
0.752819 0.57113 0.203784
0.774487 0.573495 0.204578
0.796536 0.57499 0.204791
0.818738 0.576303 0.204807
0.84094 0.57789 0.204883
0.863844 0.579767 0.205661
0.885985 0.581216 0.206073
0.0282292 0.496956 0.337881
0.0399786 0.495979 0.335698
0.0605783 0.494621 0.331548
0.0828107 0.49453 0.327977
0.10367 0.494591 0.324651
0.125841 0.494728 0.321019
0.148394 0.49482 0.31722
0.159792 0.495445 0.307698
0.17229 0.499199 0.294987
0.187533 0.507408 0.279835
0.199756 0.516518 0.256535
0.233127 0.524453 0.240894
0.286305 0.530434 0.239719
0.337285 0.53579 0.243412
0.384649 0.540475 0.246738
0.427634 0.546075 0.246601
0.464393 0.552056 0.241871
0.498436 0.558831 0.23476
0.531716 0.564858 0.226566
0.564401 0.570001 0.219074
0.595956 0.574517 0.218067
0.626566 0.578805 0.218616
0.657267 0.582071 0.219074
0.684672 0.586252 0.218311
0.710155 0.591516 0.218006
0.735576 0.595987 0.218143
0.759808 0.600061 0.218555
0.78143 0.601938 0.218647
0.80322 0.603418 0.219104
0.825498 0.605402 0.219898
0.847654 0.606836 0.219959
0.869596 0.608194 0.220081
0.891524 0.609689 0.220295
0.0343938 0.521004 0.349416
0.0475624 0.5205 0.347524
0.0688334 0.519112 0.344152
0.090425 0.518685 0.340856
0.111788 0.519509 0.338842
0.135042 0.519341 0.336263
0.161776 0.518914 0.333791
0.175433 0.518441 0.325216
0.186557 0.520241 0.313329
0.202304 0.527642 0.299809
0.215869 0.536187 0.279561
0.240208 0.54461 0.259342
0.291936 0.550744 0.257115
0.34136 0.556191 0.255421
0.388937 0.56109 0.259358
0.431632 0.567132 0.261448
0.467628 0.573541 0.259785
0.498909 0.581018 0.255451
0.530388 0.58819 0.247959
0.562615 0.594202 0.240299
0.594186 0.599145 0.233707
0.623896 0.603708 0.232059
0.654215 0.607919 0.23267
0.684138 0.611948 0.232776
0.711437 0.61648 0.232395
0.737423 0.621134 0.232059
0.762676 0.625879 0.232059
0.787869 0.63006 0.233051
0.809949 0.632197 0.233188
0.831495 0.633951 0.233692
0.852857 0.635416 0.234089
0.875166 0.637186 0.234821
0.897154 0.63859 0.235096
0.0420081 0.545541 0.360204
0.0560159 0.544106 0.357809
0.0774853 0.543664 0.355581
0.0991989 0.543404 0.353582
0.12047 0.543511 0.351598
0.145129 0.543801 0.34992
0.17084 0.542626 0.347311
0.19237 0.541833 0.34165
0.202747 0.542077 0.331212
0.217655 0.547539 0.317601
0.23209 0.555962 0.300206
0.250294 0.564523 0.277516
0.298726 0.570901 0.273396
0.348623 0.57615 0.271946
0.395285 0.581613 0.272114
0.436744 0.58761 0.275288
0.471611 0.594583 0.275853
0.501778 0.602548 0.273762
0.531228 0.610468 0.268742
0.561868 0.617319 0.261463
0.592264 0.623178 0.253483
0.622904 0.62826 0.247822
0.652659 0.633204 0.246326
0.682017 0.637705 0.246509
0.711055 0.641901 0.246601
0.73872 0.646189 0.246937
0.764218 0.650996 0.246296
0.789837 0.655512 0.246754
0.814237 0.659861 0.247395
0.837003 0.662333 0.247593
0.859007 0.66389 0.247868
0.881025 0.665522 0.248768
0.902739 0.666697 0.24918
0.0510109 0.569039 0.368872
0.065568 0.5682 0.367483
0.0865492 0.567376 0.365713
0.108125 0.567926 0.365057
0.130266 0.567971 0.363409
0.155566 0.567956 0.362295
0.182574 0.566445 0.360143
0.209445 0.564797 0.356664
0.221073 0.564248 0.347158
0.233585 0.567346 0.333928
0.249119 0.575372 0.318425
0.262516 0.584131 0.295018
0.30663 0.590723 0.28867
0.358236 0.595636 0.288685
0.40296 0.601572 0.286992
0.44329 0.607813 0.288762
0.477821 0.615503 0.291646
0.506737 0.623407 0.290913
0.534203 0.631952 0.287968
0.562768 0.639735 0.281819
0.591806 0.646006 0.274372
0.622507 0.651926 0.267597
0.651987 0.657404 0.262303
0.68098 0.662501 0.261234
0.70956 0.667216 0.260731
0.737942 0.671504 0.26096
0.765225 0.675807 0.260609
0.790982 0.680308 0.260487
0.815885 0.685023 0.260868
0.841215 0.689189 0.26186
0.864729 0.692195 0.262364
0.886305 0.693416 0.262455
0.907866 0.69482 0.262974
0.061265 0.592905 0.377066
0.0757458 0.592172 0.376181
0.0964675 0.591638 0.375113
0.116991 0.591867 0.374594
0.140764 0.592203 0.374502
0.166857 0.59115 0.373312
0.195483 0.589776 0.37203
0.226169 0.586984 0.369619
0.2421 0.586389 0.36173
0.25211 0.587564 0.34966
0.266529 0.594598 0.334951
0.279469 0.603296 0.313664
0.31577 0.610361 0.303075
0.367834 0.615167 0.303975
0.412848 0.621302 0.303593
0.451102 0.627756 0.302846
0.483635 0.635966 0.306035
0.51191 0.644129 0.307118
0.539086 0.652796 0.305653
0.566171 0.66099 0.301366
0.593698 0.668101 0.294942
0.622675 0.67483 0.287877
0.651896 0.680888 0.281773
0.681346 0.686229 0.276921
0.708949 0.691508 0.275319
0.737163 0.696147 0.275273
0.764248 0.700557 0.274861
0.791638 0.704967 0.27509
0.816541 0.709331 0.274632
0.841733 0.71339 0.274907
0.866682 0.717464 0.275547
0.891081 0.721477 0.276738
0.913222 0.72285 0.276799
0.0721599 0.616648 0.384405
0.0853895 0.615641 0.383627
0.106188 0.615946 0.383917
0.127626 0.615976 0.384054
0.152392 0.616068 0.384543
0.17937 0.614481 0.383688
0.208804 0.612482 0.382467
0.239322 0.610071 0.380468
0.262654 0.608545 0.375494
0.271519 0.608911 0.364157
0.284153 0.613611 0.349569
0.297749 0.622187 0.330907
0.326848 0.62974 0.316564
0.378439 0.634577 0.318257
0.423194 0.640772 0.319341
0.459846 0.647562 0.318502
0.490745 0.656153 0.320378
0.517922 0.664622 0.323018
0.544488 0.673442 0.322896
0.57084 0.682048 0.319875
0.596872 0.689525 0.314611
0.624659 0.696788 0.308232
0.652811 0.70338 0.301579
0.681331 0.709422 0.295659
0.709209 0.714931 0.291707
0.736904 0.719905 0.290181
0.763195 0.724376 0.288914
0.790402 0.728801 0.288487
0.816617 0.733227 0.288396
0.8421 0.737652 0.288151
0.867445 0.741802 0.28864
0.892027 0.745922 0.289265
0.91722 0.74966 0.290517
0.0823224 0.639796 0.390555
0.0964065 0.639414 0.390814
0.116258 0.63949 0.391562
0.139269 0.639704 0.392676
0.163943 0.638911 0.392859
0.192065 0.637781 0.392798
0.22208 0.635187 0.391714
0.254078 0.632639 0.390677
0.280491 0.630152 0.386664
0.292409 0.630152 0.377234
0.302235 0.632731 0.363317
0.315648 0.64097 0.346242
0.340902 0.648768 0.331182
0.390158 0.653712 0.332555
