code/data/lut/36青绿色调1.cube
TITLE "LD - Century 1"
# Copyright (c) 2019 Lens Distortions, LLC. All Rights Reserved.
# LensDistortions.com
# ref-CNT1
LUT_3D_SIZE 33
0.00181582 0.0133211 0.0221561
0.0103456 0.0137636 0.0220798
0.0239567 0.0157931 0.0235142
0.0419471 0.0184024 0.0252689
0.0581064 0.021561 0.0276646
0.0774243 0.024918 0.0303502
0.0975967 0.0285344 0.0327611
0.118486 0.0324865 0.0354314
0.140261 0.0361944 0.0377356
0.164706 0.0400702 0.0397192
0.190311 0.0433204 0.0412451
0.216922 0.046128 0.0415045
0.244282 0.0476539 0.0407568
0.272541 0.0487831 0.0387579
0.301823 0.0495003 0.0368505
0.331701 0.0504921 0.0345312
0.363195 0.0502632 0.031754
0.393011 0.0507515 0.0294194
0.420523 0.0519265 0.0274205
0.444907 0.0543374 0.026627
0.467018 0.0572824 0.0260471
0.489097 0.0603799 0.025864
0.511055 0.0636301 0.025742
0.534463 0.0666361 0.0259556
0.557488 0.0697185 0.0260319
0.581155 0.0725261 0.0263066
0.604669 0.0754559 0.0264897
0.628885 0.0783093 0.0267948
0.652567 0.0810101 0.0271305
0.6766 0.0835279 0.0273289
0.700893 0.0858473 0.0275883
0.725307 0.0879835 0.0276036
0.749798 0.0896925 0.0276646
0.00573739 0.0229953 0.026276
0.0166934 0.026627 0.0258488
0.0340276 0.0293584 0.0273594
0.0499275 0.0325933 0.0290227
0.0659342 0.0371405 0.0316167
0.0842603 0.0422675 0.034287
0.10486 0.0473945 0.0372168
0.125048 0.0525063 0.039826
0.14522 0.0571908 0.0415198
0.166155 0.0601816 0.0425116
0.18793 0.0624094 0.0420844
0.212558 0.06392 0.0412757
0.239719 0.0649119 0.0399786
0.26836 0.0653086 0.0378729
0.298329 0.0654459 0.0356451
0.328725 0.0656138 0.0330663
0.360525 0.0653849 0.0308537
0.390661 0.0661631 0.0289616
0.41912 0.0673228 0.0276341
0.443687 0.0692607 0.0272831
0.467018 0.0719158 0.0272526
0.490196 0.0746319 0.0275883
0.513191 0.0774243 0.0276951
0.536736 0.0801709 0.027985
0.560052 0.082887 0.0280461
0.583978 0.0856184 0.028275
0.607996 0.0882429 0.0285954
0.631922 0.0908675 0.028687
0.656367 0.0931106 0.0289921
0.680613 0.0953536 0.0289921
0.704921 0.0977035 0.02916
0.729534 0.0994736 0.0293584
0.753933 0.101183 0.0294347
0.00909438 0.0387732 0.0328374
0.0192569 0.0426795 0.0313878
0.0383307 0.049958 0.0320897
0.0596628 0.0547646 0.034638
0.074876 0.0597848 0.036759
0.0915694 0.0645151 0.0385443
0.108614 0.0691997 0.0402533
0.124376 0.0728008 0.0410315
0.141939 0.0758068 0.0419013
0.162539 0.078172 0.0423896
0.18558 0.0800946 0.0418097
0.211078 0.0809033 0.0408484
0.23888 0.0814374 0.0395209
0.268498 0.0817273 0.0378576
0.299382 0.0814069 0.0358129
0.331533 0.081178 0.0338445
0.363424 0.0810254 0.0317998
0.394461 0.0813764 0.0303655
0.422431 0.0824598 0.0293278
0.44712 0.0844739 0.029099
0.470649 0.0870069 0.0292668
0.493645 0.0896925 0.0293278
0.51725 0.0923018 0.0295415
0.541054 0.0953078 0.0300603
0.564584 0.0979171 0.0301061
0.588647 0.100374 0.0304417
0.612604 0.102922 0.0306249
0.636805 0.105409 0.0307622
0.661128 0.107942 0.0309453
0.685222 0.110094 0.0310826
0.70959 0.112108 0.0312657
0.734279 0.114214 0.0315709
0.758633 0.115938 0.0316014
0.0132448 0.0612039 0.0462959
0.0219272 0.0629129 0.0389105
0.0361334 0.0719463 0.0394141
0.0612345 0.078584 0.0399481
0.0804913 0.0823682 0.0420081
0.0954757 0.0856489 0.0426184
0.111376 0.0889296 0.0437629
0.127687 0.0917983 0.0442817
0.145281 0.094789 0.0447547
0.165713 0.0970779 0.0449226
0.188586 0.0986191 0.0443275
0.214862 0.0996567 0.0433814
0.243061 0.0998703 0.0421302
0.272831 0.0995041 0.0401465
0.304677 0.0995499 0.038117
0.337118 0.0991531 0.0361334
0.368734 0.0991226 0.0337072
0.399176 0.0996109 0.0321813
0.427207 0.100801 0.0314183
0.451667 0.103105 0.0311437
0.475135 0.105638 0.0313573
0.498482 0.108354 0.031754
0.521904 0.111162 0.0320745
0.545556 0.113863 0.0322881
0.569467 0.116442 0.0326848
0.593042 0.118807 0.0326696
0.617594 0.121416 0.0328985
0.641611 0.123568 0.0332494
0.665873 0.125643 0.0331731
0.690288 0.127687 0.0333257
0.7149 0.129686 0.0337835
0.739101 0.131487 0.0337987
0.763729 0.133165 0.0339055
0.0184329 0.085481 0.0678264
0.0274357 0.085893 0.0572671
0.0361486 0.0902113 0.048188
0.05626 0.0964981 0.0495155
0.0797131 0.102464 0.047776
0.102388 0.10634 0.0499886
0.117403 0.109834 0.0504005
0.133501 0.112367 0.05066
0.152331 0.114672 0.0504768
0.173022 0.116701 0.0499428
0.195911 0.118669 0.0489357
0.221439 0.120043 0.0474556
0.249454 0.120623 0.0457923
0.279652 0.120912 0.043946
0.311192 0.120485 0.041825
0.343221 0.120104 0.0396124
0.375204 0.120226 0.0377356
0.405188 0.120775 0.0361486
0.432074 0.122057 0.0352331
0.457145 0.124422 0.0348974
0.480156 0.126772 0.034699
0.50338 0.129259 0.0347753
0.526986 0.13167 0.0348363
0.550835 0.134401 0.035172
0.574548 0.136736 0.0352789
0.598566 0.138964 0.0355383
0.622675 0.141329 0.0356298
0.64683 0.143313 0.0357671
0.670985 0.145266 0.0358434
0.695552 0.147387 0.0361791
0.719585 0.149111 0.0361028
0.743969 0.15053 0.0361944
0.768582 0.152117 0.0364996
0.02121 0.10663 0.0844434
0.0294652 0.106203 0.0763714
0.0366979 0.107713 0.0627146
0.0494087 0.114595 0.0536049
0.0736095 0.122087 0.0611734
0.0999313 0.127855 0.0585641
0.12549 0.13109 0.0609903
0.141634 0.135241 0.0597086
0.159731 0.137667 0.0591745
0.181735 0.139055 0.0581064
0.205661 0.140429 0.0564279
0.231571 0.141253 0.0545815
0.259129 0.142061 0.0521096
0.287602 0.142962 0.0495766
0.318502 0.143114 0.0471962
0.350744 0.14287 0.0451057
0.382177 0.142657 0.043061
0.411612 0.143008 0.0413672
0.438025 0.144671 0.0407263
0.462272 0.146639 0.040528
0.485313 0.148989 0.0402533
0.508568 0.151476 0.0401007
0.532097 0.153719 0.0399329
0.555673 0.155886 0.0396429
0.579293 0.158221 0.0395972
0.603342 0.160372 0.0391699
0.62771 0.162356 0.0388952
0.651926 0.16437 0.0388342
0.675807 0.16611 0.038941
0.700313 0.167758 0.0390173
0.724804 0.169314 0.0393835
0.748959 0.170794 0.0395514
0.773266 0.172305 0.0397955
0.0226291 0.128237 0.100343
0.0310521 0.127489 0.0928206
0.039826 0.127153 0.0826123
0.0494392 0.131899 0.0696574
0.0674601 0.140887 0.0680095
0.0926375 0.149142 0.0733959
0.121035 0.154406 0.0703136
0.148775 0.156863 0.0720073
0.170413 0.160693 0.070573
0.190845 0.162661 0.0688945
0.215 0.163439 0.0668193
0.241825 0.163836 0.0639658
0.270359 0.163943 0.0609293
0.299611 0.164218 0.0577859
0.329625 0.164553 0.0550088
0.359884 0.164965 0.0522469
0.389319 0.165805 0.0495766
0.417884 0.166369 0.0479744
0.44332 0.168002 0.0475471
0.467277 0.169802 0.0472267
0.4907 0.172168 0.0472572
0.513939 0.174304 0.0470436
0.537209 0.176242 0.0467079
0.560983 0.178531 0.0466926
0.584527 0.180377 0.0459449
0.608331 0.182422 0.0457313
0.632486 0.184375 0.0453651
0.656413 0.185977 0.044892
0.680644 0.187808 0.0442969
0.704677 0.189258 0.043595
0.729168 0.190906 0.0432288
0.753368 0.192142 0.043122
0.777676 0.193256 0.0432288
0.0241245 0.149798 0.116533
0.0327764 0.148699 0.10956
0.0441291 0.148013 0.100923
0.051194 0.150423 0.086717
0.0578164 0.158724 0.0691234
0.0850843 0.168139 0.0819409
0.113115 0.176623 0.0846265
0.143923 0.181292 0.0813611
0.17673 0.182528 0.0822614
0.203616 0.18526 0.080415
0.226276 0.187091 0.077821
0.252155 0.187701 0.075288
0.280949 0.187152 0.0720378
0.310994 0.186862 0.0687572
0.341085 0.186603 0.065095
0.371405 0.186755 0.0619364
0.39971 0.18735 0.0590829
0.426017 0.189166 0.0569009
0.449439 0.191455 0.0555734
0.47216 0.193713 0.0551156
0.495262 0.19585 0.0551156
0.518303 0.19765 0.0547646
0.542 0.199725 0.054963
0.565332 0.201495 0.0544747
0.58883 0.203342 0.0541238
0.612711 0.205219 0.0539406
0.6365 0.20679 0.0532845
0.6607 0.208545 0.0531472
0.684749 0.209934 0.0524605
0.708751 0.211505 0.0518044
0.732998 0.212802 0.0511635
0.757488 0.214252 0.050721
0.781811 0.215228 0.0500801
0.0249638 0.170962 0.132799
0.0332189 0.170504 0.126909
0.0467231 0.169192 0.118318
0.0547951 0.170504 0.106188
0.0612497 0.17731 0.0921035
0.0768444 0.186877 0.0843977
0.106172 0.196857 0.0949111
0.134951 0.204608 0.093843
0.16968 0.207645 0.0900893
0.208453 0.207614 0.0899214
0.240146 0.209461 0.087068
0.265431 0.211322 0.0846723
0.291691 0.211521 0.0818952
0.32134 0.21117 0.078584
0.351843 0.210254 0.0750286
0.382086 0.210086 0.0718395
0.409873 0.210239 0.0694896
0.434669 0.211872 0.0675212
0.457572 0.21387 0.0659342
0.479347 0.216739 0.0648508
0.50071 0.219303 0.0635843
0.522789 0.22179 0.0626841
0.546166 0.223743 0.0628214
0.569696 0.225193 0.0626993
0.593271 0.227085 0.0625467
0.616938 0.228489 0.0622263
0.640864 0.230045 0.0620127
0.664973 0.231479 0.0619211
0.68896 0.23299 0.0615854
0.712978 0.234318 0.0611582
0.737026 0.235325 0.0607767
0.761379 0.236622 0.0603037
0.785657 0.237705 0.0598306
0.0254673 0.192966 0.148928
0.0332799 0.192493 0.143633
0.0476997 0.19147 0.136049
0.0580911 0.191821 0.125597
0.064332 0.196979 0.112108
0.0693217 0.205142 0.0905165
0.0967269 0.216098 0.0967575
0.12723 0.225635 0.107286
0.159838 0.23183 0.102632
0.199145 0.233753 0.0982071
0.24242 0.232654 0.0972152
0.278645 0.23331 0.0938125
0.3066 0.234943 0.0902419
0.332265 0.235935 0.0877089
0.362036 0.235096 0.0841535
0.391516 0.234546 0.081239
0.418738 0.234531 0.0783093
0.442603 0.236103 0.0765545
0.465064 0.237736 0.0750896
0.486748 0.24007 0.0741283
0.50811 0.242267 0.0732891
0.529992 0.244907 0.0723125
0.552026 0.24715 0.0711681
0.574289 0.249195 0.0703136
0.59733 0.251316 0.0698405
0.621042 0.252644 0.069749
0.644892 0.254093 0.0696117
0.668864 0.255268 0.0695506
0.692775 0.256565 0.0691081
0.716747 0.257771 0.0688487
0.741024 0.259022 0.0685588
0.765057 0.259785 0.0683909
0.789334 0.260838 0.0681315
0.0250095 0.215366 0.164935
0.0327611 0.214771 0.160082
0.0482795 0.213642 0.152651
0.0611582 0.213962 0.145052
0.0668956 0.21709 0.132372
0.0735485 0.225284 0.116686
0.0868391 0.234791 0.101289
0.118959 0.245548 0.111604
0.150118 0.254047 0.118715
0.187823 0.2589 0.110796
0.231754 0.259144 0.104906
0.278798 0.256947 0.103731
0.317693 0.256733 0.0997482
0.347616 0.258656 0.0956588
0.373388 0.259586 0.093431
0.399588 0.260075 0.0908522
0.426017 0.260029 0.0877852
0.4495 0.261158 0.0860151
0.471611 0.262547 0.0844892
0.493568 0.2645 0.0835126
0.514992 0.266377 0.0820935
0.536889 0.268452 0.0809186
0.558968 0.27039 0.0795911
0.581231 0.272618 0.0788128
0.60322 0.274739 0.0776226
0.625666 0.276661 0.0768597
0.649027 0.278462 0.0764172
0.67277 0.279744 0.0763104
0.696834 0.280842 0.076173
0.720638 0.281636 0.0757458
0.744808 0.28278 0.0756085
0.769039 0.283879 0.0756237
0.793042 0.284627 0.0753796
0.0235752 0.238041 0.180667
0.0317998 0.237324 0.175845
0.0476997 0.236469 0.168978
0.0644236 0.236988 0.162829
0.0699474 0.23888 0.151858
0.0772564 0.245792 0.139467
0.08365 0.254002 0.116182
0.107591 0.264805 0.111513
0.141894 0.274922 0.126146
0.176379 0.281636 0.128801
0.219059 0.284718 0.118456
0.266255 0.284169 0.11191
0.316701 0.28101 0.110033
0.355993 0.280797 0.106188
0.386496 0.28278 0.101976
0.411276 0.284169 0.0990005
0.432776 0.285924 0.0975814
0.455558 0.287098 0.0958114
0.477516 0.288228 0.0943923
0.499397 0.289845 0.0928359
0.520989 0.291249 0.09131
0.543191 0.29308 0.090074
0.565316 0.294606 0.0886702
0.58761 0.296437 0.0878462
0.609613 0.298253 0.0866865
0.632258 0.300267 0.085832
0.654795 0.30193 0.0845808
0.677562 0.303563 0.083711
0.700816 0.305211 0.0832685
0.724514 0.306554 0.0829786
0.748547 0.307301 0.0827497
0.772519 0.308019 0.0825666
0.796323 0.308888 0.082414
0.0225071 0.261082 0.196048
0.0309911 0.26038 0.191684
0.0476692 0.259037 0.185153
0.0639658 0.259953 0.179095
0.0733196 0.261265 0.170443
0.0802472 0.2663 0.158785
0.088365 0.274708 0.142321
0.0981155 0.28365 0.119905
0.13228 0.29485 0.128527
0.167056 0.302861 0.138445
0.20621 0.308293 0.136873
0.253193 0.309911 0.125292
0.302129 0.308431 0.11809
0.351843 0.305455 0.116304
0.392004 0.304967 0.112444
0.420722 0.307652 0.108675
0.442618 0.310735 0.106798
0.461921 0.312642 0.10544
0.482338 0.314565 0.104265
0.504265 0.315847 0.102556
0.526253 0.317113 0.100786
0.548714 0.318273 0.0994125
0.57084 0.319615 0.0982834
0.59324 0.321294 0.09691
0.615381 0.322744 0.0955367
0.638025 0.324376 0.094789
0.660685 0.32575 0.0934615
0.683726 0.327413 0.092607
0.706233 0.328908 0.0915999
0.728985 0.330343 0.0907301
0.752239 0.331868 0.0902419
0.77612 0.332982 0.0899977
0.799435 0.333639 0.0897231
0.0217441 0.284092 0.21091
0.0299687 0.28336 0.206882
0.0479591 0.282139 0.200595
0.0644999 0.283146 0.194995
0.0767681 0.284794 0.18851
0.0833753 0.287022 0.176791
0.0926528 0.295247 0.164294
0.100359 0.303624 0.142428
0.120409 0.314046 0.128237
0.15819 0.323552 0.142855
0.196979 0.329961 0.149035
0.239429 0.333974 0.144121
0.289418 0.334005 0.129976
0.338369 0.332616 0.124132
0.385977 0.33048 0.122072
0.424338 0.33022 0.119463
0.448661 0.334325 0.116564
0.469871 0.337911 0.114702
0.489128 0.340307 0.113451
0.508888 0.342046 0.112352
0.530999 0.343236 0.110933
0.553506 0.34432 0.109529
0.575677 0.345449 0.108019
0.597925 0.346609 0.106477
0.620356 0.347936 0.105058
0.643519 0.349294 0.10399
0.666087 0.350469 0.102831
0.688945 0.351873 0.101869
0.711513 0.353109 0.100847
0.734539 0.354681 0.10016
0.757488 0.35584 0.0991836
0.780499 0.357061 0.098436
0.803143 0.358297 0.0978561
0.0203098 0.307057 0.224918
0.0289006 0.306386 0.221118
0.0479896 0.305165 0.215015
0.0644541 0.306264 0.210224
0.0818647 0.307759 0.205676
0.08748 0.30959 0.194858
0.096376 0.315892 0.183322
0.104707 0.324025 0.16611
0.111742 0.333288 0.139879
0.148425 0.34345 0.145693
0.188617 0.350652 0.155215
0.229282 0.355871 0.15758
0.274998 0.358404 0.149065
0.325994 0.358129 0.135393
0.373938 0.356939 0.129229
0.417243 0.355749 0.128145
0.449775 0.357183 0.126543
0.47393 0.361105 0.124163
0.496025 0.365072 0.122347
0.515816 0.36762 0.121218
0.535637 0.369604 0.120485
0.557382 0.370687 0.119005
0.579736 0.371695 0.117403
0.602365 0.372778 0.115938
0.625238 0.373724 0.114687
0.647974 0.374563 0.113313
0.670954 0.375723 0.112444
0.693858 0.37702 0.111437
0.716503 0.378058 0.11046
0.739574 0.379309 0.109758
0.762509 0.380316 0.108751
0.785626 0.381567 0.108232
0.807858 0.382437 0.107469
0.0187686 0.330541 0.238346
0.0279545 0.329686 0.23476
0.0481422 0.328405 0.228824
0.0652323 0.329671 0.224659
0.0817731 0.331014 0.220157
0.092546 0.332616 0.212116
0.100221 0.336538 0.200931
0.109743 0.344747 0.187686
0.117098 0.353185 0.165591
0.13814 0.363058 0.149401
0.179507 0.371237 0.15938
0.222187 0.376471 0.165286
0.265248 0.380758 0.164385
0.312261 0.382574 0.15378
0.362737 0.381949 0.140444
0.406043 0.382025 0.135515
0.442893 0.382834 0.135424
0.473716 0.384726 0.134691
0.498573 0.388449 0.13225
0.521737 0.392493 0.13051
0.542931 0.394797 0.128695
0.562829 0.39678 0.127962
0.583871 0.398154 0.127138
0.606912 0.39881 0.125566
0.629679 0.399466 0.124208
0.652781 0.400458 0.123293
0.675624 0.401434 0.122179
0.69836 0.402228 0.120897
0.721447 0.403311 0.120073
0.744747 0.40444 0.119493
0.768017 0.405234 0.118486
0.791043 0.406256 0.117983
0.812741 0.407141 0.117296
0.0174716 0.353582 0.250599
0.0276646 0.352728 0.247166
0.0488746 0.351598 0.241794
0.0658579 0.353017 0.238453
0.0834058 0.354482 0.234394
0.0973983 0.355856 0.228122
0.104158 0.357244 0.217472
0.114595 0.365179 0.20589
0.122988 0.373434 0.188159
0.132753 0.382406 0.163424
0.170871 0.391135 0.163989
0.215534 0.39707 0.171237
0.259236 0.401556 0.174289
0.303197 0.4047 0.169986
0.350851 0.405921 0.158434
0.397467 0.406409 0.146105
0.43444 0.407904 0.142718
0.467643 0.409812 0.143526
0.49897 0.41149 0.142855
0.523934 0.415106 0.140337
0.547707 0.419043 0.13872
0.570382 0.422126 0.137926
0.590616 0.423468 0.136858
0.612039 0.424903 0.13608
0.634592 0.425742 0.134874
0.657588 0.426474 0.133532
0.680659 0.427008 0.132448
0.703792 0.42797 0.131533
0.726864 0.428855 0.130632
0.750195 0.429435 0.129595
0.773602 0.430335 0.129168
0.796384 0.431342 0.128725
0.817639 0.432074 0.127962
0.0166934 0.377005 0.262333
0.0287633 0.375662 0.258564
0.0497292 0.374838 0.254108
0.0671702 0.37612 0.251087
0.0847486 0.377691 0.247517
0.10251 0.378653 0.243122
0.110063 0.380056 0.234073
0.119493 0.385214 0.222599
0.129732 0.393423 0.20853
0.136126 0.401877 0.184482
0.164096 0.410513 0.171771
0.209552 0.41706 0.176669
0.254871 0.421439 0.182315
0.298405 0.425162 0.182544
0.342718 0.427878 0.175891
0.388159 0.429816 0.164584
0.428214 0.431418 0.153643
0.460914 0.434012 0.151553
0.492485 0.436469 0.151827
0.524819 0.438041 0.151873
0.54963 0.441794 0.149722
0.573846 0.445747 0.147936
0.597436 0.448936 0.146777
0.619242 0.450553 0.145769
0.640345 0.451667 0.145068
0.66247 0.452644 0.144183
0.685725 0.453178 0.143069
0.70927 0.453773 0.142199
0.732357 0.454337 0.141299
0.755688 0.455146 0.140566
0.778912 0.456016 0.139834
0.801266 0.456657 0.138994
0.822644 0.457496 0.13872
0.0179599 0.399558 0.272633
0.0313115 0.398291 0.269337
0.0514076 0.397879 0.265858
0.0691081 0.399359 0.263172
0.0876478 0.40087 0.260426
0.10634 0.401572 0.256703
0.117327 0.402625 0.249439
0.124788 0.405158 0.23856
0.136568 0.41294 0.226368
0.145937 0.421241 0.208072
0.163653 0.429587 0.187655
0.205463 0.436164 0.184894
0.252064 0.440986 0.189548
0.296468 0.44477 0.192065
0.339376 0.448142 0.189685
0.38201 0.451316 0.182086
0.421088 0.454093 0.171572
0.455512 0.457465 0.163119
0.486503 0.460517 0.160967
0.517388 0.463035 0.160891
0.548516 0.46508 0.160357
0.575113 0.468391 0.158648
0.599939 0.472145 0.157
0.624323 0.475486 0.155993
0.646693 0.477348 0.155001
0.668849 0.478553 0.154513
0.690974 0.479393 0.153658
0.713863 0.480034 0.152667
0.737194 0.480674 0.15169
0.76054 0.481331 0.150942
0.783673 0.481819 0.150164
0.806043 0.482719 0.14963
0.8271 0.483543 0.149172
0.0210422 0.421729 0.282551
0.0354925 0.420371 0.279606
0.0548714 0.420813 0.277043
0.0721141 0.422141 0.274815
0.0910353 0.423468 0.272343
0.110201 0.424277 0.269413
0.12491 0.42475 0.264134
0.132479 0.425589 0.254414
0.144411 0.431907 0.242969
0.15555 0.43975 0.227375
0.165469 0.448264 0.203296
0.203754 0.454948 0.196582
0.250156 0.459998 0.19646
0.296162 0.464057 0.201144
0.339239 0.467597 0.200946
0.379294 0.471672 0.196796
0.41651 0.475578 0.188693
0.450034 0.479789 0.179568
0.482002 0.483497 0.172107
0.512337 0.486992 0.17026
0.54287 0.489769 0.170077
0.573205 0.492134 0.169512
0.600671 0.495293 0.167803
0.626001 0.49897 0.166079
0.651087 0.50248 0.164996
0.674525 0.504524 0.16405
0.696361 0.505501 0.16318
0.718776 0.506798 0.163088
0.741711 0.507317 0.162264
0.765011 0.507713 0.161379
0.788251 0.508431 0.160754
0.810651 0.509071 0.160357
0.831388 0.509544 0.159777
0.0261692 0.44387 0.291905
0.0411841 0.442451 0.289189
0.0585641 0.443397 0.287877
0.0765545 0.444907 0.286275
0.0953689 0.445762 0.283909
0.114885 0.446387 0.281498
0.133379 0.446494 0.278126
0.143038 0.44712 0.269856
0.153536 0.450828 0.258595
0.165988 0.458244 0.244907
0.175647 0.466407 0.223865
0.204242 0.473579 0.209537
0.251102 0.478676 0.207553
0.296773 0.482887 0.209262
0.340337 0.486748 0.211017
0.379965 0.490929 0.209262
0.414527 0.495872 0.204196
0.446143 0.501305 0.196902
0.477089 0.506065 0.18854
0.508339 0.509972 0.181277
0.538445 0.513466 0.179248
0.568307 0.516594 0.178912
0.598398 0.518975 0.178195
0.625834 0.522087 0.176577
0.651179 0.526009 0.175128
0.676783 0.529473 0.174212
0.701595 0.532219 0.173678
0.723918 0.53312 0.172869
0.746517 0.53373 0.17232
0.769818 0.534844 0.172168
0.792767 0.535302 0.171344
0.81445 0.535729 0.170611
0.835142 0.536507 0.170245
0.0328985 0.465248 0.300221
0.0469978 0.464775 0.298497
0.0635386 0.465812 0.297536
0.0816052 0.467201 0.296605
0.10074 0.468223 0.295018
0.120562 0.46865 0.29308
0.142794 0.468254 0.291066
0.154604 0.468147 0.283711
0.163806 0.469612 0.272847
0.177066 0.476478 0.260563
0.188205 0.484245 0.242206
0.208911 0.491798 0.223682
0.254536 0.49691 0.2206
0.299001 0.501289 0.217929
0.342611 0.505455 0.219928
0.381888 0.510048 0.220249
0.415534 0.515465 0.217624
0.444434 0.521614 0.212589
0.474067 0.527504 0.205005
0.504616 0.532387 0.197498
0.534783 0.536385 0.190585
0.563867 0.539986 0.188693
0.593378 0.543206 0.188083
0.62324 0.54609 0.187259
0.650629 0.549401 0.18584
0.676692 0.552865 0.184268
0.702815 0.556603 0.183444
0.728618 0.559762 0.183093
0.751675 0.560937 0.182361
0.77438 0.561669 0.181994
0.796475 0.56228 0.181506
0.818372 0.563241 0.181399
0.838682 0.563775 0.180835
0.0403449 0.486885 0.307485
0.0522621 0.487144 0.306813
0.0687419 0.488548 0.306477
0.0872511 0.489555 0.305715
0.106447 0.490196 0.304799
0.126802 0.490501 0.303395
0.148928 0.489815 0.301488
0.167224 0.488945 0.296529
0.176257 0.489235 0.286946
0.188876 0.494285 0.274662
0.200977 0.502022 0.258671
0.216358 0.509743 0.237827
0.258961 0.515053 0.233097
0.303914 0.519402 0.230335
0.346777 0.523888 0.229343
0.385153 0.528679 0.230365
0.41767 0.534691 0.229786
0.44564 0.541512 0.226856
0.472984 0.548135 0.22118
0.501793 0.553948 0.213672
0.531182 0.558816 0.206043
0.560861 0.562997 0.200275
0.589761 0.566735 0.197803
0.618799 0.570153 0.196872
0.648127 0.573312 0.195834
0.676112 0.576638 0.194934
0.702434 0.580316 0.193683
0.728756 0.583886 0.192966
0.754452 0.587213 0.192752
0.778546 0.588922 0.192157
0.80119 0.589807 0.191821
0.822354 0.5906 0.191714
0.842222 0.591073 0.191318
0.046952 0.508995 0.314
0.0577096 0.50959 0.314107
0.0744793 0.510781 0.314336
0.093431 0.511818 0.314244
0.11281 0.512337 0.31371
0.133715 0.512337 0.31284
0.15671 0.511131 0.311162
0.180179 0.509712 0.307942
0.190539 0.509483 0.29958
0.201068 0.512062 0.287327
0.214206 0.519493 0.272786
0.22533 0.527596 0.251072
0.264164 0.53312 0.244404
0.310933 0.53724 0.242924
0.351995 0.542168 0.24004
0.389334 0.547219 0.240299
0.421408 0.553811 0.241566
0.44831 0.560754 0.239826
0.473854 0.568124 0.235996
0.500938 0.574823 0.229755
0.528923 0.580362 0.222461
0.558175 0.585138 0.215152
0.587167 0.589609 0.209552
0.615702 0.593851 0.207706
0.644633 0.597528 0.206424
0.673381 0.600946 0.205493
0.701701 0.604288 0.20441
0.728298 0.608011 0.203235
0.754574 0.61178 0.202792
0.781079 0.615198 0.202625
0.805173 0.617472 0.202441
0.826093 0.618051 0.201892
0.845884 0.619028 0.201907
0.0529488 0.531441 0.320226
0.0639353 0.532082 0.320745
0.080827 0.532952 0.321096
0.0994736 0.533791 0.32137
0.119173 0.534127 0.32163
0.141405 0.533654 0.321126
0.165652 0.532403 0.319814
0.192813 0.530144 0.318013
0.206729 0.529366 0.310552
0.215564 0.530434 0.299382
0.227726 0.536843 0.285435
0.238544 0.544778 0.265522
0.270848 0.550988 0.255146
0.318151 0.554955 0.25481
0.359594 0.560067 0.252995
0.395148 0.56553 0.250767
0.425269 0.572656 0.252583
0.451759 0.580072 0.252613
0.476905 0.587549 0.249912
0.502297 0.594888 0.244984
0.528679 0.601343 0.238407
0.556603 0.606943 0.230869
0.585138 0.612131 0.224689
0.61416 0.616678 0.219486
0.642176 0.621103 0.21738
0.670832 0.625055 0.216068
0.699046 0.628656 0.215015
0.727352 0.632303 0.214282
0.753887 0.636027 0.213413
0.780529 0.639567 0.212848
0.806119 0.643015 0.212818
0.829313 0.64622 0.213016
0.849378 0.647105 0.212589
0.0594644 0.553887 0.325612
0.0698711 0.554284 0.326284
0.0874952 0.555261 0.327276
0.106355 0.55584 0.328176
0.126574 0.556023 0.328679
0.149523 0.554788 0.328252
0.175296 0.553201 0.32752
0.202258 0.550835 0.325841
0.223133 0.549462 0.321035
0.231067 0.549828 0.310521
0.241962 0.55407 0.29691
0.253483 0.561929 0.278935
0.279164 0.568704 0.265339
0.326375 0.572946 0.265675
0.367544 0.578012 0.265064
0.401602 0.58381 0.262943
0.430243 0.59147 0.263188
0.455634 0.599252 0.264591
0.480262 0.606989 0.263172
0.505119 0.614786 0.259632
0.530175 0.621775 0.253941
0.556725 0.628046 0.247074
0.584054 0.634028 0.240299
0.612589 0.639323 0.234348
0.640696 0.64416 0.229816
0.668864 0.648569 0.22771
0.696559 0.652583 0.226184
0.724956 0.656443 0.224933
0.752575 0.66006 0.224033
0.779751 0.664088 0.223209
0.805631 0.667674 0.222934
0.829267 0.671351 0.222843
0.851835 0.674784 0.223285
0.0655375 0.575998 0.330251
0.0764477 0.576364 0.331121
0.094255 0.577142 0.332525
0.113405 0.577447 0.333745
0.134447 0.577203 0.334615
0.15845 0.576104 0.334768
0.18497 0.57406 0.334249
0.213275 0.571496 0.333211
0.237278 0.569406 0.329747
0.247822 0.569177 0.320653
0.256504 0.571542 0.30724
0.267781 0.579171 0.2907
0.290074 0.586267 0.276219
0.335271 0.590585 0.276234
