code/data/lut/36青绿色调1.cube
TITLE "LD - Century 1"
# Copyright (c) 2019 Lens Distortions, LLC. All Rights Reserved.
# LensDistortions.com
# ref-CNT1
LUT_3D_SIZE 9
0.00181582 0.0133211 0.0221561
0.0581064 0.021561 0.0276646
0.140261 0.0361944 0.0377356
0.244282 0.0476539 0.0407568
0.363195 0.0502632 0.031754
0.467018 0.0572824 0.0260471
0.557488 0.0697185 0.0260319
0.652567 0.0810101 0.0271305
0.749798 0.0896925 0.0276646
0.0184329 0.085481 0.0678264
0.0797131 0.102464 0.047776
0.152331 0.114672 0.0504768
0.249454 0.120623 0.0457923
0.375204 0.120226 0.0377356
0.480156 0.126772 0.034699
0.574548 0.136736 0.0352789
0.670985 0.145266 0.0358434
0.768582 0.152117 0.0364996
0.0249638 0.170962 0.132799
0.0612497 0.17731 0.0921035
0.16968 0.207645 0.0900893
0.291691 0.211521 0.0818952
0.409873 0.210239 0.0694896
0.50071 0.219303 0.0635843
0.593271 0.227085 0.0625467
0.68896 0.23299 0.0615854
0.785657 0.237705 0.0598306
0.0225071 0.261082 0.196048
0.0733196 0.261265 0.170443
0.13228 0.29485 0.128527
0.302129 0.308431 0.11809
0.442618 0.310735 0.106798
0.526253 0.317113 0.100786
0.615381 0.322744 0.0955367
0.706233 0.328908 0.0915999
0.799435 0.333639 0.0897231
0.0174716 0.353582 0.250599
0.0834058 0.354482 0.234394
0.122988 0.373434 0.188159
0.259236 0.401556 0.174289
0.43444 0.407904 0.142718
0.547707 0.419043 0.13872
0.634592 0.425742 0.134874
0.726864 0.428855 0.130632
0.817639 0.432074 0.127962
0.0261692 0.44387 0.291905
0.0953689 0.445762 0.283909
0.153536 0.450828 0.258595
0.251102 0.478676 0.207553
0.414527 0.495872 0.204196
0.538445 0.513466 0.179248
0.651179 0.526009 0.175128
0.746517 0.53373 0.17232
0.835142 0.536507 0.170245
0.0529488 0.531441 0.320226
0.119173 0.534127 0.32163
0.206729 0.529366 0.310552
0.270848 0.550988 0.255146
0.425269 0.572656 0.252583
0.528679 0.601343 0.238407
0.642176 0.621103 0.21738
0.753887 0.636027 0.213413
0.849378 0.647105 0.212589
0.0787366 0.620066 0.337667
0.151186 0.619669 0.344717
0.263203 0.61004 0.343526
0.314839 0.621088 0.296315
0.4486 0.647776 0.301427
0.542138 0.681178 0.298665
0.640497 0.710506 0.276356
0.749325 0.732479 0.260166
0.851301 0.750072 0.256672
0.103273 0.704555 0.35079
0.186496 0.702113 0.360189
0.303212 0.692561 0.362142
0.366094 0.692531 0.333379
0.475456 0.724117 0.347951
0.565713 0.759777 0.354543
0.654551 0.793729 0.343893
0.75259 0.821546 0.322103
0.851209 0.8421 0.309377
0.00761425 0.0307469 0.0660563
0.0801404 0.0367437 0.10071
0.163729 0.0480659 0.112627
0.270451 0.0461128 0.109468
0.398611 0.0368505 0.0943923
0.501076 0.0342565 0.0834058
0.595773 0.0332952 0.0731975
0.692317 0.0321965 0.0605936
0.788495 0.0319524 0.0490272
0.0196231 0.112886 0.118425
0.0891585 0.118486 0.112749
0.165377 0.121141 0.112245
0.273396 0.116335 0.10341
0.39733 0.110765 0.0925307
0.493431 0.117342 0.0916152
0.585016 0.128923 0.0957961
0.681193 0.136629 0.0964981
0.777234 0.14316 0.0979324
0.023682 0.187304 0.167956
0.0827649 0.201862 0.160708
0.180301 0.221408 0.141558
0.302861 0.219898 0.132021
0.419913 0.216617 0.118883
0.511162 0.221958 0.115969
0.603616 0.22771 0.116823
0.698741 0.23299 0.117021
0.794324 0.237293 0.117281
0.0205692 0.271824 0.224948
0.0772717 0.276692 0.209979
0.144717 0.310491 0.17258
0.313268 0.318441 0.161746
0.446418 0.319356 0.152728
0.533425 0.322957 0.146807
0.621988 0.327718 0.143633
0.712535 0.333165 0.141482
0.806683 0.335882 0.142
0.0130159 0.363363 0.275303
0.0748302 0.363973 0.260639
0.15639 0.387121 0.239948
0.271351 0.411093 0.208042
0.441779 0.416541 0.179858
0.552789 0.426642 0.180011
0.640406 0.430823 0.176791
0.733089 0.433265 0.174182
0.822614 0.436118 0.172915
0.0172274 0.45301 0.313008
0.0847334 0.454459 0.305135
0.183429 0.46009 0.294331
0.26067 0.487984 0.239796
0.423163 0.503975 0.237003
0.544732 0.520912 0.21146
0.657023 0.532113 0.211566
0.751568 0.53901 0.21294
0.839521 0.540978 0.211887
0.0464942 0.538872 0.336324
0.10457 0.542809 0.33669
0.215183 0.536767 0.332174
0.288716 0.558206 0.287037
0.431891 0.58056 0.28098
0.535103 0.608454 0.270451
0.647898 0.627787 0.248341
0.75996 0.641855 0.244343
0.853254 0.651789 0.251972
0.0712596 0.627665 0.351064
0.134127 0.628626 0.357137
0.253895 0.618784 0.357656
0.340444 0.626276 0.330724
0.454887 0.65539 0.32932
0.548424 0.687968 0.329412
0.646128 0.717052 0.307729
0.754543 0.738613 0.290379
0.855589 0.755673 0.287236
0.0953841 0.711284 0.362676
0.16672 0.710628 0.371511
0.293828 0.70071 0.376196
0.39028 0.696696 0.367285
0.480766 0.731258 0.371878
0.572015 0.766537 0.382055
0.660655 0.799695 0.373785
0.758007 0.826978 0.352346
0.855207 0.846906 0.339284
0.0190738 0.0890211 0.148775
0.0751049 0.0794842 0.200412
0.170108 0.0794385 0.198932
0.286076 0.0725414 0.188464
0.410513 0.0627756 0.177249
0.505699 0.0615091 0.175174
0.599313 0.0614481 0.16994
0.694545 0.0607156 0.165484
0.789654 0.059617 0.161654
0.0229801 0.146593 0.189822
0.0818952 0.146456 0.192737
0.184085 0.145525 0.211139
0.305898 0.13753 0.200641
0.428763 0.126268 0.190005
0.522927 0.123033 0.18471
0.616846 0.121904 0.17908
0.71191 0.122942 0.175479
0.80621 0.123827 0.172793
0.0233005 0.225696 0.228779
0.0809644 0.229816 0.226246
0.199466 0.243885 0.227085
0.325002 0.234424 0.216358
0.443702 0.226658 0.205859
0.535683 0.227436 0.202167
0.628412 0.227893 0.198764
0.720836 0.227756 0.194507
0.813611 0.226917 0.190738
0.0175784 0.310338 0.278767
0.0540932 0.316014 0.275334
0.195193 0.332372 0.263325
0.33257 0.337041 0.236927
0.455268 0.334539 0.227863
0.544915 0.335668 0.221744
0.636088 0.336873 0.215686
0.731426 0.33547 0.208789
0.823133 0.335531 0.206516
0.0108034 0.387533 0.316228
0.0582589 0.391989 0.311543
0.181018 0.415702 0.30724
0.30869 0.426688 0.272969
0.454948 0.433112 0.252171
0.561608 0.440604 0.251072
0.653834 0.440925 0.243381
0.747738 0.43975 0.233539
0.834943 0.441428 0.233265
0.00953689 0.46978 0.34963
0.0716259 0.468803 0.344411
0.183276 0.491737 0.341985
0.31574 0.50312 0.313146
0.443458 0.519463 0.304402
0.556878 0.535668 0.277348
0.669154 0.545419 0.273045
0.764309 0.548074 0.270008
0.850187 0.547997 0.269306
0.0334325 0.553903 0.367056
0.0903182 0.557107 0.368521
0.203571 0.56144 0.365866
0.353353 0.573419 0.356191
0.451453 0.598962 0.337758
0.549859 0.625238 0.326711
0.661967 0.643 0.298375
0.772869 0.654307 0.300313
0.861906 0.660822 0.307454
0.0602579 0.641596 0.37583
0.117388 0.643595 0.382574
0.234775 0.636835 0.383383
0.386862 0.642618 0.385458
0.467964 0.67483 0.372686
0.563058 0.705791 0.374105
0.659236 0.733272 0.352987
0.767727 0.753079 0.333745
0.866499 0.767636 0.330343
0.0825208 0.724468 0.384955
0.146899 0.725322 0.395102
0.263233 0.719768 0.39736
0.401251 0.714351 0.402014
0.489143 0.749813 0.407538
0.584527 0.783551 0.422019
0.67393 0.814588 0.417014
0.770245 0.840162 0.39469
0.864622 0.857847 0.379812
0.0257877 0.143099 0.2309
0.0717632 0.139986 0.244648
0.176791 0.118364 0.306798
0.305333 0.108766 0.292149
0.434592 0.0998856 0.280461
0.526726 0.0977951 0.275303
0.61886 0.0965896 0.272969
0.712551 0.0953841 0.272099
0.805814 0.0947127 0.268971
0.0268406 0.186694 0.259281
0.0780804 0.186099 0.269856
0.187427 0.176608 0.324056
0.326818 0.166979 0.307454
0.451789 0.160616 0.297902
0.544366 0.156298 0.292653
0.636896 0.150195 0.288563
0.730724 0.150774 0.286549
0.822965 0.151492 0.283162
0.0210727 0.264042 0.317601
0.0777295 0.265126 0.316121
0.187808 0.270405 0.323491
0.345052 0.256626 0.32163
0.464698 0.250553 0.313191
0.558663 0.24712 0.308858
0.653681 0.242466 0.304448
0.749706 0.234348 0.296193
0.84007 0.227161 0.289036
0.0142672 0.345678 0.343389
0.0508583 0.346288 0.341131
0.183948 0.359884 0.341924
0.355627 0.358038 0.330068
0.469383 0.351156 0.322698
0.563409 0.348745 0.317418
0.657877 0.346441 0.312993
0.752987 0.342168 0.306493
0.845106 0.332464 0.29604
0.00880446 0.43183 0.381064
0.0180667 0.434775 0.379278
0.158999 0.451575 0.382177
0.363684 0.443626 0.35552
0.470512 0.453971 0.341909
0.572686 0.456321 0.339788
0.667185 0.454139 0.332494
0.762768 0.451438 0.324132
0.852766 0.444495 0.310262
0.00839246 0.512276 0.405554
0.0470893 0.511574 0.399802
0.167575 0.529885 0.404913
0.363928 0.525017 0.391333
0.470085 0.539574 0.383658
0.572274 0.55494 0.363378
0.682078 0.562234 0.361669
0.779599 0.560021 0.352132
0.86595 0.555581 0.337789
0.0108644 0.585504 0.410727
0.0688334 0.586374 0.410773
0.186358 0.602594 0.41648
0.373754 0.602274 0.413443
0.477638 0.621485 0.411032
0.571176 0.644511 0.41004
0.67776 0.661692 0.381521
0.791012 0.671229 0.37258
0.874983 0.672847 0.373587
0.0437018 0.660487 0.410834
0.0962997 0.663188 0.417655
0.21413 0.671199 0.423575
0.385672 0.678187 0.42916
0.488457 0.702464 0.43563
0.585672 0.730114 0.444907
0.677989 0.757382 0.419364
0.787274 0.774578 0.392035
0.880125 0.784695 0.398199
0.0656443 0.742473 0.41825
0.123186 0.744945 0.428305
0.234791 0.741238 0.432425
0.397467 0.749844 0.443229
0.504036 0.779675 0.462028
0.60058 0.810269 0.474754
0.692699 0.8374 0.47216
0.787961 0.859739 0.447745
0.879316 0.874418 0.430259
0.0296635 0.19852 0.319524
0.0745098 0.196612 0.32813
0.147829 0.180285 0.431495
0.31989 0.153979 0.409155
0.449744 0.144686 0.395499
0.551553 0.144228 0.393744
0.643549 0.140932 0.387015
0.736507 0.138354 0.3832
0.826688 0.136294 0.38056
0.0287633 0.232746 0.345129
0.0768597 0.232761 0.353979
0.158755 0.23093 0.413687
0.339132 0.200595 0.423621
0.464805 0.195041 0.410758
0.565698 0.196231 0.408972
0.658564 0.186908 0.400992
0.751492 0.184237 0.396582
0.840604 0.183795 0.394293
0.018204 0.300252 0.39585
0.0731365 0.299947 0.393576
0.173404 0.305959 0.410498
0.351537 0.280964 0.436683
0.475044 0.277089 0.422782
0.575479 0.278141 0.420157
0.67039 0.272175 0.414313
0.766186 0.261875 0.408255
0.853956 0.251698 0.402838
0.0111849 0.384253 0.439216
0.0578927 0.383261 0.439002
0.175631 0.393957 0.445655
0.346822 0.38085 0.437263
0.480568 0.374334 0.430518
0.578988 0.373556 0.426825
0.676188 0.368093 0.422324
0.773663 0.360128 0.416464
0.862287 0.345998 0.406821
0.00862135 0.464286 0.452842
0.0242008 0.464012 0.452018
0.161379 0.475822 0.45713
0.339178 0.472572 0.443793
0.48748 0.475608 0.44155
0.587076 0.472786 0.438453
0.684184 0.468559 0.432853
0.782132 0.462974 0.426429
0.868406 0.453483 0.41619
0.0074464 0.550515 0.47425
0.0195621 0.550149 0.471046
0.142733 0.564569 0.477226
0.328008 0.564813 0.465736
0.497139 0.563134 0.463081
0.589548 0.576761 0.457588
0.695109 0.578531 0.45539
0.794186 0.574548 0.447578
0.88014 0.56672 0.432959
0.00634775 0.63505 0.479149
0.0524605 0.632761 0.475929
0.159274 0.648295 0.483009
0.344717 0.645609 0.475929
0.50161 0.648768 0.490242
0.596735 0.666239 0.498817
0.694881 0.683024 0.474998
0.80618 0.690089 0.471199
0.890593 0.685588 0.4542
0.0264439 0.708156 0.470207
0.0757153 0.710628 0.475257
0.186892 0.720348 0.482795
0.36257 0.722377 0.485451
0.50721 0.733715 0.50988
0.609522 0.755215 0.526787
0.700206 0.779675 0.51838
0.805982 0.797147 0.482551
0.897032 0.80441 0.473091
0.0485695 0.775967 0.470268
0.0988479 0.780514 0.478874
0.205463 0.787243 0.487343
0.379705 0.793088 0.49778
0.510124 0.815 0.526543
0.619318 0.839857 0.55021
0.716152 0.864759 0.549996
0.809094 0.88426 0.512276
0.896406 0.894286 0.48777
0.0323491 0.255787 0.414527
0.0764477 0.25452 0.420462
0.145296 0.254505 0.457923
0.311589 0.212757 0.528542
0.460319 0.191943 0.511299
0.561944 0.190127 0.505409
0.665614 0.188861 0.503899
0.759731 0.185229 0.496757
0.846448 0.182101 0.491508
0.0313268 0.283604 0.436606
0.0773938 0.283619 0.442771
0.160433 0.28661 0.467964
0.320378 0.251591 0.543221
0.472267 0.233112 0.52491
0.574365 0.233341 0.518624
0.677897 0.234257 0.516884
0.771695 0.222965 0.508003
0.85684 0.221729 0.502983
0.0216526 0.340917 0.473869
0.0733043 0.340902 0.475471
0.164858 0.345769 0.497368
0.317571 0.32314 0.557809
0.480858 0.30547 0.536767
0.583505 0.307118 0.529
0.686839 0.30901 0.527138
0.782483 0.298177 0.519326
0.866743 0.282322 0.511513
0.00924697 0.418769 0.532769
0.0598001 0.416815 0.531136
0.165988 0.424063 0.536156
0.330007 0.411856 0.533654
0.485161 0.395666 0.546654
0.588693 0.398062 0.536629
0.690761 0.398886 0.534066
0.787686 0.390082 0.527214
0.872801 0.373602 0.518837
0.0084535 0.500648 0.560967
0.0352331 0.497871 0.560265
0.162661 0.508232 0.569162
0.338201 0.50193 0.561547
0.486397 0.494728 0.558297
0.597925 0.495354 0.549371
0.699306 0.494392 0.545663
0.797681 0.487175 0.540307
0.881254 0.474372 0.530938
0.00703441 0.58143 0.561868
0.0287785 0.578637 0.558679
0.142931 0.590753 0.567559
0.321172 0.587564 0.559487
0.475608 0.590295 0.555657
0.606943 0.598932 0.562539
0.708186 0.595483 0.558938
0.807645 0.59028 0.553063
0.890532 0.580407 0.542687
0.00437934 0.669825 0.564492
0.0408331 0.666148 0.560204
0.137789 0.680003 0.569177
0.305486 0.682216 0.564538
0.473808 0.68632 0.564889
0.617319 0.690776 0.584634
0.712215 0.704952 0.579187
0.818524 0.707073 0.57644
0.900008 0.700236 0.56257
0.0141604 0.753872 0.557275
0.0618296 0.75407 0.558846
0.162905 0.76495 0.566995
0.317037 0.77142 0.566812
0.485801 0.775738 0.578561
0.62504 0.784176 0.608499
0.724666 0.80087 0.622827
0.821759 0.817014 0.592721
0.910277 0.822889 0.580072
0.0376745 0.824323 0.555581
0.0825513 0.82858 0.561273
0.191135 0.835737 0.56965
0.347372 0.838056 0.572915
0.488869 0.853025 0.594171
0.627756 0.867048 0.628428
0.738842 0.885222 0.649607
0.830014 0.904677 0.624216
0.913695 0.915419 0.562005
0.0363317 0.312505 0.512917
0.0784619 0.312047 0.517647
0.151873 0.313008 0.537667
0.262882 0.278248 0.661295
0.466758 0.241718 0.633097
0.569512 0.237293 0.622751
0.672602 0.234821 0.616876
0.77615 0.232822 0.614542
0.862455 0.230121 0.609445
0.0357519 0.335409 0.533761
0.0784314 0.336004 0.539498
0.157504 0.338598 0.560739
0.274617 0.311727 0.66041
0.474556 0.277394 0.645823
0.580194 0.27364 0.634867
0.683421 0.27303 0.628626
0.786908 0.273152 0.626413
0.870573 0.263447 0.619501
0.0283207 0.383597 0.568887
0.0746777 0.384222 0.5738
0.161486 0.388159 0.593698
0.306691 0.37348 0.617365
0.475547 0.343496 0.657359
0.587884 0.33875 0.645075
0.6916 0.339559 0.637781
0.794583 0.341421 0.635752
0.877379 0.324193 0.62855
0.00970474 0.452506 0.629419
0.0650187 0.45069 0.626993
0.164279 0.456718 0.633433
0.322438 0.444526 0.638392
0.473106 0.426596 0.671092
0.594751 0.421836 0.655207
0.698558 0.423819 0.646983
0.801343 0.426291 0.645777
0.881788 0.411826 0.637736
0.00766003 0.534981 0.680522
0.0553597 0.532403 0.678538
0.166522 0.538552 0.683894
0.331258 0.527825 0.672023
0.479255 0.519478 0.669551
0.603632 0.514763 0.670787
0.708675 0.51751 0.660731
0.810544 0.519188 0.659175
0.890227 0.506142 0.65156
0.00572213 0.61651 0.683253
0.0399176 0.612482 0.680247
0.143709 0.623056 0.691493
0.323354 0.617319 0.685481
0.478431 0.617487 0.684871
0.606943 0.61735 0.685847
0.719219 0.619562 0.6748
0.818845 0.618433 0.672145
0.898589 0.607721 0.66566
0.00302129 0.699306 0.671153
0.0443122 0.69572 0.667536
0.13727 0.706569 0.677256
0.293843 0.707149 0.675868
0.460304 0.708309 0.674586
0.594858 0.718059 0.681651
0.72987 0.727443 0.690578
0.828794 0.724651 0.687633
0.90721 0.716655 0.679179
0.0141299 0.787564 0.662989
0.0547951 0.787762 0.663111
0.146014 0.797498 0.671382
0.282765 0.802548 0.671839
0.447639 0.808331 0.674449
0.595758 0.819028 0.689265
0.742412 0.822736 0.715862
0.835706 0.835492 0.709239
0.917113 0.836591 0.700572
0.0317082 0.855665 0.658717
0.0673838 0.859297 0.661585
0.164355 0.868376 0.669871
0.310338 0.871138 0.671321
0.449683 0.88365 0.682811
0.603281 0.89633 0.707591
0.750195 0.904753 0.740139
0.848753 0.918135 0.750011
0.925689 0.930724 0.687068
0.0409094 0.362066 0.611811
0.0801099 0.365728 0.622827
0.153109 0.36791 0.642664
0.257389 0.351095 0.697047
0.444343 0.304601 0.754604
0.574487 0.286625 0.744106
0.677806 0.282139 0.734112
0.781018 0.279133 0.728573
0.866423 0.27715 0.725933
0.0411994 0.383261 0.63682
0.0801862 0.387045 0.647868
0.157214 0.388937 0.666178
0.281117 0.374319 0.699168
0.452186 0.333135 0.767895
0.583856 0.317662 0.756237
0.687755 0.314885 0.745739
0.790661 0.313634 0.739376
0.874464 0.313634 0.737224
0.0372015 0.425788 0.679866
0.0779126 0.42797 0.686366
0.162737 0.430655 0.703044
0.306249 0.417472 0.713909
0.45568 0.387884 0.781308
0.591272 0.375189 0.766796
0.695857 0.373983 0.755154
0.798337 0.37435 0.748638
0.880156 0.376059 0.746609
0.0244907 0.486275 0.735012
0.0726787 0.48716 0.735088
0.167132 0.491035 0.746807
0.320623 0.478492 0.751049
0.463798 0.462272 0.781262
0.596414 0.45185 0.779309
0.705119 0.450767 0.766766
0.807309 0.452522 0.760418
0.888243 0.455741 0.759503
0.00737011 0.563455 0.790555
0.0605936 0.561074 0.788617
0.16733 0.566369 0.794446
0.329198 0.555489 0.784222
0.475456 0.54728 0.784421
0.6009 0.541131 0.794003
0.715434 0.539986 0.780697
0.817014 0.543236 0.773693
0.89688 0.547448 0.773831
0.00653086 0.64976 0.810056
0.0520485 0.647089 0.808637
0.161913 0.654871 0.817609
0.334264 0.646113 0.808148
0.477256 0.641093 0.802991
0.603204 0.639872 0.804486
0.725414 0.639094 0.795346
0.827329 0.643137 0.787442
0.904738 0.645975 0.787717
0.00726329 0.732921 0.798184
0.0495613 0.731243 0.797208
0.138415 0.739742 0.806989
0.29218 0.737896 0.805951
0.463691 0.737011 0.803998
0.600961 0.745037 0.810193
0.730465 0.746471 0.809567
0.837552 0.750072 0.801968
0.912459 0.748348 0.8009
0.0205386 0.814786 0.781567
0.055375 0.816022 0.783322
0.143633 0.824598 0.791104
0.275715 0.825605 0.791882
0.428992 0.828794 0.7944
0.57612 0.837293 0.802289
0.719326 0.845655 0.810132
0.849592 0.853971 0.818296
0.921416 0.850309 0.814298
0.0312047 0.881056 0.777462
0.0621958 0.884749 0.77937
0.151278 0.892927 0.786526
0.286397 0.894423 0.786664
0.423392 0.900099 0.791089
0.5505 0.916045 0.805341
0.714992 0.925032 0.818479
0.859953 0.929534 0.840177
0.931075 0.9393 0.821149
0.042771 0.384024 0.661265
0.0808881 0.387945 0.672358
0.153887 0.392096 0.69601
0.273136 0.382193 0.731243
0.430106 0.341878 0.82826
0.573068 0.32636 0.824643
0.682139 0.321691 0.823163
0.785275 0.320485 0.821927
0.865827 0.319554 0.8215
0.0432288 0.403784 0.686976
0.0807507 0.407523 0.697459
0.157748 0.411627 0.720699
0.29102 0.401877 0.744137
0.438178 0.366751 0.838529
0.580499 0.354376 0.834104
0.691341 0.350927 0.832853
0.794202 0.35111 0.831159
0.873793 0.352041 0.831037
0.0406348 0.443244 0.731029
0.0795911 0.446677 0.740353
0.164019 0.450752 0.761212
0.306645 0.440604 0.776989
0.445029 0.415198 0.850019
0.586297 0.407279 0.843656
0.700191 0.404517 0.84155
0.803098 0.406363 0.840055
0.880812 0.408469 0.840085
0.0322271 0.501961 0.786068
0.0756542 0.504662 0.791638
0.168673 0.508751 0.807401
0.320394 0.49781 0.813733
0.457313 0.484001 0.850477
0.592157 0.477882 0.855253
0.710597 0.476036 0.85333
0.813413 0.479118 0.851637
0.889921 0.482643 0.851789
0.0130922 0.577722 0.841718
0.063447 0.577356 0.844266
0.168505 0.58294 0.852201
0.329168 0.57319 0.84596
0.461448 0.56527 0.865431
0.596551 0.562509 0.866194
0.720119 0.561624 0.864713
0.823728 0.565881 0.863188
0.898802 0.570886 0.863706
0.00991836 0.666773 0.86978
0.0558785 0.665919 0.87274
0.167712 0.672465 0.880507
0.325246 0.663096 0.874235
0.46743 0.658717 0.875044
0.600137 0.658259 0.875868
0.726345 0.658595 0.875502
0.833539 0.662943 0.874434
0.907149 0.669245 0.87538
0.0137789 0.752331 0.869535
0.0530251 0.752804 0.873198
0.140475 0.761349 0.883711
0.296284 0.758892 0.882933
0.467643 0.758587 0.881636
0.601892 0.763073 0.884901
0.730205 0.764538 0.88658
0.843534 0.768292 0.886595
0.915984 0.775372 0.88719
0.0254826 0.836591 0.864439
0.0565957 0.839124 0.869032
0.143725 0.847318 0.878599
0.275013 0.847318 0.879438
0.419715 0.848493 0.88217
0.576608 0.855909 0.889418
0.725734 0.863294 0.895598
0.850263 0.867796 0.899168
0.925048 0.873152 0.899916
0.0316625 0.897353 0.863798
0.0625925 0.901808 0.86833
0.147784 0.909865 0.876875
0.27953 0.909911 0.876768
0.417639 0.912291 0.879072
0.524788 0.925322 0.892332
0.680888 0.934554 0.901656
0.833463 0.940612 0.90753
0.933562 0.945373 0.912322
