code/data/lut/36青绿色调2.cube
TITLE "LD - Century 2"
# Copyright (c) 2019 Lens Distortions, LLC. All Rights Reserved.
# LensDistortions.com
# ref-CNT1
LUT_3D_SIZE 5
0.0113069 0.0260166 0.0348669
0.106874 0.0430762 0.0456703
0.342519 0.0530709 0.0436103
0.545602 0.0719921 0.0431678
0.72401 0.0896315 0.0437018
0.0340734 0.157931 0.122484
0.153353 0.196933 0.0881971
0.393332 0.197421 0.067216
0.570321 0.213642 0.0621195
0.750484 0.226215 0.0610208
0.0246586 0.338506 0.234409
0.101869 0.358785 0.171572
0.413108 0.391409 0.126726
0.606989 0.410346 0.121324
0.779995 0.419837 0.118135
0.0447089 0.516091 0.310384
0.18732 0.511635 0.2981
0.407828 0.55314 0.24065
0.617731 0.600473 0.206912
0.814389 0.626429 0.203906
0.0918288 0.682292 0.344518
0.290532 0.668894 0.353521
0.460288 0.696773 0.339605
0.630304 0.759396 0.334859
0.815412 0.806332 0.300267
0.0257572 0.0781109 0.129732
0.153689 0.0793317 0.187976
0.401755 0.066392 0.172107
0.58616 0.0662394 0.166506
0.763836 0.0658122 0.159411
0.0336309 0.212802 0.216129
0.180896 0.230747 0.213947
0.424567 0.211917 0.190799
0.603143 0.213703 0.18436
0.776837 0.215122 0.178866
0.0189822 0.370581 0.29955
0.158419 0.399573 0.292119
0.433402 0.416159 0.236713
0.625452 0.425452 0.229633
0.797681 0.429252 0.222736
0.0317693 0.537987 0.35697
0.185214 0.543069 0.353414
0.433951 0.578439 0.326482
0.636072 0.620874 0.289006
0.827756 0.638666 0.299443
0.075227 0.701839 0.37911
0.251041 0.694789 0.388479
0.473701 0.72015 0.397299
0.647944 0.779034 0.405646
0.829709 0.822324 0.368185
0.038056 0.186877 0.310033
0.130571 0.169818 0.419974
0.432349 0.134325 0.38294
0.61912 0.131319 0.374929
0.790631 0.129442 0.370947
0.0271305 0.285039 0.37969
0.151781 0.291737 0.395026
0.453391 0.261555 0.405447
0.641474 0.258152 0.39881
0.817548 0.241047 0.391363
0.0171206 0.445487 0.433188
0.140078 0.459159 0.439872
0.466468 0.458473 0.424414
0.65449 0.453193 0.417395
0.834943 0.441764 0.404807
0.016434 0.613703 0.464225
0.143404 0.628046 0.46981
0.483879 0.626017 0.474678
0.666529 0.657557 0.460182
0.861524 0.66128 0.441398
0.0479744 0.75201 0.46537
0.195163 0.758831 0.477882
0.493965 0.780591 0.511086
0.685679 0.829908 0.530938
0.867231 0.863157 0.47039
0.0370031 0.300099 0.49482
0.129824 0.298726 0.516915
0.446571 0.227008 0.606592
0.644724 0.221225 0.59266
0.827756 0.220279 0.589288
0.0296788 0.369772 0.546441
0.139239 0.373037 0.568795
0.453483 0.328542 0.627039
0.6607 0.326482 0.610605
0.844587 0.315129 0.606119
0.0170443 0.515984 0.649805
0.14789 0.52192 0.655695
0.460243 0.502403 0.640528
0.678676 0.501549 0.63357
0.862165 0.493721 0.628275
0.0145571 0.676127 0.647181
0.123949 0.684337 0.654337
0.444953 0.682017 0.64802
0.698238 0.697887 0.661021
0.882872 0.688609 0.651331
0.0355535 0.833265 0.646845
0.156603 0.84097 0.651957
0.436896 0.855787 0.657603
0.7149 0.876402 0.703914
0.907439 0.909667 0.653925
0.0367742 0.372229 0.634485
0.131655 0.377447 0.664179
0.409979 0.327871 0.790051
0.653407 0.309773 0.786068
0.83241 0.311391 0.787717
0.0354162 0.430991 0.69926
0.143587 0.435767 0.724468
0.426062 0.401129 0.816297
0.670817 0.392584 0.807752
0.851514 0.400229 0.809445
0.0216678 0.560983 0.809674
0.152743 0.566354 0.819364
0.444739 0.547799 0.837201
0.690455 0.545052 0.836057
0.873533 0.555795 0.836332
0.0231174 0.730343 0.849821
0.130282 0.736782 0.862135
0.453376 0.728664 0.860533
0.69839 0.731167 0.864271
0.894347 0.740398 0.863905
0.0370336 0.882567 0.849378
0.141421 0.890425 0.857511
0.40679 0.893309 0.860319
0.651926 0.919127 0.886397
0.92018 0.931991 0.898939
