code/data/lut/36青绿色调3.cube
TITLE "LD - Century 3"
# Copyright (c) 2019 Lens Distortions, LLC. All Rights Reserved.
# LensDistortions.com
# ref-CNT1
LUT_3D_SIZE 9
0.0016022 0.0163272 0.0251774
0.0474861 0.0238804 0.0299992
0.133013 0.0353246 0.0373541
0.254963 0.0450599 0.0406653
0.40116 0.0534371 0.0382086
0.519097 0.064332 0.0362097
0.612253 0.0797894 0.0366827
0.704845 0.0950027 0.0377203
0.798062 0.108171 0.0390631
0.015259 0.0778363 0.0590829
0.0746014 0.103258 0.0493629
0.163226 0.120699 0.0545968
0.274754 0.128634 0.0503395
0.411002 0.129534 0.0425727
0.521691 0.138323 0.0404822
0.619562 0.151858 0.042237
0.716289 0.164431 0.0441596
0.811215 0.176776 0.0466621
0.0261387 0.184649 0.141985
0.0563363 0.194385 0.0977798
0.182788 0.225132 0.0910201
0.320195 0.230762 0.0819562
0.446799 0.231861 0.0691691
0.542428 0.244541 0.0643626
0.637858 0.256336 0.0652934
0.733471 0.266926 0.0665446
0.827192 0.277134 0.0675059
0.0241398 0.290135 0.217304
0.0706645 0.289082 0.185611
0.13727 0.324468 0.135439
0.330465 0.340459 0.124773
0.480568 0.346441 0.115282
0.568643 0.356054 0.110918
0.660319 0.36556 0.107774
0.750622 0.376547 0.106722
0.841215 0.386587 0.108843
0.0191196 0.395148 0.283238
0.0840925 0.39295 0.261387
0.129747 0.413367 0.207172
0.288548 0.444877 0.193668
0.477714 0.455375 0.161425
0.596933 0.47071 0.161242
0.685664 0.481285 0.160327
0.776272 0.488899 0.159854
0.865904 0.496773 0.161456
0.0282292 0.496956 0.337881
0.10367 0.494591 0.324651
0.17229 0.499199 0.294987
0.286305 0.530434 0.239719
0.464393 0.552056 0.241871
0.595956 0.574517 0.218067
0.710155 0.591516 0.218006
0.80322 0.603418 0.219104
0.891524 0.609689 0.220295
0.061265 0.592905 0.377066
0.140764 0.592203 0.374502
0.2421 0.586389 0.36173
0.31577 0.610361 0.303075
0.483635 0.635966 0.306035
0.593698 0.668101 0.294942
0.708949 0.691508 0.275319
0.816541 0.709331 0.274632
0.913222 0.72285 0.276799
0.104128 0.686687 0.402869
0.189151 0.684947 0.408911
0.314168 0.674403 0.406424
0.371603 0.68632 0.357717
0.51577 0.715587 0.368734
0.61416 0.75024 0.369635
0.712749 0.78027 0.347906
0.816571 0.802747 0.332769
0.917922 0.819944 0.329686
0.143969 0.775479 0.426444
0.239734 0.771557 0.434485
0.367407 0.761196 0.43592
0.434287 0.761028 0.406592
0.550271 0.792828 0.42475
0.642191 0.826993 0.433341
0.728939 0.85922 0.423285
0.81944 0.886091 0.400183
0.915816 0.906294 0.385031
0.00723278 0.032166 0.0612039
0.0674601 0.0358587 0.0946365
0.158679 0.0446326 0.101732
0.289815 0.0462654 0.10544
0.436255 0.0409552 0.0963149
0.55021 0.042359 0.0895705
0.649409 0.0435645 0.0797131
0.746899 0.0448005 0.0703136
0.84062 0.046952 0.0632334
0.0180819 0.110933 0.117678
0.0882887 0.124498 0.118746
0.17818 0.128374 0.118929
0.301152 0.124468 0.109789
0.434424 0.120073 0.0991226
0.535561 0.129015 0.0999466
0.629572 0.143114 0.106874
0.725826 0.154772 0.11043
0.819013 0.16669 0.116014
0.025452 0.20415 0.183047
0.0820935 0.219944 0.173312
0.193927 0.239933 0.14934
0.330877 0.239124 0.139452
0.455924 0.238102 0.127321
0.551888 0.246571 0.125994
0.647135 0.256077 0.129625
0.741878 0.266072 0.133471
0.834333 0.275837 0.137774
0.022385 0.302251 0.251148
0.075349 0.306249 0.232197
0.152468 0.342016 0.185183
0.342885 0.352071 0.174395
0.48452 0.355901 0.16672
0.57615 0.362615 0.163027
0.66688 0.37116 0.162402
0.756436 0.381353 0.164019
0.848417 0.389075 0.169848
0.0152132 0.405707 0.311254
0.0745098 0.40444 0.29279
0.169986 0.428092 0.267872
0.302434 0.455589 0.234302
0.485939 0.464897 0.206226
0.602655 0.479179 0.210986
0.691447 0.486992 0.210407
0.782696 0.493797 0.212055
0.871122 0.501305 0.215061
0.021149 0.506294 0.361471
0.0928054 0.504372 0.348913
0.208026 0.509422 0.336522
0.298054 0.540993 0.278462
0.474342 0.561151 0.281163
0.602838 0.582559 0.256443
0.716091 0.597955 0.261051
0.807843 0.608774 0.266636
0.896422 0.614481 0.269413
0.0531319 0.60206 0.396124
0.124041 0.60177 0.391943
0.252567 0.594644 0.386007
0.335912 0.618173 0.339605
0.491264 0.644419 0.338857
0.600839 0.675639 0.332082
0.714839 0.698283 0.311192
0.822522 0.715023 0.310674
0.917418 0.727077 0.321828
0.0961318 0.695094 0.418067
0.170092 0.694697 0.422736
0.305028 0.683803 0.422202
0.399451 0.691829 0.395804
0.523049 0.723552 0.399023
0.620874 0.757198 0.402609
0.718288 0.78645 0.382345
0.821073 0.808331 0.365942
0.922362 0.824811 0.363012
0.135698 0.783032 0.440162
0.218677 0.780926 0.447761
0.358022 0.769467 0.450858
0.459693 0.765194 0.441871
0.556161 0.799817 0.449973
0.648554 0.833249 0.461601
0.734524 0.864759 0.453849
0.823972 0.891188 0.431159
0.919615 0.910704 0.416068
0.0164187 0.0820935 0.148302
0.0710765 0.0775158 0.218952
0.188342 0.0807507 0.222156
0.324178 0.0770428 0.216083
0.458778 0.0688487 0.207065
0.559991 0.069749 0.207965
0.656474 0.0716869 0.204883
0.751812 0.0737469 0.203891
0.84361 0.0754711 0.203677
0.0238804 0.154665 0.206928
0.0808728 0.155642 0.210895
0.198886 0.153887 0.231022
0.33518 0.145907 0.220523
0.466728 0.136187 0.211093
0.565682 0.135073 0.207538
0.661555 0.136461 0.203433
0.756054 0.141299 0.203403
0.847227 0.146212 0.204547
0.0251316 0.24921 0.25507
0.0797131 0.252201 0.250736
0.215503 0.265446 0.248661
0.354772 0.256107 0.237827
0.480674 0.249622 0.227848
0.577249 0.253254 0.226398
0.671794 0.256703 0.225177
0.763424 0.260838 0.224506
0.853498 0.264347 0.224704
0.01944 0.346059 0.313329
0.0479286 0.353735 0.310994
0.212024 0.366537 0.292271
0.364431 0.373358 0.263783
0.494606 0.37348 0.256291
0.588113 0.377218 0.251759
0.681254 0.381903 0.248722
0.774762 0.384512 0.244495
0.865431 0.389395 0.24712
0.0136263 0.433021 0.358618
0.0567788 0.437934 0.354162
0.201053 0.460075 0.346395
0.345022 0.473533 0.311498
0.501442 0.483864 0.292195
0.613001 0.49514 0.29485
0.705882 0.498695 0.289555
0.797116 0.501411 0.282353
0.884855 0.507408 0.286427
0.0148775 0.524865 0.401984
0.0792554 0.521675 0.3944
0.211505 0.544991 0.391913
0.35967 0.558297 0.362997
0.497398 0.578576 0.358267
0.616602 0.598886 0.333181
0.729046 0.612406 0.332723
0.820539 0.618799 0.332723
0.908766 0.622141 0.335409
0.0402991 0.619532 0.430976
0.109621 0.618021 0.427604
0.242374 0.621775 0.424277
0.408026 0.635782 0.417441
0.513863 0.664576 0.402152
0.617487 0.693568 0.395071
0.729366 0.713848 0.36791
0.834714 0.727428 0.373266
0.927291 0.735409 0.382788
0.0837262 0.711315 0.447227
0.152377 0.71104 0.451606
0.286122 0.703136 0.450919
0.451087 0.709804 0.455558
0.538506 0.743496 0.446418
0.636896 0.774975 0.450553
0.731533 0.80209 0.4309
0.833097 0.821546 0.411902
0.934798 0.83505 0.408911
0.12221 0.797208 0.465309
0.197971 0.796551 0.473976
0.326863 0.789029 0.474754
0.473152 0.783169 0.47985
0.565499 0.817807 0.487556
0.661418 0.849363 0.502876
0.746731 0.87892 0.497993
0.834348 0.904173 0.474037
0.929168 0.921279 0.456489
0.0263371 0.151598 0.25594
0.0688029 0.149966 0.272847
0.192447 0.12578 0.342672
0.337301 0.116701 0.328389
0.47512 0.109163 0.318181
0.572351 0.108965 0.315206
0.66714 0.110399 0.316152
0.759701 0.112047 0.31902
0.850431 0.11519 0.320134
0.0281682 0.203952 0.290562
0.0763409 0.201862 0.301442
0.202716 0.188418 0.359945
0.357748 0.178653 0.342901
0.490089 0.173938 0.334203
0.586969 0.171328 0.331258
0.681315 0.167514 0.329793
0.773938 0.172473 0.331853
0.863828 0.177798 0.332555
0.0228428 0.293172 0.356176
0.075761 0.293156 0.353231
0.202152 0.295842 0.358236
0.376074 0.281758 0.357488
0.503044 0.277836 0.350683
0.600565 0.276493 0.348257
0.697124 0.27454 0.347005
0.791302 0.269703 0.342367
0.881819 0.266407 0.339651
0.0163424 0.386023 0.385321
0.045304 0.388479 0.384924
0.200519 0.39794 0.380621
0.390356 0.397818 0.369848
0.510323 0.392569 0.363775
0.608301 0.392828 0.361349
0.703532 0.393729 0.359808
0.795712 0.393133 0.356741
0.889418 0.38735 0.349676
0.0130007 0.482628 0.43151
0.0213779 0.486732 0.430503
0.179767 0.500755 0.430503
0.405783 0.493584 0.403723
0.519722 0.507408 0.39292
0.625818 0.512886 0.393866
0.720088 0.514031 0.389532
0.812299 0.515053 0.384436
0.905364 0.51191 0.373327
0.0153964 0.572259 0.464622
0.0517128 0.572534 0.45951
0.197742 0.587304 0.461585
0.414359 0.583474 0.449073
0.527657 0.601419 0.444373
0.633875 0.620127 0.427192
0.743084 0.631006 0.42945
0.835737 0.631586 0.422461
0.927764 0.630518 0.4103
0.0212253 0.653162 0.478553
0.0885481 0.651514 0.475944
0.227848 0.666835 0.481422
0.433021 0.667384 0.479744
0.543267 0.68867 0.480308
0.640467 0.713863 0.482811
0.74548 0.732708 0.456641
0.852308 0.744015 0.449943
0.943252 0.746807 0.452232
0.0627146 0.734264 0.488273
0.130526 0.732723 0.491264
0.267674 0.739574 0.496712
0.453407 0.746731 0.503838
0.561608 0.771435 0.51281
0.660334 0.798596 0.52372
0.749828 0.824582 0.499641
0.851087 0.840772 0.472114
0.950484 0.849439 0.477653
0.104646 0.816342 0.502815
0.173007 0.817334 0.510796
0.298375 0.81146 0.512825
0.471931 0.818402 0.523949
0.581811 0.846143 0.543679
0.677134 0.874937 0.555886
0.763409 0.901366 0.552468
0.84921 0.923873 0.525887
0.944839 0.937926 0.505394
0.0305791 0.218265 0.358892
0.0725261 0.214969 0.367254
0.157061 0.193347 0.473548
0.35079 0.164309 0.450996
0.488975 0.156786 0.439033
0.595056 0.158587 0.43975
0.688838 0.158145 0.436255
0.78024 0.159289 0.436164
0.868544 0.161242 0.43772
0.0294957 0.258076 0.386267
0.0748302 0.256245 0.394064
0.16936 0.251621 0.454643
0.371038 0.218158 0.465293
0.504295 0.21474 0.454505
0.609308 0.218997 0.455268
0.70309 0.211337 0.450217
0.794049 0.212497 0.450065
0.883299 0.216999 0.452705
0.0201877 0.335088 0.439963
0.0710765 0.333608 0.436179
0.18674 0.337179 0.451301
0.384283 0.310933 0.47866
0.514992 0.309468 0.466712
0.619028 0.313603 0.466789
0.714763 0.310521 0.46453
0.807691 0.303014 0.462547
0.898116 0.296407 0.461677
0.0143282 0.430182 0.487999
0.0562905 0.428992 0.487388
0.194018 0.43682 0.49073
0.383337 0.42417 0.483162
0.524804 0.42002 0.478691
0.626474 0.422095 0.477791
0.723522 0.419745 0.476783
0.817609 0.41529 0.474891
0.911177 0.404318 0.468925
0.0140383 0.519341 0.508186
0.0280461 0.520226 0.508247
0.185641 0.528374 0.509865
0.383139 0.525887 0.497414
0.540642 0.532662 0.498619
0.64271 0.532296 0.497963
0.738216 0.530877 0.494987
0.832166 0.52874 0.492439
0.92546 0.522942 0.485771
0.0160678 0.614969 0.538949
0.0285039 0.615518 0.536599
0.173526 0.626459 0.539223
0.380652 0.627085 0.528313
0.558648 0.627894 0.528649
0.653864 0.644205 0.526116
0.757046 0.648844 0.526772
0.851102 0.647562 0.521752
0.946242 0.642512 0.509407
0.0189059 0.707546 0.554452
0.0724804 0.703624 0.549325
0.202991 0.716365 0.554421
0.40737 0.713085 0.54728
0.570977 0.71751 0.56318
0.66746 0.735836 0.573922
0.762875 0.753735 0.552621
0.867414 0.762036 0.550118
0.963424 0.758953 0.534386
0.0457618 0.786435 0.556344
0.113283 0.783444 0.556023
0.243259 0.791119 0.562005
0.433524 0.791516 0.564233
0.58265 0.802121 0.58854
0.684306 0.822263 0.605631
0.770214 0.84477 0.597681
0.867918 0.860822 0.562295
0.971222 0.866621 0.551324
0.084535 0.852872 0.561318
0.148669 0.85417 0.56643
0.270573 0.857923 0.572534
0.456352 0.860777 0.581323
0.588602 0.880552 0.607889
0.694438 0.904433 0.629145
0.782895 0.929503 0.626657
0.866392 0.949828 0.586633
0.963699 0.95874 0.558923
0.0322881 0.285389 0.459571
0.074876 0.281865 0.464042
0.153399 0.279133 0.500084
0.342031 0.232563 0.571313
0.500191 0.211917 0.556069
0.60647 0.212787 0.553674
0.711177 0.215076 0.555581
0.80322 0.215335 0.553124
0.890501 0.216464 0.552209
0.0312047 0.317418 0.482689
0.0761273 0.315068 0.486641
0.171542 0.315709 0.50985
0.351446 0.277516 0.585626
0.512932 0.259968 0.57023
0.618738 0.262943 0.566445
0.722927 0.26804 0.568673
0.814481 0.259663 0.564599
0.902235 0.26302 0.564187
0.0231785 0.382406 0.521416
0.0728618 0.380148 0.52076
0.178897 0.383124 0.540749
0.350027 0.359686 0.601343
0.522881 0.343297 0.582849
0.628916 0.348028 0.577935
0.732235 0.354376 0.580072
0.825101 0.346746 0.576913
0.91487 0.33341 0.573648
0.0135805 0.469795 0.585016
0.0619364 0.466896 0.582559
0.18677 0.471702 0.584955
0.368841 0.459297 0.582437
0.532418 0.445106 0.597284
0.6392 0.450996 0.590677
0.740749 0.455848 0.592081
0.833906 0.450385 0.589242
0.926833 0.436851 0.584573
0.0155337 0.560906 0.620417
0.0397192 0.55996 0.621485
0.191714 0.565469 0.625162
0.386358 0.559716 0.618173
0.541955 0.554543 0.616709
0.656352 0.558083 0.611154
0.756085 0.560571 0.61091
0.850141 0.556619 0.609079
0.943572 0.546822 0.602762
0.0173495 0.650111 0.630137
0.0390173 0.648402 0.628031
0.177798 0.655802 0.632242
0.376272 0.652079 0.623758
0.539513 0.65716 0.622293
0.673304 0.668406 0.632029
0.771038 0.66717 0.63064
0.865354 0.664393 0.627222
0.960464 0.656931 0.619242
0.0186923 0.745541 0.643702
0.0604257 0.741894 0.639689
0.18291 0.750835 0.643626
0.369757 0.751522 0.638361
0.545724 0.755566 0.639139
0.689387 0.760632 0.65919
0.779507 0.774807 0.654856
0.879896 0.777768 0.653239
0.975967 0.771908 0.640269
0.0366979 0.834028 0.647974
0.101793 0.829557 0.644755
0.221241 0.837049 0.649927
0.389822 0.840467 0.647898
0.563287 0.842435 0.65745
0.69958 0.848997 0.684321
0.791943 0.863767 0.696925
0.882353 0.87863 0.667781
0.988067 0.882475 0.653346
0.0727245 0.905592 0.652354
0.134752 0.904677 0.652873
0.258732 0.908202 0.657115
0.425223 0.907805 0.656901
0.567971 0.921233 0.673762
0.701045 0.933242 0.7019
0.800855 0.951064 0.717723
0.883482 0.971878 0.689616
0.983642 0.981765 0.625772
0.0346075 0.351308 0.560449
0.0785077 0.347845 0.562539
0.162707 0.346487 0.580652
0.290227 0.308827 0.700343
0.508263 0.270924 0.675425
0.615091 0.269001 0.668559
0.719203 0.270039 0.666743
0.819989 0.272694 0.66949
0.910201 0.274449 0.669306
0.0342718 0.377798 0.582315
0.0792554 0.374777 0.584634
0.170962 0.375982 0.604517
0.304143 0.347509 0.699779
0.517159 0.312566 0.688045
0.626322 0.311101 0.680476
0.730083 0.314656 0.678721
0.830457 0.319814 0.681422
0.920195 0.313252 0.679271
0.0291447 0.431952 0.618936
0.0781109 0.429633 0.621134
0.179355 0.432242 0.638972
0.341772 0.417273 0.661173
0.520333 0.388098 0.70042
0.636347 0.385992 0.69189
0.739406 0.390723 0.688945
0.839323 0.397787 0.691936
0.9308 0.383047 0.689158
0.0155032 0.508858 0.682292
0.0721294 0.50515 0.678065
0.189197 0.509392 0.682658
0.364965 0.49723 0.686534
0.524239 0.481086 0.718898
0.648707 0.479149 0.706645
0.751446 0.484855 0.703014
0.850996 0.492363 0.706477
0.942153 0.480797 0.702312
0.0166781 0.600916 0.738521
0.068101 0.597375 0.735973
0.201175 0.600336 0.738155
0.382757 0.589136 0.725841
0.538628 0.582895 0.725002
0.664942 0.580728 0.728603
0.767788 0.586664 0.722637
0.865843 0.591928 0.72462
0.95816 0.581857 0.7205
0.0180209 0.689921 0.750195
0.0543069 0.686732 0.747997
0.184298 0.692012 0.753765
0.383246 0.685145 0.746471
0.546136 0.686748 0.74725
0.675685 0.688258 0.749828
0.783444 0.692454 0.741558
0.878447 0.693324 0.740841
0.97293 0.684535 0.736568
0.0190738 0.777905 0.748898
0.0704814 0.773266 0.744427
0.186679 0.779156 0.749218
0.360647 0.777829 0.746014
0.534356 0.778134 0.744167
0.668788 0.787045 0.750591
0.796765 0.796414 0.759564
0.89073 0.794171 0.757198
0.986236 0.786923 0.749599
0.0395361 0.86949 0.75259
0.0963912 0.86508 0.748074
0.205951 0.870436 0.752087
0.355978 0.872038 0.749249
0.526162 0.874922 0.748425
0.67158 0.882811 0.759457
0.807401 0.884535 0.781781
0.895109 0.89572 0.773816
0.995453 0.89456 0.763516
0.0658885 0.942672 0.754147
0.120012 0.940169 0.75111
0.23122 0.945403 0.754391
0.387594 0.945571 0.750286
0.528313 0.95758 0.756313
0.675776 0.967819 0.773144
0.807935 0.973465 0.797009
0.899321 0.98645 0.800732
0.993881 0.998581 0.736599
0.0386053 0.40914 0.659998
0.0840162 0.409247 0.667079
0.168292 0.410071 0.684672
0.287083 0.39234 0.735363
0.487602 0.344701 0.789334
0.622339 0.327626 0.782681
0.726268 0.32665 0.777554
0.826154 0.32784 0.776898
0.91722 0.330587 0.779309
0.0393988 0.433249 0.685283
0.0856489 0.433371 0.691798
0.17557 0.434226 0.708629
0.315114 0.419074 0.738705
0.496895 0.377539 0.802808
0.632898 0.363745 0.794675
0.736721 0.364645 0.789151
0.836316 0.368063 0.787991
0.928222 0.372717 0.790143
0.0382391 0.481544 0.729229
0.0868391 0.479545 0.730968
0.18613 0.481468 0.746197
0.34641 0.467994 0.755535
0.504677 0.439536 0.819669
0.64358 0.428809 0.807919
0.747402 0.431617 0.800809
0.846571 0.436667 0.799039
0.939391 0.442939 0.80174
0.0314183 0.549203 0.78555
0.0869917 0.546548 0.782345
0.197986 0.549111 0.792279
0.368109 0.536461 0.795117
0.519097 0.522087 0.825299
0.654582 0.514122 0.82562
0.761135 0.516365 0.816861
0.860136 0.522332 0.815137
0.954528 0.529946 0.818387
0.0183261 0.633814 0.846052
0.0797589 0.629679 0.841321
0.206683 0.63212 0.84448
0.385199 0.620996 0.834012
0.538552 0.614374 0.835325
0.665904 0.610422 0.847349
0.776989 0.612192 0.836683
0.874998 0.618494 0.833082
0.969833 0.625574 0.835828
0.0221714 0.727825 0.876829
0.0780652 0.72311 0.871885
0.211231 0.727092 0.877607
0.399481 0.716701 0.866606
0.548287 0.712245 0.861967
0.674479 0.711879 0.864454
0.790936 0.712627 0.856199
0.888533 0.718074 0.849653
0.982742 0.721889 0.851026
0.0281529 0.814878 0.874067
0.0842603 0.810193 0.869413
0.193301 0.814511 0.87509
0.362814 0.809461 0.872007
0.540276 0.806729 0.868864
0.676219 0.813199 0.874556
0.797604 0.814084 0.873426
0.89987 0.816953 0.86508
0.993317 0.814847 0.863066
0.0491798 0.89929 0.866011
0.101106 0.894865 0.862074
0.206119 0.898817 0.865263
0.350195 0.896208 0.862303
0.50811 0.896605 0.862272
0.652628 0.901869 0.866911
0.785229 0.907561 0.872099
0.907942 0.913146 0.877485
0.99472 0.906737 0.87071
0.0673228 0.973816 0.865614
0.115557 0.97145 0.861753
0.217563 0.975143 0.863172
0.362661 0.973983 0.858259
0.501244 0.978912 0.857893
0.623224 0.994568 0.866346
0.772656 1 0.872816
0.907835 0.999466 0.890639
0.993179 1 0.861234
0.0410925 0.434806 0.708598
0.0867475 0.434516 0.714824
0.172107 0.438193 0.73669
0.307469 0.428382 0.769009
0.475151 0.388037 0.866239
0.623819 0.374701 0.8654
0.732647 0.373404 0.867216
0.832746 0.377081 0.870741
0.919356 0.380331 0.874235
0.0427558 0.45716 0.734356
0.088777 0.456703 0.740078
0.178866 0.460212 0.761135
0.328832 0.450782 0.781994
0.485695 0.416724 0.880293
0.632929 0.406775 0.878172
0.743023 0.406958 0.880308
0.842481 0.411887 0.882856
0.931212 0.417685 0.887083
0.0428779 0.501976 0.778668
0.0914168 0.50103 0.783093
0.190448 0.504494 0.801816
0.349737 0.494591 0.816495
0.497139 0.471092 0.898375
0.642527 0.466072 0.893477
0.754971 0.467292 0.894606
0.854765 0.473732 0.897307
0.943633 0.480064 0.901015
0.0391089 0.567803 0.836103
0.0929885 0.566384 0.837156
0.202274 0.569528 0.852201
0.370703 0.558862 0.85951
0.515389 0.546899 0.904143
0.65388 0.543679 0.912795
0.769894 0.545541 0.913924
0.869398 0.552682 0.915572
0.95935 0.559762 0.918975
0.0261692 0.651118 0.904387
0.0862745 0.647669 0.902419
0.211353 0.651286 0.909026
0.388067 0.641016 0.903044
0.526818 0.63447 0.929793
0.664088 0.633936 0.932601
0.783627 0.635813 0.933165
0.883741 0.642695 0.933898
0.973907 0.649805 0.936355
0.0280156 0.747112 0.949905
0.0870985 0.743206 0.947921
0.220829 0.746227 0.953353
0.392599 0.735271 0.947066
0.540185 0.730831 0.949859
0.672724 0.730465 0.950973
0.79295 0.732143 0.951583
0.895827 0.737408 0.950942
0.986618 0.743755 0.952422
0.0383307 0.835981 0.959533
0.0927138 0.832486 0.957946
0.198596 0.83653 0.966155
0.368917 0.830365 0.965408
0.545571 0.827558 0.964599
0.677577 0.829984 0.967514
0.797192 0.83032 0.968673
0.905684 0.832761 0.967514
0.995972 0.83772 0.966308
0.0568246 0.923537 0.960281
0.105516 0.919997 0.958862
0.207935 0.923232 0.964874
0.350454 0.9196 0.964675
0.498894 0.917861 0.968261
0.652079 0.921202 0.968978
0.789029 0.925277 0.969833
0.906523 0.926497 0.970779
0.994141 0.928481 0.971435
0.0694896 0.99469 0.961334
0.116899 0.993255 0.960006
0.214115 0.997024 0.96434
0.354803 0.993866 0.961028
0.494026 0.994797 0.961868
0.596399 1 0.968185
0.738842 1 0.96907
0.875135 1 0.969879
0.991928 1 0.970687
