code/data/lut/36青绿色调1.cube
TITLE "LD - Century 1"
# Copyright (c) 2019 Lens Distortions, LLC. All Rights Reserved.
# LensDistortions.com
# ref-CNT1
LUT_3D_SIZE 5
0.00181582 0.0133211 0.0221561
0.140261 0.0361944 0.0377356
0.363195 0.0502632 0.031754
0.557488 0.0697185 0.0260319
0.749798 0.0896925 0.0276646
0.0249638 0.170962 0.132799
0.16968 0.207645 0.0900893
0.409873 0.210239 0.0694896
0.593271 0.227085 0.0625467
0.785657 0.237705 0.0598306
0.0174716 0.353582 0.250599
0.122988 0.373434 0.188159
0.43444 0.407904 0.142718
0.634592 0.425742 0.134874
0.817639 0.432074 0.127962
0.0529488 0.531441 0.320226
0.206729 0.529366 0.310552
0.425269 0.572656 0.252583
0.642176 0.621103 0.21738
0.849378 0.647105 0.212589
0.103273 0.704555 0.35079
0.303212 0.692561 0.362142
0.475456 0.724117 0.347951
0.654551 0.793729 0.343893
0.851209 0.8421 0.309377
0.0190738 0.0890211 0.148775
0.170108 0.0794385 0.198932
0.410513 0.0627756 0.177249
0.599313 0.0614481 0.16994
0.789654 0.059617 0.161654
0.0233005 0.225696 0.228779
0.199466 0.243885 0.227085
0.443702 0.226658 0.205859
0.628412 0.227893 0.198764
0.813611 0.226917 0.190738
0.0108034 0.387533 0.316228
0.181018 0.415702 0.30724
0.454948 0.433112 0.252171
0.653834 0.440925 0.243381
0.834943 0.441428 0.233265
0.0334325 0.553903 0.367056
0.203571 0.56144 0.365866
0.451453 0.598962 0.337758
0.661967 0.643 0.298375
0.861906 0.660822 0.307454
0.0825208 0.724468 0.384955
0.263233 0.719768 0.39736
0.489143 0.749813 0.407538
0.67393 0.814588 0.417014
0.864622 0.857847 0.379812
0.0296635 0.19852 0.319524
0.147829 0.180285 0.431495
0.449744 0.144686 0.395499
0.643549 0.140932 0.387015
0.826688 0.136294 0.38056
0.018204 0.300252 0.39585
0.173404 0.305959 0.410498
0.475044 0.277089 0.422782
0.67039 0.272175 0.414313
0.853956 0.251698 0.402838
0.00862135 0.464286 0.452842
0.161379 0.475822 0.45713
0.48748 0.475608 0.44155
0.684184 0.468559 0.432853
0.868406 0.453483 0.41619
0.00634775 0.63505 0.479149
0.159274 0.648295 0.483009
0.50161 0.648768 0.490242
0.694881 0.683024 0.474998
0.890593 0.685588 0.4542
0.0485695 0.775967 0.470268
0.205463 0.787243 0.487343
0.510124 0.815 0.526543
0.716152 0.864759 0.549996
0.896406 0.894286 0.48777
0.0363317 0.312505 0.512917
0.151873 0.313008 0.537667
0.466758 0.241718 0.633097
0.672602 0.234821 0.616876
0.862455 0.230121 0.609445
0.0283207 0.383597 0.568887
0.161486 0.388159 0.593698
0.475547 0.343496 0.657359
0.6916 0.339559 0.637781
0.877379 0.324193 0.62855
0.00766003 0.534981 0.680522
0.166522 0.538552 0.683894
0.479255 0.519478 0.669551
0.708675 0.51751 0.660731
0.890227 0.506142 0.65156
0.00302129 0.699306 0.671153
0.13727 0.706569 0.677256
0.460304 0.708309 0.674586
0.72987 0.727443 0.690578
0.90721 0.716655 0.679179
0.0317082 0.855665 0.658717
0.164355 0.868376 0.669871
0.449683 0.88365 0.682811
0.750195 0.904753 0.740139
0.925689 0.930724 0.687068
0.042771 0.384024 0.661265
0.153887 0.392096 0.69601
0.430106 0.341878 0.82826
0.682139 0.321691 0.823163
0.865827 0.319554 0.8215
0.0406348 0.443244 0.731029
0.164019 0.450752 0.761212
0.445029 0.415198 0.850019
0.700191 0.404517 0.84155
0.880812 0.408469 0.840085
0.0130922 0.577722 0.841718
0.168505 0.58294 0.852201
0.461448 0.56527 0.865431
0.720119 0.561624 0.864713
0.898802 0.570886 0.863706
0.0137789 0.752331 0.869535
0.140475 0.761349 0.883711
0.467643 0.758587 0.881636
0.730205 0.764538 0.88658
0.915984 0.775372 0.88719
0.0316625 0.897353 0.863798
0.147784 0.909865 0.876875
0.417639 0.912291 0.879072
0.680888 0.934554 0.901656
0.933562 0.945373 0.912322
