code/data/lut/36青绿色调2.cube
TITLE "LD - Century 2"
# Copyright (c) 2019 Lens Distortions, LLC. All Rights Reserved.
# LensDistortions.com
# ref-CNT1
LUT_3D_SIZE 9
0.0113069 0.0260166 0.0348669
0.044007 0.0332189 0.0394293
0.106874 0.0430762 0.0456703
0.209201 0.049485 0.0472725
0.342519 0.0530709 0.0436103
0.455177 0.0606241 0.0421759
0.545602 0.0719921 0.0431678
0.634394 0.0818189 0.0434119
0.72401 0.0896315 0.0437018
0.0247807 0.0752422 0.0620432
0.0664378 0.0960098 0.0565957
0.135042 0.109957 0.0613413
0.236225 0.116564 0.0584573
0.362158 0.114611 0.0500801
0.463508 0.119371 0.0467079
0.55404 0.12781 0.0469215
0.645014 0.135302 0.047425
0.735622 0.142123 0.0482948
0.0340734 0.157931 0.122484
0.0561837 0.170108 0.0913405
0.153353 0.196933 0.0881971
0.276173 0.199359 0.0791638
0.393332 0.197421 0.067216
0.481559 0.205844 0.0627604
0.570321 0.213642 0.0621195
0.660731 0.220233 0.0616007
0.750484 0.226215 0.0610208
0.0319677 0.247883 0.182223
0.0636759 0.251301 0.159945
0.112612 0.281849 0.118914
0.282445 0.293614 0.107103
0.42118 0.295521 0.0957504
0.503014 0.302174 0.0908064
0.588556 0.308537 0.0867933
0.67454 0.315755 0.0841993
0.761395 0.322118 0.0839399
0.0246586 0.338506 0.234409
0.0681163 0.34107 0.219532
0.101869 0.358785 0.171572
0.238163 0.38529 0.157046
0.413108 0.391409 0.126726
0.523476 0.402975 0.123827
0.606989 0.410346 0.121324
0.694209 0.414923 0.119005
0.779995 0.419837 0.118135
0.0276646 0.428473 0.27863
0.0780194 0.429953 0.270069
0.131319 0.434318 0.243442
0.231434 0.461341 0.191943
0.395056 0.477943 0.189136
0.516594 0.495995 0.165194
0.624842 0.50901 0.162173
0.714076 0.517861 0.160693
0.798856 0.521752 0.159792
0.0447089 0.516091 0.310384
0.100237 0.516442 0.309377
0.18732 0.511635 0.2981
0.253361 0.532418 0.242512
0.407828 0.55314 0.24065
0.509285 0.580911 0.22739
0.617731 0.600473 0.206912
0.721538 0.615106 0.203708
0.814389 0.626429 0.203906
0.0683299 0.601404 0.329061
0.134218 0.600183 0.335042
0.247349 0.58996 0.332723
0.299886 0.600244 0.286275
0.432731 0.625437 0.292271
0.523629 0.656596 0.290166
0.616739 0.683696 0.267826
0.717586 0.703944 0.252003
0.81619 0.72015 0.248295
0.0918288 0.682292 0.344518
0.172747 0.67924 0.352758
0.290532 0.668894 0.353521
0.353246 0.668147 0.325414
0.460288 0.696773 0.339605
0.546792 0.728771 0.345602
0.630304 0.759396 0.334859
0.719982 0.785626 0.313481
0.815412 0.806332 0.300267
0.0168002 0.0400854 0.0618906
0.0595254 0.0442359 0.087068
0.12784 0.0510262 0.0913558
0.239994 0.0500343 0.0903639
0.374105 0.0429084 0.0799268
0.479103 0.0426795 0.0740368
0.573373 0.043473 0.0678569
0.665293 0.0431525 0.0607767
0.75494 0.0435645 0.0552377
0.0268864 0.0991684 0.103227
0.0772717 0.113481 0.107729
0.150484 0.117845 0.109239
0.26157 0.11371 0.101335
0.385473 0.107439 0.0905013
0.478294 0.11249 0.0888838
0.564767 0.121965 0.0916457
0.655329 0.128664 0.0922866
0.744488 0.135271 0.0944381
0.0339513 0.17406 0.155138
0.0737774 0.192645 0.152178
0.162951 0.209567 0.133455
0.286183 0.206531 0.122835
0.401877 0.202548 0.109697
0.490806 0.207843 0.106798
0.579721 0.213626 0.10779
0.669276 0.219684 0.108614
0.757946 0.22536 0.109865
0.0302281 0.257862 0.210468
0.0664225 0.265782 0.198276
0.123552 0.296895 0.157748
0.293034 0.303151 0.14548
0.424628 0.303761 0.135973
0.509102 0.307622 0.13077
0.594537 0.313222 0.128557
0.680064 0.319722 0.127626
0.768109 0.324178 0.129488
0.0211185 0.347082 0.258457
0.060914 0.350668 0.246616
0.133639 0.371862 0.223819
0.250446 0.39472 0.191012
0.420264 0.399695 0.162539
0.528695 0.410437 0.163882
0.612726 0.415381 0.161395
0.700069 0.419318 0.160525
0.785061 0.423835 0.16112
0.0227665 0.436027 0.298528
0.0689555 0.438636 0.291615
0.161807 0.443107 0.27982
0.241398 0.470481 0.225025
0.403723 0.485924 0.223056
0.522759 0.503243 0.198032
0.630182 0.514931 0.199191
0.71841 0.522637 0.201892
0.803586 0.526101 0.202441
0.0396735 0.52369 0.326818
0.0874647 0.525093 0.324895
0.196246 0.518807 0.319692
0.271122 0.539147 0.274708
0.414405 0.560739 0.269734
0.515404 0.587716 0.260166
0.623209 0.606607 0.238544
0.726848 0.620447 0.235279
0.818524 0.630793 0.243961
0.0622568 0.60885 0.342412
0.117327 0.609079 0.347478
0.238499 0.598581 0.346853
0.325399 0.605066 0.320699
0.438972 0.632578 0.31986
0.529686 0.662959 0.320317
0.62208 0.689479 0.298909
0.721965 0.709361 0.282063
0.820691 0.724926 0.279026
0.0853742 0.689067 0.356985
0.153353 0.6878 0.364523
0.281361 0.676448 0.366979
0.37673 0.671656 0.357839
0.465354 0.703319 0.362661
0.552544 0.734798 0.371939
0.635782 0.764813 0.363668
0.724498 0.790829 0.34226
0.819669 0.811017 0.329427
0.0257572 0.0781109 0.129732
0.0630045 0.0765087 0.187091
0.153689 0.0793317 0.187976
0.275334 0.0746471 0.181048
0.401755 0.066392 0.172107
0.495766 0.0659648 0.171054
0.58616 0.0662394 0.166506
0.676112 0.0661326 0.162554
0.763836 0.0658122 0.159411
0.0315709 0.132815 0.173159
0.0729534 0.14023 0.183291
0.168322 0.139437 0.200931
0.291844 0.130724 0.190036
0.413886 0.1196 0.179004
0.505272 0.116747 0.173663
0.595285 0.115877 0.167865
0.684733 0.117159 0.164721
0.772015 0.118822 0.163073
0.0336309 0.212802 0.216129
0.0713207 0.220005 0.216678
0.180896 0.230747 0.213947
0.307424 0.220127 0.202014
0.424567 0.211917 0.190799
0.513939 0.21294 0.187533
0.603143 0.213703 0.18436
0.690272 0.214435 0.181231
0.776837 0.215122 0.178866
0.0265202 0.295094 0.263432
0.0461128 0.305211 0.264179
0.173312 0.317693 0.24802
0.311711 0.321309 0.219944
0.433158 0.318898 0.210941
0.519966 0.320165 0.204852
0.607721 0.322362 0.199695
0.697627 0.322255 0.193988
0.784405 0.324132 0.193515
0.0189822 0.370581 0.29955
0.0473182 0.379034 0.299367
0.158419 0.399573 0.292119
0.288457 0.409735 0.257435
0.433402 0.416159 0.236713
0.537575 0.424369 0.236622
0.625452 0.425452 0.229633
0.713573 0.425772 0.221118
0.797681 0.429252 0.222736
0.0177615 0.451301 0.333776
0.0588235 0.453437 0.331991
0.1626 0.474449 0.328344
0.297078 0.484916 0.299351
0.42414 0.501213 0.291676
0.535042 0.517693 0.26569
0.641779 0.527703 0.26215
0.730098 0.531258 0.259937
0.814984 0.532845 0.260914
0.0317693 0.537987 0.35697
0.0761578 0.539406 0.356725
0.185214 0.543069 0.353414
0.33695 0.553796 0.343984
0.433951 0.578439 0.326482
0.529839 0.603815 0.316625
0.636072 0.620874 0.289006
0.738293 0.631846 0.291569
0.827756 0.638666 0.299443
0.0536355 0.623026 0.367941
0.102205 0.623621 0.373007
0.219532 0.616129 0.372671
0.372137 0.620676 0.374319
0.451926 0.650813 0.362417
0.543618 0.679271 0.364034
0.634226 0.704295 0.343511
0.733761 0.722103 0.324422
0.832639 0.735302 0.321355
0.075227 0.701839 0.37911
0.134005 0.701976 0.388083
0.251041 0.694789 0.388479
0.388266 0.688151 0.392142
0.473701 0.72015 0.397299
0.564523 0.75024 0.410513
0.647944 0.779034 0.405646
0.735119 0.803861 0.38291
0.829709 0.822324 0.368185
0.0336461 0.130892 0.215595
0.0640421 0.134752 0.236362
0.163516 0.116289 0.300938
0.294347 0.106767 0.286213
0.422309 0.097673 0.274022
0.511833 0.0958267 0.268666
0.600336 0.0951095 0.26688
0.688365 0.0944991 0.266575
0.775021 0.0949264 0.264408
0.0362402 0.174502 0.248081
0.06981 0.17734 0.262196
0.170718 0.166339 0.314778
0.311162 0.155352 0.29691
0.434226 0.148363 0.286259
0.523705 0.144396 0.281147
0.612497 0.139208 0.277317
0.700832 0.140612 0.276417
0.786694 0.142321 0.274067
0.0307164 0.249866 0.304646
0.0669413 0.254093 0.306218
0.167758 0.256458 0.310765
0.326177 0.241321 0.307622
0.443992 0.235309 0.299199
0.535348 0.232059 0.29514
0.626398 0.228061 0.291264
0.716579 0.22121 0.284291
0.803281 0.215869 0.279515
0.0226749 0.329427 0.32697
0.0426947 0.334752 0.32958
0.161135 0.344732 0.326482
0.334264 0.341726 0.313741
0.446235 0.335042 0.306355
0.537789 0.333364 0.302083
0.628199 0.33196 0.298573
0.717403 0.329137 0.293523
0.807294 0.321523 0.284947
0.0171664 0.413764 0.363622
0.023209 0.418509 0.36379
0.137179 0.435142 0.366949
0.343725 0.426276 0.340002
0.448859 0.436759 0.327077
0.548043 0.439658 0.325719
0.638331 0.438651 0.319875
0.727321 0.437461 0.312657
0.817029 0.432532 0.300969
0.0171511 0.492851 0.388968
0.039704 0.497017 0.388006
0.147463 0.51223 0.390585
0.345846 0.506386 0.37644
0.450767 0.52108 0.369772
0.549813 0.536339 0.35082
0.653803 0.543908 0.34995
0.743999 0.542657 0.341711
0.832486 0.540185 0.329305
0.0193332 0.565652 0.396735
0.059266 0.569039 0.399344
0.169268 0.583429 0.403937
0.357885 0.581796 0.399985
0.459678 0.600046 0.398016
0.550393 0.621927 0.397574
0.650752 0.638086 0.370352
0.75494 0.647532 0.362402
0.843 0.64947 0.363806
0.0401923 0.642649 0.403647
0.0843366 0.642756 0.408148
0.200061 0.649485 0.413184
0.37174 0.654459 0.417365
0.471962 0.676478 0.423484
0.564965 0.701305 0.4318
0.65156 0.725811 0.407248
0.750942 0.741024 0.380728
0.848478 0.750118 0.386526
0.0616007 0.719295 0.412924
0.111482 0.720714 0.421073
0.223362 0.715572 0.423438
0.385016 0.721096 0.432471
0.488212 0.747311 0.449897
0.579477 0.775051 0.46099
0.664881 0.801373 0.457984
0.750729 0.824186 0.433295
0.846311 0.840192 0.416052
0.038056 0.186877 0.310033
0.0667887 0.187778 0.321447
0.130571 0.169818 0.419974
0.304463 0.143801 0.396857
0.432349 0.134325 0.38294
0.530907 0.13373 0.381079
0.61912 0.131319 0.374929
0.706188 0.129946 0.371878
0.790631 0.129442 0.370947
0.0366522 0.220462 0.334356
0.0673991 0.222385 0.345113
0.140047 0.218158 0.401282
0.322072 0.186481 0.409369
0.445945 0.180575 0.396429
0.543603 0.181811 0.39469
0.63209 0.173098 0.387549
0.719249 0.171588 0.38439
0.804257 0.172808 0.38381
0.0271305 0.285039 0.37969
0.0615091 0.288502 0.381033
0.151781 0.291737 0.395026
0.331868 0.265522 0.419211
0.453391 0.261555 0.405447
0.550546 0.263172 0.403311
0.641474 0.258152 0.39881
0.731289 0.249195 0.394507
0.817548 0.241047 0.391363
0.0194705 0.367224 0.419623
0.0471351 0.370565 0.423697
0.152804 0.378393 0.427298
0.325978 0.364599 0.418341
0.457664 0.358373 0.411826
0.553307 0.358373 0.409003
0.646067 0.353994 0.405921
0.737011 0.347692 0.401602
0.826795 0.335882 0.394461
0.0171206 0.445487 0.433188
0.0265507 0.448203 0.435126
0.140078 0.459159 0.439872
0.32015 0.454963 0.426017
0.466468 0.458473 0.424414
0.562676 0.456306 0.421988
0.65449 0.453193 0.417395
0.74551 0.449058 0.412863
0.834943 0.441764 0.404807
0.0167239 0.530404 0.455817
0.0247349 0.532509 0.45536
0.123781 0.546792 0.461479
0.311589 0.545663 0.449561
0.477699 0.543923 0.446967
0.56701 0.557473 0.442512
0.6663 0.559747 0.440772
0.757641 0.556832 0.434394
0.84918 0.550881 0.421546
0.016434 0.613703 0.464225
0.0468452 0.615122 0.4645
0.143404 0.628046 0.46981
0.330709 0.623774 0.461646
0.483879 0.626017 0.474678
0.574777 0.6421 0.482811
0.666529 0.657557 0.460182
0.768902 0.664515 0.457023
0.861524 0.66128 0.441398
0.0294194 0.688243 0.462547
0.0691234 0.688716 0.465629
0.174243 0.696681 0.472053
0.35024 0.696025 0.472374
0.490379 0.705028 0.494408
0.587488 0.723934 0.50988
0.671382 0.745327 0.501381
0.768002 0.761013 0.466957
0.868894 0.767834 0.457633
0.0479744 0.75201 0.46537
0.0906539 0.754253 0.471412
0.195163 0.758831 0.477882
0.368658 0.761456 0.485557
0.493965 0.780591 0.511086
0.596918 0.804166 0.531914
0.685679 0.829908 0.530938
0.770382 0.851453 0.49424
0.867231 0.863157 0.47039
0.0380102 0.243656 0.401938
0.0662547 0.243687 0.408896
0.125856 0.241245 0.443183
0.294469 0.198535 0.510002
0.441154 0.177554 0.492805
0.540002 0.175967 0.487694
0.638788 0.175174 0.486656
0.726986 0.172854 0.481086
0.810346 0.171542 0.477592
0.0361486 0.270802 0.421912
0.0658579 0.272068 0.429282
0.139361 0.272694 0.451102
0.301823 0.236576 0.522332
0.452094 0.218158 0.504814
0.550988 0.218631 0.499077
0.649622 0.220371 0.498146
0.737499 0.210727 0.491493
0.821363 0.211353 0.488563
0.0277867 0.326299 0.455131
0.0603647 0.328374 0.458503
0.142489 0.331014 0.477623
0.297169 0.307607 0.534264
0.45864 0.290288 0.514168
0.557794 0.29221 0.507164
0.656016 0.295216 0.506294
0.745754 0.286122 0.500954
0.831861 0.272343 0.495857
0.0175937 0.401083 0.5093
0.0486763 0.403372 0.511986
0.143908 0.408438 0.514885
0.310079 0.395346 0.511406
0.462882 0.379721 0.523369
0.562966 0.382818 0.514397
0.660212 0.385 0.513558
0.750286 0.37792 0.508324
0.83949 0.363928 0.502419
0.0172274 0.481468 0.537301
0.0326848 0.483467 0.541238
0.142473 0.491356 0.547616
0.320211 0.484382 0.539376
0.465705 0.477333 0.536065
0.573663 0.478843 0.528572
0.669291 0.478706 0.525856
0.760662 0.472999 0.522026
0.850523 0.46273 0.514931
0.016846 0.561212 0.540688
0.0298619 0.562249 0.54136
0.125277 0.572534 0.548699
0.305287 0.568093 0.539528
0.457603 0.570535 0.535561
0.583703 0.57882 0.542428
0.678492 0.575891 0.539361
0.770291 0.571801 0.534707
0.861936 0.564065 0.526406
0.015259 0.647364 0.546487
0.0384985 0.648356 0.547158
0.123339 0.658808 0.55285
0.292683 0.659022 0.546868
0.457542 0.66154 0.546075
0.594491 0.664912 0.564065
0.682109 0.67744 0.558297
0.780758 0.679576 0.556161
0.873457 0.674128 0.543709
0.0230411 0.730449 0.546044
0.0588846 0.730648 0.547539
0.151507 0.738872 0.553491
0.306401 0.742 0.550881
0.470375 0.743664 0.559945
0.601633 0.749783 0.586099
0.693095 0.764294 0.598489
0.782742 0.779278 0.570047
0.886015 0.784939 0.558007
0.0399329 0.799619 0.549111
0.0783856 0.800778 0.551476
0.182254 0.806149 0.557504
0.338064 0.806302 0.55787
0.474174 0.820081 0.575189
0.604547 0.833265 0.604837
0.705303 0.852522 0.622583
0.790158 0.875624 0.598199
0.890486 0.88922 0.539605
0.0370031 0.300099 0.49482
0.0657664 0.299825 0.499886
0.129824 0.298726 0.516915
0.243595 0.263752 0.633265
0.446571 0.227008 0.606592
0.546502 0.223056 0.597543
0.644724 0.221225 0.59266
0.741695 0.220996 0.592187
0.827756 0.220279 0.589288
0.0354925 0.322957 0.514687
0.064622 0.323079 0.519402
0.135256 0.324163 0.538262
0.254597 0.29691 0.631296
0.453605 0.262608 0.617563
0.555856 0.259098 0.607889
0.654505 0.259739 0.603052
0.750866 0.261555 0.602564
0.836728 0.253971 0.598428
0.0296788 0.369772 0.546441
0.0609293 0.370687 0.551675
0.139239 0.373037 0.568795
0.28629 0.357946 0.590051
0.453483 0.328542 0.627039
0.562325 0.324529 0.616114
0.6607 0.326482 0.610605
0.756832 0.330159 0.610559
0.844587 0.315129 0.606119
0.0179904 0.43508 0.601419
0.0535439 0.436545 0.602411
0.143191 0.440925 0.607095
0.303395 0.428046 0.610178
0.452323 0.411048 0.640192
0.569863 0.407019 0.626245
0.668086 0.409873 0.61976
0.764263 0.414343 0.620661
0.851316 0.402121 0.61503
0.0170443 0.515984 0.649805
0.0474708 0.517845 0.652308
0.14789 0.52192 0.655695
0.314504 0.510277 0.643168
0.460243 0.502403 0.640528
0.579873 0.498222 0.642176
0.678676 0.501549 0.63357
0.773266 0.504356 0.633204
0.862165 0.493721 0.628275
0.0160983 0.596063 0.655146
0.03682 0.597086 0.657221
0.12752 0.604425 0.665064
0.308965 0.597101 0.65742
0.461143 0.596689 0.656214
0.584161 0.596414 0.656947
0.688823 0.598657 0.646967
0.781674 0.598428 0.645136
0.87219 0.58938 0.640192
0.0145571 0.676127 0.647181
0.0423743 0.677058 0.648173
0.123949 0.684337 0.654337
0.281971 0.682811 0.650797
0.444953 0.682017 0.64802
0.573129 0.689845 0.653391
0.698238 0.697887 0.661021
0.790585 0.695338 0.658335
0.882872 0.688609 0.651331
0.0234684 0.762615 0.646128
0.0540932 0.762707 0.646494
0.135866 0.769665 0.651713
0.273396 0.771664 0.649821
0.434058 0.774655 0.648997
0.574289 0.782971 0.660594
0.709239 0.785061 0.683268
0.796445 0.797269 0.676463
0.895491 0.798108 0.668238
0.0355535 0.833265 0.646845
0.0670634 0.833936 0.646983
0.156603 0.84097 0.651957
0.302007 0.842573 0.649897
0.436896 0.855787 0.657603
0.58143 0.868269 0.677165
0.7149 0.876402 0.703914
0.808957 0.892653 0.711513
0.907439 0.909667 0.653925
0.0367132 0.350134 0.588434
0.0656138 0.352483 0.597574
0.130602 0.353368 0.614816
0.236728 0.336202 0.664439
0.423774 0.290318 0.716381
0.550286 0.272725 0.707774
0.649317 0.269413 0.699962
0.745663 0.26804 0.696559
0.832593 0.26833 0.696391
0.035996 0.371221 0.611902
0.0653697 0.373495 0.620508
0.135256 0.374365 0.636866
0.260929 0.359274 0.666209
0.431083 0.318715 0.728283
0.559152 0.303944 0.718135
0.658305 0.302358 0.70985
0.75436 0.303044 0.706188
0.84184 0.305089 0.705867
0.0333715 0.413092 0.651835
0.0639048 0.413825 0.656321
0.141482 0.415625 0.671229
0.287068 0.401831 0.679545
0.435264 0.37322 0.741512
0.566247 0.361456 0.728038
0.665629 0.361669 0.718364
0.761257 0.363699 0.714122
0.849729 0.367681 0.714534
0.0274052 0.47158 0.701717
0.0612039 0.472694 0.702495
0.147555 0.475303 0.712169
0.303014 0.462135 0.714244
0.444663 0.446799 0.742931
0.572549 0.437308 0.74107
0.675212 0.437278 0.730083
0.770657 0.440421 0.725612
0.859876 0.445563 0.726574
0.0170748 0.54493 0.753521
0.053254 0.546426 0.754513
0.150179 0.549493 0.758267
0.313909 0.537881 0.747311
0.457389 0.529809 0.746929
0.578256 0.524346 0.757092
0.68571 0.523827 0.74435
0.780407 0.527932 0.738445
0.87071 0.533394 0.739986
0.0171206 0.629938 0.776791
0.0480049 0.630564 0.777462
0.147982 0.635782 0.784115
0.321111 0.625116 0.772778
0.460899 0.619593 0.767056
0.581109 0.617929 0.768231
0.694713 0.61709 0.758587
0.790158 0.621469 0.751202
0.880476 0.624872 0.752316
0.0184176 0.710216 0.768277
0.0482795 0.710597 0.768734
0.126848 0.716274 0.775616
0.281804 0.711955 0.773144
0.44892 0.708858 0.769619
0.579278 0.714626 0.774533
0.698756 0.715084 0.772992
0.799542 0.71812 0.764782
0.88983 0.716716 0.763821
0.0276493 0.790707 0.75761
0.0554513 0.790082 0.757015
0.134478 0.795605 0.762234
0.266911 0.794415 0.760662
0.416434 0.795514 0.761135
0.556023 0.801846 0.766873
0.687694 0.808347 0.772885
0.81062 0.815808 0.780148
0.901564 0.811841 0.775814
0.035935 0.862669 0.756207
0.0633555 0.863279 0.755505
0.144183 0.869413 0.759564
0.278752 0.870069 0.756878
0.412238 0.876966 0.758694
0.53225 0.895048 0.770779
0.683085 0.904204 0.781247
0.820996 0.908522 0.803357
0.915404 0.921935 0.781048
0.0367742 0.372229 0.634485
0.0659953 0.374456 0.643168
0.131655 0.377447 0.664179
0.253162 0.367285 0.695537
0.409979 0.327871 0.790051
0.549401 0.313268 0.786511
0.653407 0.309773 0.786068
0.749493 0.310262 0.786358
0.83241 0.311391 0.787717
0.0368963 0.391974 0.658747
0.0661784 0.393729 0.666712
0.136461 0.396765 0.68716
0.271443 0.38677 0.707042
0.418204 0.35285 0.801953
0.556725 0.341451 0.797452
0.662058 0.339132 0.796918
0.7579 0.341131 0.796658
0.842084 0.344381 0.798474
0.0354162 0.430991 0.69926
0.0658122 0.432471 0.706065
0.143587 0.435767 0.724468
0.288411 0.425071 0.738201
0.426062 0.401129 0.816297
0.562966 0.394064 0.809171
0.670817 0.392584 0.807752
0.766674 0.396078 0.807492
0.851514 0.400229 0.809445
0.0314183 0.488563 0.750835
0.06421 0.490166 0.755032
0.149859 0.493233 0.769833
0.303716 0.481926 0.776089
0.438941 0.468696 0.817639
0.569802 0.463432 0.823713
0.681468 0.462882 0.822187
0.777554 0.467185 0.821408
0.862943 0.472282 0.822934
0.0216678 0.560983 0.809674
0.0564279 0.56257 0.812802
0.152743 0.566354 0.819364
0.314733 0.555596 0.812909
0.444739 0.547799 0.837201
0.574792 0.545434 0.837873
0.690455 0.545052 0.836057
0.787442 0.549874 0.834958
0.873533 0.555795 0.836332
0.0200961 0.647791 0.846113
0.0523995 0.648997 0.849317
0.154864 0.652964 0.855619
0.313039 0.642008 0.849058
0.451987 0.636683 0.850553
0.578576 0.635416 0.850706
0.695918 0.635676 0.849943
0.796658 0.639841 0.848432
0.883574 0.646235 0.849744
0.0231174 0.730343 0.849821
0.0523232 0.731243 0.85272
0.130282 0.736782 0.862135
0.286229 0.731472 0.861708
0.453376 0.728664 0.860533
0.580407 0.730983 0.863325
0.69839 0.731167 0.864271
0.805478 0.734051 0.863447
0.894347 0.740398 0.863905
0.0309606 0.813886 0.848203
0.0574197 0.813611 0.849989
0.1355 0.818952 0.857832
0.266728 0.817014 0.859052
0.408087 0.816419 0.863508
0.556405 0.821653 0.870497
0.693324 0.827329 0.876677
0.811185 0.830884 0.880232
0.906706 0.836179 0.880446
0.0370336 0.882567 0.849378
0.0643626 0.884169 0.851087
0.141421 0.890425 0.857511
0.27277 0.890013 0.857114
0.40679 0.893309 0.860319
0.507973 0.908949 0.876173
0.651926 0.919127 0.886397
0.792294 0.925719 0.892653
0.92018 0.931991 0.898939
