code/data/lut/38柔和深红2.cube
TITLE "LD - Super Gold 2"
# Copyright (c) 2019 Lens Distortions, LLC. All Rights Reserved.
# LensDistortions.com
# ref-SG4
LUT_3D_SIZE 9
0.0249943 0.0265812 0.0291295
0.0584268 0.0280613 0.0307317
0.108034 0.0306096 0.0331884
0.166995 0.0351873 0.0375219
0.240208 0.0403906 0.0424201
0.321904 0.0457313 0.0478676
0.410727 0.0505074 0.0528115
0.504692 0.0542 0.0570077
0.597299 0.0560159 0.0593118
0.0493935 0.0646982 0.0446021
0.0780346 0.0713054 0.0450141
0.131716 0.0747539 0.0488594
0.193149 0.0811933 0.0540169
0.265263 0.0871443 0.0589303
0.341161 0.0909895 0.0625315
0.422385 0.0930343 0.0649424
0.50901 0.0936904 0.0668193
0.599573 0.0937209 0.0682383
0.0840162 0.127687 0.0704967
0.116457 0.134203 0.0717174
0.154757 0.141009 0.0650339
0.21265 0.142336 0.0676585
0.27985 0.144671 0.070634
0.352316 0.146487 0.0732128
0.431449 0.147509 0.0753643
0.516396 0.147524 0.076997
0.605859 0.146944 0.0782483
0.120211 0.189639 0.0987869
0.15729 0.195895 0.105608
0.183612 0.210849 0.0873579
0.236713 0.217197 0.0834974
0.304814 0.217639 0.086305
0.378851 0.217563 0.0889601
0.458351 0.21735 0.0910964
0.54406 0.216754 0.0928511
0.633356 0.215351 0.0943008
0.158206 0.26215 0.129305
0.198199 0.271427 0.13933
0.228885 0.284398 0.134493
0.264866 0.301793 0.105135
0.330907 0.306935 0.104402
0.407263 0.306874 0.107271
0.49015 0.305562 0.11043
0.577813 0.304768 0.11284
0.668452 0.303365 0.114748
0.196063 0.342779 0.160693
0.240162 0.35433 0.172976
0.278523 0.367361 0.176791
0.308461 0.385885 0.154513
0.358877 0.402502 0.126528
0.434897 0.406821 0.127474
0.520668 0.406836 0.131075
0.611811 0.405921 0.134981
0.70631 0.404349 0.138308
0.236057 0.432822 0.195178
0.28452 0.446876 0.210529
0.330541 0.46128 0.220081
0.36556 0.479469 0.209628
0.401129 0.500923 0.174029
0.465171 0.515373 0.151751
0.551171 0.519326 0.154269
0.644709 0.519249 0.157961
0.741024 0.518807 0.162875
0.278981 0.532723 0.233753
0.332799 0.54934 0.251759
0.384573 0.565209 0.265232
0.426596 0.583261 0.263478
0.460365 0.605295 0.237125
0.507149 0.627008 0.197024
0.583673 0.63949 0.181003
0.67747 0.642954 0.184085
0.775174 0.642847 0.188327
0.325612 0.642008 0.276066
0.384298 0.660304 0.296635
0.440528 0.677623 0.31281
0.489906 0.695735 0.318166
0.528847 0.716884 0.300374
0.565789 0.739467 0.262486
0.624308 0.758389 0.222873
0.710979 0.768521 0.211902
0.808576 0.771786 0.215488
0.0270848 0.0287785 0.0509804
0.0720684 0.0307012 0.0536355
0.124773 0.0343481 0.0550546
0.183413 0.0386206 0.059144
0.256107 0.0439612 0.0652171
0.337041 0.0493172 0.0716411
0.424475 0.0536965 0.0769207
0.515862 0.0567788 0.0806287
0.60647 0.0580911 0.0818189
0.0437781 0.0801709 0.0682536
0.0932784 0.0852064 0.0731823
0.147524 0.0836347 0.0724956
0.209125 0.0852979 0.0746166
0.279622 0.086717 0.0768444
0.35552 0.0877089 0.0784772
0.435401 0.0889143 0.0800946
0.521401 0.0895094 0.0811933
0.610422 0.0895399 0.0816968
0.078172 0.149111 0.096376
0.132952 0.145006 0.105074
0.165942 0.149706 0.0893568
0.225727 0.147692 0.0872053
0.292195 0.147051 0.0869459
0.364569 0.146792 0.0868391
0.442756 0.146746 0.0879835
0.526528 0.146273 0.0886549
0.614725 0.145403 0.0890669
0.114763 0.209262 0.122667
0.170031 0.210163 0.135439
0.201389 0.217395 0.135363
0.244953 0.225345 0.107179
0.315572 0.223011 0.103731
0.39089 0.220386 0.104356
0.469566 0.218708 0.104936
0.554208 0.217044 0.105562
0.642618 0.215167 0.105943
0.154604 0.280201 0.151431
0.207462 0.286732 0.167208
0.247715 0.29424 0.175174
0.276417 0.308659 0.150103
0.338857 0.314961 0.124086
0.416739 0.31249 0.123583
0.501198 0.309178 0.126757
0.588373 0.30695 0.127504
0.678187 0.305119 0.128389
0.19321 0.35964 0.183627
0.243961 0.369314 0.19942
0.293706 0.380194 0.213245
0.327672 0.394476 0.200748
0.367712 0.411048 0.160876
0.443183 0.414878 0.14548
0.529915 0.413046 0.147768
0.621988 0.41062 0.151827
0.715892 0.407706 0.154269
0.233387 0.449653 0.220295
0.282338 0.461555 0.234257
0.340139 0.475578 0.250584
0.384329 0.490013 0.25214
0.417227 0.509209 0.220523
0.473213 0.523705 0.183688
0.559304 0.527169 0.171969
0.653773 0.526116 0.174945
0.750088 0.524117 0.18024
0.276402 0.549874 0.261006
0.326467 0.56347 0.274769
0.391501 0.579965 0.295552
0.443778 0.595193 0.305074
0.482033 0.614374 0.28661
0.520424 0.635065 0.242802
0.591196 0.647639 0.211444
0.685557 0.650828 0.202167
0.783429 0.649836 0.205081
0.323186 0.659663 0.305974
0.376837 0.674128 0.320928
0.446525 0.692653 0.344335
0.504494 0.708247 0.357977
0.549569 0.726436 0.351278
0.586297 0.748012 0.313695
0.636301 0.766476 0.26807
0.718654 0.776349 0.24126
0.816495 0.779507 0.233753
0.0293736 0.0310369 0.0936904
0.0757 0.033463 0.0963912
0.141543 0.0383917 0.104936
0.215534 0.0440833 0.111223
0.289693 0.0494087 0.115694
0.369131 0.0539254 0.120424
0.454276 0.0577401 0.124773
0.542153 0.059617 0.126375
0.628305 0.0603342 0.12668
0.0463264 0.0850233 0.113985
0.0952926 0.0904402 0.116121
0.164569 0.0966201 0.126207
0.233478 0.0984054 0.127001
0.304555 0.0965896 0.127443
0.380591 0.0928206 0.127092
0.461051 0.0909438 0.12668
0.54551 0.0915236 0.12668
0.631174 0.0910201 0.125963
0.0690166 0.16495 0.141024
0.121569 0.161715 0.141985
0.181598 0.165682 0.141939
0.243793 0.162875 0.139345
0.311757 0.160555 0.138125
0.383215 0.158526 0.136233
0.462699 0.154009 0.133135
0.549584 0.145006 0.12607
0.638117 0.136004 0.119112
0.0987259 0.24509 0.162661
0.167422 0.2392 0.168032
0.224537 0.237293 0.178347
0.26598 0.242176 0.159823
0.336828 0.237476 0.157153
0.411109 0.232898 0.154894
0.492668 0.227207 0.151202
0.580148 0.217716 0.142351
0.667475 0.211643 0.137819
0.137804 0.318517 0.187076
0.210178 0.315831 0.201205
0.270588 0.317327 0.219699
0.308064 0.324804 0.216449
0.360067 0.331273 0.182391
0.439261 0.327077 0.176928
0.52639 0.319753 0.172885
0.616907 0.312459 0.164248
0.704128 0.30753 0.163912
0.181369 0.394171 0.216083
0.247074 0.398932 0.235752
0.319539 0.406134 0.264271
0.364599 0.413657 0.272786
0.395956 0.429053 0.234821
0.463233 0.433814 0.203479
0.554376 0.429236 0.19263
0.649531 0.422019 0.191852
0.741054 0.415915 0.193286
0.225315 0.48249 0.252781
0.284367 0.491905 0.273503
0.365652 0.505074 0.308186
0.417777 0.514427 0.321218
0.455222 0.529122 0.306523
0.495354 0.547478 0.247211
0.580087 0.549157 0.220203
0.677104 0.542977 0.217029
0.773526 0.537057 0.221851
0.269673 0.581765 0.294835
0.325521 0.594385 0.315297
0.410544 0.612238 0.349813
0.470359 0.624445 0.365942
0.517494 0.639673 0.360159
0.551858 0.660548 0.30956
0.612222 0.672129 0.262013
0.70605 0.671702 0.24918
0.804303 0.66688 0.247608
0.316899 0.690257 0.341009
0.375769 0.70396 0.362783
0.447837 0.724361 0.38468
0.519814 0.740032 0.403281
0.579324 0.753689 0.41239
0.619623 0.770901 0.383124
0.662791 0.788968 0.327718
0.738155 0.79736 0.287404
0.834333 0.797406 0.277531
0.0314641 0.0331121 0.150225
0.0799573 0.0363012 0.154849
0.14696 0.0416114 0.165347
0.233448 0.0489509 0.180194
0.325719 0.0554665 0.190143
0.407706 0.0594186 0.189593
0.491325 0.0616312 0.187793
0.57734 0.0627298 0.185214
0.658381 0.0628824 0.182315
0.0498054 0.0895552 0.174929
0.0995499 0.0963149 0.172152
0.164996 0.101183 0.187427
0.246616 0.107027 0.193011
0.330236 0.108309 0.194568
0.410285 0.102251 0.190723
0.494575 0.0940719 0.186648
0.579385 0.0942397 0.182788
0.661585 0.0936446 0.179019
0.0700694 0.169589 0.204257
0.120577 0.166384 0.199649
0.182895 0.170123 0.199847
0.262287 0.174884 0.20827
0.339544 0.17496 0.202838
0.415015 0.170001 0.197192
0.495995 0.162493 0.189487
0.583154 0.149432 0.179339
0.668971 0.137163 0.170214
0.0906233 0.258122 0.225254
0.148028 0.253086 0.224857
0.212558 0.256962 0.229557
0.285649 0.263996 0.231281
0.360296 0.259083 0.226429
0.436881 0.252766 0.220584
0.519539 0.24506 0.214176
0.606241 0.235126 0.204562
0.696574 0.214603 0.186648
0.118471 0.348211 0.245212
0.187335 0.344503 0.2477
0.262394 0.350072 0.264256
0.335943 0.349691 0.277119
0.384329 0.355291 0.25124
0.468528 0.348302 0.245899
0.554818 0.340887 0.239322
0.64651 0.330785 0.229328
0.739574 0.312322 0.209842
0.157427 0.44123 0.270893
0.236912 0.440253 0.283146
0.325307 0.441489 0.309041
0.388968 0.442954 0.325887
0.432029 0.451652 0.320272
0.494285 0.458 0.274372
0.587442 0.45124 0.265019
0.686885 0.440955 0.252903
0.780713 0.426642 0.23418
0.205371 0.529107 0.299565
0.276432 0.534249 0.31873
0.372793 0.541665 0.354192
0.445411 0.546136 0.378195
0.497597 0.554376 0.386725
0.534188 0.571954 0.334539
0.613779 0.575799 0.292607
0.716197 0.569665 0.268788
0.811673 0.556573 0.265339
0.254108 0.626734 0.337636
0.313252 0.636667 0.358251
0.417304 0.649577 0.398642
0.504677 0.659419 0.434043
0.562753 0.669169 0.446815
0.602853 0.686671 0.422095
0.646799 0.708156 0.341039
0.73962 0.706294 0.30193
0.837919 0.694087 0.292363
0.303136 0.731655 0.382834
0.365377 0.743343 0.406607
0.451423 0.760662 0.437583
0.560067 0.777981 0.488411
0.625177 0.790097 0.503929
0.669947 0.80621 0.484474
0.704295 0.823697 0.416114
0.767697 0.83125 0.352819
0.862104 0.827726 0.331167
0.0340429 0.0355535 0.225132
0.0838331 0.0390326 0.230396
0.152209 0.0446174 0.242603
0.239933 0.0523995 0.259419
0.33814 0.0592508 0.273213
0.441016 0.0635538 0.280018
0.527687 0.0652018 0.271717
0.612741 0.0654917 0.263493
0.6907 0.0653239 0.256245
0.0530404 0.0938582 0.252842
0.10454 0.100923 0.247715
0.167697 0.104265 0.26334
0.24712 0.11046 0.269703
0.338262 0.114458 0.273671
0.436896 0.113817 0.276738
0.527474 0.100603 0.269413
0.614511 0.0968643 0.260578
0.694057 0.096025 0.25275
0.072221 0.172564 0.279957
0.122621 0.170184 0.270939
0.183749 0.174578 0.268879
0.260136 0.179034 0.284657
0.352392 0.183017 0.287617
0.444343 0.183856 0.284764
0.529641 0.17377 0.271595
0.618509 0.15671 0.258061
0.701793 0.139162 0.244785
0.0908064 0.263447 0.303181
0.144961 0.258137 0.299458
0.211551 0.260868 0.302861
0.287282 0.268727 0.305699
0.379507 0.273701 0.313909
0.468132 0.272007 0.304753
0.554696 0.26154 0.295201
0.644663 0.247242 0.282963
0.730861 0.220325 0.261891
0.111498 0.360342 0.321248
0.17229 0.356451 0.320409
0.242924 0.361532 0.334234
0.320439 0.371466 0.337346
0.407294 0.380301 0.341039
0.494682 0.37406 0.334829
0.583062 0.365606 0.326101
0.678721 0.352377 0.315038
0.769528 0.33022 0.293217
0.139178 0.462287 0.339971
0.209491 0.460914 0.342443
0.286366 0.470237 0.363241
0.376761 0.479637 0.379858
0.464118 0.479561 0.394064
0.520653 0.486931 0.361975
0.619211 0.477852 0.354376
0.718059 0.466468 0.341924
0.811902 0.44802 0.32079
0.178424 0.570062 0.366506
0.256016 0.572793 0.376516
0.355688 0.584436 0.408438
0.451438 0.586221 0.432654
0.524681 0.587259 0.45124
0.574411 0.597864 0.443015
0.646983 0.604929 0.383612
0.755856 0.59472 0.366293
0.852003 0.580941 0.343236
0.23006 0.679988 0.400763
0.305653 0.686732 0.419593
0.413306 0.695842 0.456031
0.514626 0.699382 0.490898
0.5879 0.704067 0.511543
0.647608 0.714199 0.519677
0.68954 0.7355 0.44918
0.783963 0.739879 0.388754
0.881163 0.728054 0.35671
0.280919 0.778515 0.437705
0.342229 0.788998 0.458808
0.454505 0.804028 0.499794
0.555123 0.812726 0.535531
0.643183 0.822248 0.56643
0.715221 0.834684 0.585397
0.76286 0.854719 0.552468
0.815763 0.872557 0.447181
0.898146 0.864149 0.405524
0.036347 0.0379187 0.31516
0.087068 0.0413825 0.320531
0.156893 0.0474708 0.334112
0.245289 0.0552987 0.351629
0.343038 0.062089 0.365637
0.44596 0.0658732 0.372137
0.555627 0.0677043 0.37467
0.644541 0.0679026 0.3626
0.721126 0.0674601 0.349737
0.0556191 0.0972305 0.343923
0.108476 0.102617 0.341497
0.172 0.105882 0.352407
0.252506 0.110643 0.359365
0.341405 0.115358 0.364294
0.440681 0.117418 0.367025
0.549722 0.116518 0.369345
0.646189 0.0990921 0.359655
0.724727 0.098024 0.34612
0.0737926 0.174502 0.368826
0.124788 0.171954 0.360861
0.185687 0.178225 0.349813
0.255818 0.183017 0.372976
0.350591 0.186938 0.377478
0.451377 0.189349 0.377859
0.557504 0.191104 0.377096
0.649882 0.170596 0.359289
0.731914 0.141588 0.339513
0.0924239 0.265751 0.392828
0.145678 0.260975 0.386191
0.211597 0.264836 0.383948
0.285908 0.273381 0.387274
0.376959 0.278065 0.404715
0.481666 0.281315 0.407218
0.585595 0.281941 0.403067
0.678065 0.263951 0.384039
0.7626 0.228855 0.359197
0.110597 0.366079 0.413581
0.167529 0.361746 0.410834
0.23975 0.365667 0.421347
0.319631 0.375402 0.426734
0.409796 0.384771 0.431388
0.51371 0.391806 0.440192
0.615702 0.389227 0.429084
0.713359 0.373449 0.414679
0.803891 0.343099 0.394385
0.132692 0.474189 0.430549
0.195895 0.472679 0.430396
0.272572 0.48014 0.4486
0.355489 0.491386 0.463691
0.445624 0.504219 0.463996
0.546075 0.514611 0.470649
0.645655 0.506615 0.46273
0.745357 0.494575 0.449561
0.842771 0.468498 0.42565
0.162432 0.589517 0.450767
0.233616 0.590616 0.453834
0.314 0.602899 0.477028
0.403494 0.616342 0.500984
0.508568 0.626276 0.515145
0.60914 0.626978 0.530999
0.672801 0.635508 0.490715
0.781598 0.624674 0.480339
0.880873 0.605539 0.452583
0.20322 0.708965 0.479149
0.280903 0.713741 0.488441
0.377447 0.728603 0.518166
0.487602 0.740856 0.553353
0.594736 0.743923 0.575891
0.677287 0.746014 0.597086
0.732341 0.758968 0.585626
0.812131 0.768765 0.511162
0.913054 0.758663 0.458228
0.252262 0.820294 0.513405
0.335225 0.830381 0.534463
0.431449 0.843778 0.563348
0.536049 0.851499 0.592935
0.639857 0.85655 0.623362
0.732021 0.864271 0.65156
0.803235 0.876799 0.661433
0.850278 0.899458 0.570565
0.931167 0.902708 0.480568
0.0381476 0.0397192 0.418463
0.0898604 0.0433509 0.424536
0.161044 0.0499428 0.43946
0.249348 0.0577096 0.456901
0.345983 0.0640269 0.469993
0.448096 0.0674601 0.476127
0.557 0.0691386 0.477913
0.664088 0.0696269 0.477531
0.747616 0.0691539 0.465293
0.0578775 0.100206 0.448661
0.110445 0.101915 0.449561
0.176486 0.106096 0.454444
0.2551 0.110857 0.46157
0.344366 0.114855 0.467201
0.443641 0.117144 0.470893
0.551232 0.1178 0.471916
0.662211 0.117327 0.471626
0.751324 0.0992905 0.46128
0.0750134 0.175799 0.470863
0.125597 0.172381 0.465614
0.188128 0.181338 0.445075
0.255863 0.185763 0.468254
0.347616 0.189715 0.48098
0.448875 0.193423 0.480323
0.558907 0.194308 0.479606
0.672099 0.194629 0.479652
0.758083 0.155138 0.458213
0.0935836 0.267124 0.495293
0.146639 0.262119 0.48925
0.212802 0.267979 0.478828
0.286381 0.27718 0.48072
0.369879 0.282963 0.506065
0.479576 0.285634 0.511391
0.592294 0.287953 0.512383
0.706355 0.291325 0.512764
0.792325 0.250858 0.489448
0.112032 0.368353 0.517143
0.167758 0.364294 0.512901
0.238926 0.369451 0.515114
0.318105 0.379431 0.522103
0.40734 0.390219 0.526925
0.512825 0.396002 0.54551
0.629984 0.400641 0.549447
0.742443 0.402243 0.545571
0.832578 0.366552 0.525551
0.13138 0.480354 0.536873
0.190417 0.478676 0.535988
0.268101 0.484596 0.55201
0.352178 0.49575 0.566751
0.445502 0.508675 0.570321
0.549554 0.519005 0.576608
0.662852 0.528038 0.585916
0.77528 0.523079 0.573709
0.869856 0.492027 0.557595
0.156542 0.601465 0.555489
0.221347 0.602136 0.556756
0.302495 0.612558 0.576562
0.390829 0.625834 0.601907
0.486488 0.639384 0.610956
0.587259 0.653483 0.609552
0.699687 0.664668 0.618585
0.805753 0.65449 0.607401
0.902678 0.630137 0.584131
0.188724 0.725917 0.57734
0.26009 0.729412 0.581445
0.343862 0.743877 0.605097
0.434653 0.75903 0.634119
0.547555 0.77171 0.654215
0.659068 0.783093 0.66775
0.768383 0.785367 0.686122
0.835523 0.795392 0.638407
0.931594 0.781979 0.60267
0.227161 0.839811 0.603265
0.305196 0.846876 0.613703
0.389944 0.86157 0.634867
0.49424 0.875364 0.659586
0.611505 0.88632 0.688075
0.730205 0.892866 0.719326
0.828153 0.898268 0.745968
0.887175 0.912581 0.732464
0.953475 0.92694 0.58262
0.0396887 0.0411841 0.529152
0.092134 0.0451057 0.535637
0.164538 0.0518654 0.550134
0.252918 0.0596628 0.566262
0.347433 0.0651865 0.576928
0.448829 0.0683909 0.582177
0.557671 0.0700389 0.584283
0.664775 0.0704967 0.58407
0.759503 0.0701457 0.582208
0.0593576 0.102068 0.559457
0.11136 0.102876 0.558907
0.177615 0.106477 0.563622
0.255833 0.111315 0.570581
0.344869 0.115343 0.576318
0.44416 0.117723 0.580118
0.551949 0.118379 0.581613
0.662989 0.11812 0.58175
0.76286 0.116381 0.579995
0.0755779 0.176333 0.579293
0.125811 0.172869 0.574884
0.190112 0.182483 0.555718
0.257252 0.185855 0.579522
0.348714 0.189853 0.590555
0.448218 0.194171 0.593454
0.558434 0.196002 0.591959
0.673014 0.196338 0.591424
0.777935 0.189212 0.592386
0.0942245 0.267582 0.604471
0.146593 0.262455 0.599359
0.214191 0.269505 0.588235
0.286992 0.280247 0.584497
0.36762 0.287663 0.606241
0.473762 0.28925 0.625299
0.589761 0.292271 0.624857
0.708034 0.294041 0.626291
0.815412 0.28835 0.629923
0.112947 0.369345 0.627207
0.168627 0.365728 0.624109
0.23975 0.372305 0.619684
0.317571 0.382925 0.625452
0.406271 0.394797 0.630671
0.503975 0.401434 0.657542
0.627649 0.405051 0.662654
0.748592 0.409186 0.666377
0.857099 0.40853 0.671839
0.132647 0.483223 0.649012
0.190967 0.481254 0.647959
0.266209 0.488197 0.656382
0.34966 0.500084 0.668956
0.444251 0.513146 0.676127
0.542733 0.525002 0.686107
0.663737 0.532296 0.699214
0.787747 0.537179 0.705318
0.891875 0.534066 0.707607
0.155108 0.608606 0.67097
0.215915 0.608621 0.672114
0.296178 0.617502 0.688746
0.390768 0.630106 0.708537
0.490227 0.643763 0.716457
0.589349 0.657557 0.724147
0.700221 0.670283 0.732586
0.824506 0.677775 0.742199
0.919554 0.664576 0.736751
0.182528 0.737026 0.691249
0.248081 0.740139 0.694606
0.332509 0.752819 0.714427
0.441459 0.767498 0.737667
0.543633 0.780377 0.750164
0.642512 0.794598 0.760021
0.747082 0.809094 0.769024
0.858534 0.821622 0.776455
0.943923 0.806073 0.760357
0.213764 0.853788 0.712032
0.286152 0.859297 0.717784
0.363775 0.872953 0.733455
0.458091 0.887938 0.7523
0.564706 0.901152 0.770733
0.682246 0.911345 0.788388
0.81294 0.919478 0.811292
0.911635 0.924346 0.837568
0.960525 0.937926 0.757656
0.0406653 0.042298 0.63212
0.0939498 0.0465248 0.639109
0.167147 0.0532845 0.652171
0.254932 0.0608072 0.666484
0.347723 0.0656748 0.675044
0.448341 0.0686198 0.679652
0.556802 0.0703288 0.681788
0.664256 0.0709087 0.682155
0.759487 0.070573 0.680705
0.0602579 0.102998 0.66157
0.111543 0.103151 0.661463
0.177447 0.106142 0.665492
0.255695 0.11107 0.672267
0.344778 0.115114 0.678172
0.443305 0.117357 0.681651
0.551293 0.118303 0.683574
0.662898 0.118257 0.684367
0.762982 0.116823 0.683223
0.0756085 0.175937 0.680583
0.125154 0.172473 0.677241
0.190417 0.174838 0.679957
0.267475 0.180255 0.686809
0.356115 0.184848 0.692271
0.455024 0.187884 0.696178
0.56257 0.189578 0.6981
0.675212 0.190188 0.698817
0.778286 0.189792 0.698238
0.094316 0.267048 0.706035
0.14609 0.262013 0.702296
0.214343 0.26479 0.706096
0.293278 0.271763 0.71426
0.384558 0.278309 0.721736
0.486259 0.283253 0.727733
0.596719 0.28632 0.731777
0.711742 0.288609 0.734813
0.816434 0.289403 0.736278
0.113313 0.369512 0.730175
0.168627 0.365972 0.728344
0.240223 0.370672 0.733867
0.321782 0.380072 0.744213
0.416297 0.389471 0.754635
0.520897 0.39675 0.762615
0.634913 0.40267 0.769604
0.752682 0.407553 0.775174
0.858686 0.410208 0.778607
0.133593 0.484352 0.753658
0.19147 0.482536 0.753719
0.265858 0.489494 0.76144
0.349935 0.501762 0.773907
0.44741 0.513634 0.786252
0.554696 0.523384 0.796689
0.671519 0.531914 0.806027
0.791104 0.538354 0.813306
0.895766 0.543114 0.818647
0.155917 0.611673 0.778332
0.21561 0.611109 0.779644
0.291966 0.620371 0.789181
0.378317 0.634867 0.803372
0.477928 0.648936 0.817517
0.587549 0.661112 0.82977
0.70605 0.671199 0.840604
0.827985 0.680232 0.850294
0.926711 0.686641 0.857114
0.180743 0.743664 0.801053
0.242039 0.746075 0.804883
0.31957 0.757549 0.816541
0.406836 0.773541 0.832547
0.508202 0.78912 0.847944
0.619226 0.802502 0.861067
0.739666 0.814771 0.872816
0.862104 0.825452 0.882689
0.950881 0.833082 0.889525
0.207431 0.862852 0.820478
0.273671 0.867643 0.825803
0.351125 0.879911 0.839261
0.440558 0.894774 0.856229
0.542443 0.907973 0.871504
0.653696 0.919417 0.884825
0.773602 0.929397 0.896529
0.890608 0.937697 0.906294
0.962722 0.943816 0.913634
