code/data/lut/38柔和深红2.cube
TITLE "LD - Super Gold 2"
# Copyright (c) 2019 Lens Distortions, LLC. All Rights Reserved.
# LensDistortions.com
# ref-SG4
LUT_3D_SIZE 33
0.0249943 0.0265812 0.0291295
0.0310979 0.026978 0.0295415
0.0386053 0.0274052 0.0300145
0.0480964 0.0278325 0.0304723
0.0584268 0.0280613 0.0307317
0.0700999 0.028275 0.0309606
0.083238 0.0288853 0.0315099
0.0955367 0.0297093 0.0323186
0.108034 0.0306096 0.0331884
0.121904 0.0317998 0.0342107
0.135836 0.0329595 0.0352941
0.150652 0.0339666 0.0362554
0.166995 0.0351873 0.0375219
0.184131 0.0364691 0.0387579
0.201877 0.037644 0.0398718
0.220691 0.0390326 0.0412146
0.240208 0.0403906 0.0424201
0.259632 0.0416266 0.0436255
0.280171 0.043122 0.0451972
0.300893 0.0445106 0.0466163
0.321904 0.0457313 0.0478676
0.343664 0.0470588 0.0492256
0.365988 0.0484321 0.0505226
0.388296 0.0495613 0.0517128
0.410727 0.0505074 0.0528115
0.434134 0.0515602 0.0540017
0.457588 0.0526436 0.0552224
0.481117 0.0534066 0.0561074
0.504692 0.0542 0.0570077
0.528725 0.0549477 0.0578622
0.552087 0.0552987 0.0583047
0.574838 0.0555886 0.0587472
0.597299 0.0560159 0.0593118
0.0306401 0.0336309 0.0330816
0.0345922 0.0340581 0.0326848
0.0426947 0.0344091 0.0330816
0.0518044 0.0347601 0.0335393
0.0630961 0.0352789 0.0339666
0.0754406 0.0357977 0.0344396
0.0882887 0.0363775 0.0349584
0.101198 0.0375219 0.0360266
0.113939 0.0384985 0.0369726
0.127535 0.0396735 0.0380102
0.141909 0.0409857 0.0391546
0.157214 0.0421759 0.0404059
0.173297 0.0434119 0.0415198
0.191318 0.0451057 0.0429389
0.209445 0.0465095 0.0441901
0.228687 0.0480659 0.0456245
0.248432 0.0497292 0.0472114
0.268177 0.0511788 0.0486152
0.288701 0.0528115 0.0500801
0.309209 0.0541543 0.0512856
0.330144 0.0556191 0.0526436
0.351568 0.0569467 0.0539254
0.373022 0.0578622 0.0549325
0.395422 0.059144 0.0563211
0.418021 0.0601968 0.0574197
0.440391 0.0609751 0.0582742
0.463523 0.0619669 0.059266
0.485817 0.0623941 0.0597391
0.50808 0.0627298 0.0601205
0.531579 0.0633555 0.0608225
0.554589 0.0635538 0.0611734
0.577035 0.0636606 0.0614328
0.598932 0.0641489 0.0618296
0.0362249 0.0419471 0.0364691
0.0408484 0.0432593 0.0371557
0.0471656 0.0444038 0.0366217
0.0567636 0.0445258 0.0370336
0.0679484 0.0446479 0.0374151
0.0805524 0.0452277 0.0380713
0.0937209 0.0458381 0.0386358
0.106294 0.0467994 0.0395666
0.119448 0.0481117 0.0407111
0.132982 0.0495155 0.0419471
0.147646 0.0509804 0.0430915
0.163745 0.0526741 0.044419
0.180148 0.0541543 0.0457313
0.198322 0.0560311 0.0472572
0.217243 0.0576638 0.0488441
0.236103 0.0593729 0.0502632
0.255406 0.060914 0.0515755
0.275044 0.062501 0.0528725
0.294926 0.0639963 0.0542306
0.31545 0.0653544 0.0555886
0.336004 0.0665751 0.0567483
0.357443 0.0680552 0.0581064
0.378622 0.068986 0.0590372
0.399512 0.069688 0.0597848
0.421332 0.070634 0.0607004
0.442954 0.0710307 0.0611429
0.464851 0.0714885 0.0617533
0.487297 0.0720531 0.0624247
0.509468 0.0722667 0.0627756
0.532357 0.0725567 0.0632944
0.555383 0.0727855 0.0637369
0.57789 0.0727245 0.0639353
0.600061 0.0728618 0.064332
0.0424811 0.052491 0.0401007
0.0487373 0.0539406 0.0413214
0.0528572 0.0558633 0.0411994
0.0612955 0.0564889 0.0406806
0.0728771 0.0566567 0.0412146
0.0856794 0.0568093 0.0416571
0.099443 0.0576181 0.0425727
0.112245 0.0586862 0.043473
0.125429 0.0601358 0.0446784
0.139452 0.061738 0.0459297
0.154513 0.0634318 0.0474403
0.170489 0.0651408 0.0487984
0.187503 0.0669718 0.0502022
0.205219 0.0686198 0.0516213
0.223804 0.0703288 0.0528878
0.242313 0.0718853 0.0542763
0.261707 0.0737469 0.055787
0.28098 0.0752117 0.057023
0.300481 0.0765393 0.0581369
0.320439 0.0779278 0.0593729
0.340215 0.0787366 0.0601968
0.360113 0.0793774 0.0609751
0.380774 0.0803235 0.0618906
0.401236 0.080766 0.0623789
0.422721 0.0814374 0.0631418
0.444099 0.0817884 0.0636606
0.46569 0.082002 0.0641031
0.487526 0.0823682 0.0646525
0.509758 0.0825513 0.0650034
0.532509 0.0826734 0.0654154
0.555154 0.0826886 0.0657359
0.577615 0.0827039 0.0660258
0.600092 0.0827955 0.0664225
0.0493935 0.0646982 0.0446021
0.0561532 0.0663615 0.0458991
0.061387 0.0683604 0.0459297
0.0670176 0.0707866 0.0452277
0.0780346 0.0713054 0.0450141
0.0914015 0.0717327 0.045716
0.105013 0.0721447 0.046479
0.118334 0.0734112 0.0477302
0.131716 0.0747539 0.0488594
0.145892 0.0762951 0.0502632
0.160571 0.07776 0.0514382
0.17615 0.079408 0.0526894
0.193149 0.0811933 0.0540169
0.210651 0.0828717 0.0552834
0.229053 0.084535 0.0565957
0.247272 0.0860914 0.0579843
0.265263 0.0871443 0.0589303
0.283772 0.088426 0.0599985
0.302464 0.0893111 0.0608225
0.321508 0.0901045 0.0616312
0.341161 0.0909895 0.0625315
0.360723 0.0915236 0.0631571
0.380941 0.0922408 0.0638743
0.401419 0.0926833 0.0643931
0.422385 0.0930343 0.0649424
0.443717 0.0933242 0.0655222
0.464927 0.0935531 0.0659495
0.486854 0.0937667 0.0664988
0.50901 0.0936904 0.0668193
0.531884 0.0938277 0.0672465
0.554498 0.0938735 0.067689
0.577173 0.0936904 0.0679179
0.599573 0.0937209 0.0682383
0.0567483 0.0790875 0.0497902
0.0643626 0.0809796 0.0514992
0.0710002 0.0832532 0.0524147
0.0762493 0.086305 0.0508125
0.0845045 0.0881514 0.0502022
0.097322 0.0886854 0.0501869
0.110918 0.0890211 0.0508278
0.124193 0.0899977 0.0519265
0.137591 0.0910048 0.0529946
0.151659 0.0923171 0.0541695
0.1664 0.0938582 0.055314
0.181796 0.0952773 0.0564889
0.198032 0.0966812 0.0575875
0.214618 0.0976272 0.0584573
0.231815 0.0987411 0.0595102
0.249516 0.0999771 0.0605173
0.266957 0.100984 0.0614481
0.285069 0.101839 0.0622568
0.303655 0.102754 0.0631418
0.322301 0.103349 0.0638132
0.341314 0.103822 0.0644388
0.3608 0.10454 0.0651865
0.380743 0.104997 0.0657206
0.401007 0.105257 0.0662852
0.421729 0.105516 0.0667735
0.442786 0.105806 0.067277
0.464088 0.105974 0.0677348
0.486015 0.106172 0.0682231
0.508064 0.106172 0.0687114
0.530785 0.106142 0.0690929
0.553277 0.106081 0.0694133
0.576196 0.105989 0.0698405
0.598535 0.105852 0.0700694
0.0652628 0.09514 0.0561227
0.0734112 0.0970169 0.0579538
0.0813153 0.0992294 0.059266
0.0874952 0.101778 0.0583658
0.0937514 0.104768 0.0555734
0.104189 0.106554 0.0553902
0.117357 0.107012 0.0553445
0.130449 0.107729 0.0561837
0.143343 0.108324 0.0569924
0.156878 0.109071 0.057908
0.170764 0.109453 0.0585794
0.185916 0.110597 0.0595865
0.201114 0.111315 0.0603342
0.218189 0.112596 0.0614328
0.234821 0.113359 0.0622568
0.252094 0.114351 0.0632334
0.269383 0.115084 0.0639506
0.287205 0.115862 0.0647593
0.305196 0.116442 0.0654154
0.32369 0.116991 0.0661021
0.342748 0.117647 0.066804
0.361837 0.117876 0.0672313
0.382071 0.118547 0.0679789
0.402167 0.118685 0.0684215
0.422553 0.118944 0.0690318
0.443488 0.119219 0.0694896
0.464637 0.119173 0.0698558
0.486473 0.119417 0.0704356
0.508583 0.119326 0.0707866
0.530968 0.119478 0.0713512
0.553353 0.119203 0.0716106
0.57615 0.119036 0.07187
0.598886 0.118975 0.0723125
0.0746777 0.11165 0.0632792
0.0835431 0.113573 0.0652934
0.0920577 0.115221 0.0667735
0.0996262 0.117464 0.0667124
0.105028 0.120119 0.0635996
0.112963 0.122835 0.0605478
0.12369 0.123613 0.0602579
0.136309 0.124117 0.0603647
0.149065 0.124392 0.0608682
0.162493 0.124941 0.0617075
0.176669 0.12549 0.062562
0.191623 0.125948 0.0633249
0.207294 0.126635 0.0641489
0.223117 0.127306 0.0648356
0.23975 0.127977 0.0656443
0.256657 0.12871 0.0663462
0.274083 0.129503 0.0672007
0.291386 0.130007 0.0677653
0.309682 0.130587 0.0683909
0.32784 0.131136 0.0690929
0.346761 0.131594 0.0697032
0.366186 0.132097 0.0703899
0.385748 0.132265 0.0708629
0.406073 0.132723 0.0715343
0.426017 0.132799 0.0718853
0.446998 0.132982 0.0724041
0.468055 0.133013 0.0728313
0.489754 0.133135 0.0732586
0.511604 0.133059 0.0736706
0.533669 0.133089 0.074052
0.555978 0.133104 0.0744488
0.578561 0.132738 0.0746319
0.600961 0.132525 0.0749065
0.0840162 0.127687 0.0704967
0.0932631 0.128878 0.0723888
0.102464 0.130068 0.0739147
0.110079 0.131609 0.074052
0.116457 0.134203 0.0717174
0.122576 0.137148 0.0674754
0.130953 0.139483 0.064744
0.142199 0.14049 0.0648814
0.154757 0.141009 0.0650339
0.168032 0.141207 0.0654307
0.182177 0.141558 0.0662242
0.19704 0.141772 0.0668345
0.21265 0.142336 0.0676585
0.228809 0.142626 0.0682536
0.245747 0.143435 0.0691386
0.262486 0.143847 0.0697185
0.27985 0.144671 0.070634
0.297185 0.145068 0.0711986
0.315221 0.145708 0.0719921
0.333516 0.14612 0.0725719
0.352316 0.146487 0.0732128
0.371466 0.146715 0.0737316
0.391196 0.147158 0.0743877
0.410956 0.147341 0.0748455
0.431449 0.147509 0.0753643
0.45243 0.147646 0.0758373
0.473152 0.147509 0.0761425
0.494652 0.147631 0.0767071
0.516396 0.147524 0.076997
0.538521 0.147601 0.0774548
0.5608 0.147341 0.0777142
0.583413 0.147051 0.0779126
0.605859 0.146944 0.0782483
0.0930953 0.142885 0.077409
0.102937 0.143755 0.079408
0.112215 0.144686 0.0808728
0.120439 0.146075 0.0815747
0.127108 0.148333 0.0800488
0.13283 0.151324 0.0758831
0.139406 0.154665 0.0712291
0.148425 0.156832 0.068925
0.16022 0.157931 0.0691691
0.173556 0.158297 0.0692454
0.188022 0.15874 0.0698863
0.202792 0.158907 0.0706188
0.218616 0.159152 0.0713207
0.234882 0.15967 0.0721752
0.251682 0.159945 0.0728618
0.268742 0.160464 0.0737163
0.285847 0.160754 0.0742657
0.303426 0.161273 0.0750286
0.321416 0.161776 0.0756847
0.339818 0.162066 0.0763256
0.358572 0.162325 0.0768749
0.377737 0.162737 0.0775464
0.397055 0.162753 0.0779736
0.417304 0.162997 0.0785077
0.43769 0.163058 0.0790265
0.458335 0.163058 0.079408
0.479469 0.163165 0.079881
0.500969 0.163073 0.0802319
0.52256 0.162936 0.0805982
0.544427 0.162814 0.0809339
0.566873 0.162539 0.0812238
0.589426 0.162295 0.0815595
0.611917 0.162203 0.0819257
0.10193 0.157778 0.0842451
0.112078 0.158618 0.0862135
0.121813 0.15967 0.0881971
0.130358 0.160998 0.0892042
0.13727 0.16318 0.0884871
0.143114 0.166308 0.0853132
0.148943 0.169833 0.0797436
0.156405 0.173236 0.0750286
0.166705 0.175235 0.0733654
0.179767 0.176471 0.0738994
0.193683 0.176654 0.0738994
0.20882 0.17705 0.0744945
0.224384 0.177188 0.0751049
0.240864 0.1776 0.0759594
0.257527 0.177844 0.0766613
0.274784 0.17821 0.0775464
0.29218 0.178256 0.0781872
0.310155 0.178714 0.0789502
0.327718 0.178775 0.079408
0.346426 0.179385 0.0801556
0.364813 0.179431 0.0805829
0.384192 0.179675 0.0812085
0.403769 0.179767 0.081651
0.423865 0.179904 0.0822614
0.444144 0.179828 0.0827039
0.464988 0.179934 0.0832074
0.485847 0.179721 0.08365
0.507179 0.179461 0.0839246
0.529168 0.179568 0.0844892
0.551095 0.17908 0.0847028
0.573709 0.179156 0.0852064
0.596124 0.178759 0.0855116
0.618585 0.178439 0.0857252
0.110872 0.17322 0.0914473
0.121584 0.174151 0.0935531
0.131228 0.175311 0.0954299
0.139757 0.176623 0.0967117
0.147311 0.17911 0.0972
0.153567 0.181964 0.0948959
0.159365 0.185626 0.0898451
0.165637 0.189715 0.0834821
0.174441 0.192874 0.0791028
0.186038 0.195193 0.0781109
0.199496 0.19588 0.0783551
0.214954 0.196628 0.0787823
0.230533 0.196521 0.0791333
0.24744 0.19707 0.0800336
0.263691 0.196979 0.0805524
0.280919 0.197421 0.0814679
0.29839 0.19736 0.0820935
0.316548 0.197528 0.0829633
0.334569 0.197528 0.0835584
0.353124 0.197833 0.0842451
0.371801 0.197803 0.0847028
0.391241 0.198138 0.0853742
0.410529 0.197894 0.085771
0.430732 0.198138 0.0863966
0.450965 0.198001 0.0868238
0.471885 0.197894 0.0873426
0.493126 0.197848 0.0877394
0.514168 0.197452 0.087953
0.536141 0.197467 0.0885176
0.55816 0.197116 0.088838
0.580819 0.197024 0.0893568
0.603342 0.196643 0.0896468
0.62594 0.196338 0.0899214
0.120211 0.189639 0.0987869
0.130861 0.190326 0.100862
0.140688 0.191913 0.103014
0.149371 0.19379 0.104875
0.15729 0.195895 0.105608
0.164065 0.198688 0.104433
0.170016 0.202472 0.100526
0.176059 0.206577 0.0939345
0.183612 0.210849 0.0873579
0.193622 0.21384 0.0836957
0.206546 0.215824 0.0827955
0.22089 0.216632 0.0832227
0.236713 0.217197 0.0834974
0.25333 0.217426 0.0840925
0.270191 0.217533 0.0847791
0.287419 0.217655 0.0856184
0.304814 0.217639 0.086305
0.322683 0.217792 0.0871138
0.341054 0.21767 0.0877089
0.359899 0.217395 0.088426
0.378851 0.217563 0.0889601
0.398062 0.217563 0.0895552
0.417731 0.217609 0.090074
0.437797 0.217472 0.0906081
0.458351 0.21735 0.0910964
0.479347 0.217227 0.0916304
0.500359 0.21709 0.0920119
0.52192 0.216815 0.0923323
0.54406 0.216754 0.0928511
0.56582 0.216266 0.0931563
0.5888 0.216312 0.0937514
0.611307 0.215747 0.0939498
0.633356 0.215351 0.0943008
0.129473 0.206836 0.106142
0.140307 0.207721 0.108476
0.150042 0.209781 0.110918
0.158938 0.211521 0.112932
0.167163 0.213504 0.114305
0.17467 0.216663 0.114
0.18085 0.219745 0.111025
0.187259 0.224155 0.105638
0.194034 0.228641 0.0978103
0.202731 0.233021 0.0916762
0.213916 0.235859 0.088365
0.227588 0.237415 0.088014
0.243015 0.238468 0.0883345
0.25951 0.238849 0.0887007
0.276905 0.239139 0.0892195
0.293736 0.239155 0.0898604
0.311437 0.239307 0.0906386
0.329335 0.239185 0.0914168
0.347936 0.239185 0.0921798
0.366766 0.238895 0.0928511
0.386053 0.238575 0.0934157
0.405829 0.238437 0.0940871
0.425513 0.238254 0.0945296
0.445762 0.238163 0.0950484
0.4663 0.238087 0.0956283
0.486931 0.237629 0.0959793
0.508385 0.237873 0.0966659
0.529793 0.237293 0.0969253
0.551629 0.237034 0.0973678
0.574182 0.236866 0.0978408
0.596704 0.236408 0.0982528
0.619471 0.236408 0.0987411
0.641794 0.235721 0.09897
0.13933 0.224887 0.114031
0.149905 0.2262 0.116655
0.159472 0.22797 0.118853
0.168688 0.230121 0.121141
0.177264 0.232395 0.122896
0.185245 0.235264 0.123323
0.192187 0.238437 0.121523
0.198657 0.242481 0.117174
0.204959 0.246647 0.109895
0.212787 0.251652 0.101991
0.222339 0.255238 0.0958572
0.234791 0.258167 0.093019
0.249271 0.259648 0.092958
0.265705 0.260655 0.0932784
0.282734 0.261112 0.0936751
0.300328 0.261357 0.0941329
0.318013 0.261326 0.0949264
0.335988 0.261112 0.0956436
0.354711 0.261112 0.0964981
0.373541 0.260853 0.0971542
0.39321 0.26096 0.098085
0.412818 0.260395 0.0986343
0.433387 0.260136 0.0994278
0.453666 0.25977 0.0999008
0.474128 0.25951 0.100435
0.495415 0.259541 0.100969
0.516579 0.259281 0.101411
0.538354 0.259266 0.101946
0.560159 0.258732 0.102251
0.582818 0.258579 0.102876
0.605203 0.258274 0.103304
0.628107 0.258061 0.103822
0.650538 0.257435 0.104112
0.148852 0.243244 0.121706
0.159258 0.245029 0.124529
0.169314 0.24715 0.12694
0.178515 0.249424 0.129183
0.187579 0.251606 0.130999
0.196002 0.254292 0.131762
0.20354 0.25745 0.131212
0.21033 0.261051 0.128359
0.216724 0.265354 0.122408
0.22359 0.270054 0.113985
0.232441 0.274708 0.105867
0.243061 0.27837 0.10045
0.25684 0.281025 0.0981613
0.272328 0.282414 0.0983139
0.289342 0.283375 0.0987259
0.306661 0.283818 0.0990616
0.324422 0.28394 0.0995346
0.342916 0.28397 0.100252
0.36141 0.283635 0.100999
0.380682 0.283787 0.10193
0.400092 0.283452 0.102693
0.420111 0.283421 0.103487
0.440345 0.282811 0.104082
0.461265 0.282521 0.104921
0.48246 0.282002 0.10544
0.503761 0.281987 0.10602
0.524926 0.281819 0.10634
0.546883 0.281605 0.106874
0.568795 0.281254 0.107347
0.591348 0.281102 0.107881
0.61442 0.280858 0.108461
0.637018 0.280415 0.108827
0.659846 0.280339 0.109468
0.158206 0.26215 0.129305
0.168872 0.264363 0.132097
0.178882 0.26656 0.134874
0.188342 0.26865 0.136919
0.198199 0.271427 0.13933
0.206775 0.273762 0.140383
0.214923 0.276967 0.140337
0.22211 0.280293 0.138399
0.228885 0.284398 0.134493
0.23534 0.288945 0.126925
0.243244 0.293889 0.118059
0.25275 0.298329 0.110002
0.264866 0.301793 0.105135
0.27921 0.304112 0.103273
0.295445 0.305638 0.103655
0.312657 0.306371 0.103975
0.330907 0.306935 0.104402
0.349233 0.306996 0.104921
0.368231 0.307149 0.105699
0.387518 0.306981 0.106554
0.407263 0.306874 0.107271
0.427192 0.306538 0.108064
0.447456 0.306264 0.108782
0.468742 0.306035 0.109667
0.49015 0.305562 0.11043
0.511864 0.305028 0.111055
0.533822 0.304982 0.111711
0.5552 0.304555 0.112047
0.577813 0.304768 0.11284
0.600183 0.30425 0.113237
0.623453 0.304112 0.113832
0.646326 0.303914 0.114443
0.668452 0.303365 0.114748
0.167742 0.281788 0.137087
0.178302 0.283772 0.139818
0.188617 0.28632 0.142779
0.198657 0.288731 0.145129
0.208606 0.291371 0.147555
0.217716 0.293751 0.148989
0.226505 0.297047 0.149752
0.23389 0.300237 0.148363
0.240879 0.304204 0.145464
0.247501 0.308522 0.140047
0.254505 0.3131 0.131304
0.263386 0.318273 0.122042
0.273945 0.322469 0.114336
0.287678 0.326055 0.110338
0.30277 0.328283 0.108629
0.319478 0.329503 0.109071
0.337377 0.330434 0.10956
0.355901 0.330724 0.10985
0.374929 0.331106 0.110491
0.394354 0.330999 0.111116
0.414313 0.330922 0.112108
0.434379 0.330465 0.112871
0.45539 0.330648 0.113939
0.476112 0.330068 0.114549
0.497414 0.329747 0.115328
0.519677 0.329427 0.116258
0.541665 0.32874 0.116945
0.564401 0.328725 0.117784
0.586572 0.328283 0.118166
0.609812 0.328511 0.118975
0.632563 0.328023 0.119402
0.655497 0.327764 0.119936
0.67805 0.327718 0.120623
0.177081 0.30164 0.1449
0.188098 0.304051 0.14789
0.19855 0.306538 0.150835
0.208804 0.309133 0.153399
0.218723 0.311467 0.15555
0.228626 0.314595 0.157824
0.237598 0.31722 0.158556
0.246098 0.320974 0.158373
0.253315 0.324437 0.156039
0.260288 0.328847 0.151797
0.267185 0.333394 0.145144
0.27509 0.338506 0.135668
0.28455 0.343496 0.126177
0.296498 0.347585 0.119142
0.310552 0.350851 0.115602
0.326604 0.352926 0.114199
0.343847 0.354162 0.114748
0.362371 0.355123 0.115267
0.381323 0.355184 0.115557
0.401465 0.355657 0.116381
0.421118 0.355322 0.116869
0.441733 0.355627 0.117937
0.462303 0.355077 0.118715
0.483864 0.3552 0.119799
0.505287 0.354711 0.120592
0.527077 0.354391 0.121386
0.549767 0.354162 0.122332
0.572213 0.353445 0.122972
0.596063 0.353292 0.12401
0.618418 0.35288 0.124498
0.641794 0.352865 0.125078
0.664775 0.352773 0.125689
0.687419 0.352483 0.126238
0.186648 0.322103 0.152804
0.197757 0.324636 0.155795
0.208209 0.327031 0.158816
0.219348 0.330175 0.161913
0.229358 0.332723 0.164157
0.239582 0.335531 0.166491
0.24921 0.338613 0.167834
0.257557 0.341741 0.167697
0.265797 0.345602 0.166552
0.272999 0.349691 0.162997
0.280156 0.354421 0.157763
0.287495 0.359258 0.150057
0.296193 0.364599 0.140032
0.306813 0.369314 0.130388
0.319554 0.373312 0.124208
0.334401 0.376135 0.120897
0.351125 0.378424 0.11989
0.368841 0.379339 0.1205
0.388312 0.380499 0.121126
0.407782 0.380591 0.121477
0.428473 0.38114 0.122332
0.44889 0.380713 0.122927
0.470054 0.38085 0.123827
0.491264 0.380484 0.124758
0.512963 0.380362 0.125734
0.535073 0.380285 0.12665
0.557229 0.379721 0.127413
0.580728 0.379812 0.128557
0.603433 0.379126 0.129351
0.627298 0.378531 0.130205
0.651194 0.378302 0.131121
0.67422 0.378149 0.13167
0.697063 0.378195 0.132387
0.196063 0.342779 0.160693
0.207507 0.345693 0.163958
0.218647 0.348592 0.167376
0.229328 0.351217 0.170016
0.240162 0.35433 0.172976
0.250614 0.357259 0.175189
0.260716 0.360403 0.177157
0.269917 0.363668 0.177554
0.278523 0.367361 0.176791
0.286366 0.371557 0.17435
0.293523 0.375845 0.169879
0.300816 0.380972 0.163577
0.308461 0.385885 0.154513
0.318242 0.391302 0.144427
0.329442 0.395865 0.134981
0.343328 0.399908 0.129488
0.358877 0.402502 0.126528
0.376471 0.404746 0.125734
0.39469 0.40557 0.126436
0.414725 0.40676 0.127138
0.434897 0.406821 0.127474
0.45623 0.407233 0.128267
0.47715 0.40705 0.12903
0.498543 0.406882 0.129931
0.520668 0.406836 0.131075
0.542885 0.406592 0.132036
0.565744 0.406531 0.133181
0.588632 0.405936 0.134005
0.611811 0.405921 0.134981
0.635493 0.4056 0.135943
0.659678 0.405081 0.136828
0.683589 0.404654 0.137652
0.70631 0.404349 0.138308
0.205951 0.364416 0.168994
0.217548 0.36733 0.172427
0.228931 0.37052 0.175906
0.239857 0.373373 0.178927
0.250858 0.37641 0.181842
0.261906 0.37966 0.184588
0.272129 0.382559 0.186587
0.282216 0.386252 0.187716
0.291264 0.389838 0.187503
0.299321 0.393881 0.185336
0.307469 0.398489 0.18204
0.314443 0.403052 0.176211
0.322271 0.408453 0.168994
0.330449 0.413321 0.159243
0.340658 0.418799 0.148791
0.353079 0.423331 0.140154
0.367849 0.427207 0.135073
0.384161 0.429557 0.132555
0.402686 0.431769 0.132143
0.421622 0.432609 0.13286
0.441886 0.433249 0.133272
0.463035 0.433814 0.133928
0.484428 0.433936 0.134585
0.506401 0.434104 0.135576
0.528405 0.433875 0.136492
0.550851 0.433814 0.137499
0.573541 0.433631 0.138491
0.596277 0.433356 0.139406
0.620081 0.433265 0.140581
0.643946 0.432975 0.141634
0.668116 0.432593 0.142565
0.691722 0.432197 0.143618
0.715419 0.431754 0.144503
0.215671 0.38674 0.177325
0.227787 0.3897 0.181201
0.238819 0.39266 0.184421
0.250568 0.396124 0.187945
0.261936 0.399268 0.191226
0.272984 0.402304 0.193851
0.284413 0.405982 0.196674
0.294408 0.409216 0.197833
0.304204 0.412909 0.198199
0.313176 0.417182 0.196811
0.321126 0.421256 0.193851
0.328801 0.42649 0.189319
0.336065 0.431159 0.182589
0.344137 0.436591 0.174441
0.352926 0.441947 0.163851
0.364233 0.447059 0.153597
0.377554 0.451316 0.14548
0.393286 0.455039 0.141192
0.410422 0.457527 0.138674
0.429175 0.459266 0.138201
0.449226 0.460502 0.139254
0.470069 0.461219 0.139727
0.491569 0.461555 0.140291
0.513771 0.461845 0.141115
0.53608 0.46183 0.141894
0.55848 0.461677 0.142962
0.581552 0.461616 0.144137
0.604776 0.461311 0.14522
0.628565 0.46128 0.146471
0.652369 0.461051 0.147448
0.67628 0.46099 0.148577
0.700343 0.460746 0.149615
0.723644 0.459983 0.150469
0.225574 0.409277 0.185931
0.237995 0.41268 0.190082
0.24979 0.416129 0.193896
0.261311 0.419272 0.197238
0.27306 0.422644 0.200671
0.284886 0.426215 0.203861
0.295933 0.429374 0.206409
0.307073 0.433143 0.208392
0.317464 0.436881 0.209232
0.326589 0.441001 0.20827
0.335439 0.445457 0.206302
0.342901 0.449943 0.201648
0.350698 0.455116 0.196155
0.358434 0.460197 0.188769
0.366583 0.465629 0.179553
0.376562 0.471077 0.168902
0.388922 0.476143 0.158724
0.40293 0.480461 0.151232
0.419196 0.48365 0.147066
0.437324 0.48629 0.145281
0.456855 0.487861 0.145006
0.477409 0.488991 0.145953
0.498726 0.489601 0.146487
0.521035 0.49015 0.147173
0.543404 0.490074 0.147829
0.56643 0.490227 0.148882
0.589471 0.490135 0.149859
0.612955 0.490211 0.151202
0.636744 0.490089 0.152239
0.660319 0.489708 0.153277
0.68513 0.48983 0.154559
0.708827 0.489372 0.155505
0.732372 0.489189 0.156649
0.236057 0.432822 0.195178
0.248341 0.436271 0.199313
0.260258 0.439475 0.20293
0.272511 0.443427 0.206973
0.28452 0.446876 0.210529
0.296498 0.450187 0.213611
0.308263 0.453758 0.21648
0.319677 0.457511 0.218921
0.330541 0.46128 0.220081
0.340414 0.465614 0.219928
0.349233 0.469703 0.218112
0.357488 0.474418 0.214542
0.36556 0.479469 0.209628
0.373175 0.484627 0.202945
0.380941 0.490028 0.194537
0.390219 0.495613 0.185153
0.401129 0.500923 0.174029
0.413931 0.505714 0.163943
0.429419 0.51017 0.157382
0.446433 0.513054 0.15349
0.465171 0.515373 0.151751
0.485298 0.517067 0.151888
0.506569 0.518151 0.15288
0.528557 0.518715 0.153384
0.551171 0.519326 0.154269
0.574212 0.519554 0.154986
0.597375 0.519554 0.155764
0.621149 0.519722 0.156893
0.644709 0.519249 0.157961
0.669215 0.519417 0.15935
0.693523 0.519158 0.160616
0.717235 0.518929 0.161669
0.741024 0.518807 0.162875
0.24622 0.456809 0.204273
0.259022 0.460472 0.208713
0.271489 0.464225 0.212863
0.28365 0.467765 0.216495
0.296254 0.471443 0.220569
0.308659 0.475273 0.223926
0.320851 0.478859 0.226932
0.332738 0.48249 0.229679
0.34374 0.486381 0.231144
0.353887 0.49044 0.231373
0.363729 0.494835 0.230213
0.372274 0.499672 0.227558
0.380468 0.504631 0.223041
0.388388 0.509789 0.216831
0.396323 0.515373 0.209522
0.404837 0.520806 0.200488
0.414237 0.525933 0.190326
0.426474 0.531746 0.179446
0.440284 0.536187 0.169726
0.456092 0.540169 0.163546
0.474083 0.54316 0.160143
0.49369 0.54548 0.158755
0.514504 0.54699 0.158984
0.536065 0.547997 0.159976
0.558679 0.548959 0.160693
0.581613 0.54902 0.161151
0.605371 0.549523 0.162066
0.629252 0.549416 0.163058
0.653101 0.549554 0.164187
0.677577 0.549447 0.165484
0.701747 0.549218 0.166751
0.726223 0.549111 0.168002
0.749508 0.548898 0.169284
0.257053 0.481666 0.213901
0.270191 0.485435 0.218494
0.282383 0.489082 0.222553
0.295293 0.492897 0.226566
0.308171 0.496696 0.230671
0.32076 0.500603 0.234073
0.333272 0.504387 0.237568
0.345754 0.508141 0.240421
0.357137 0.512062 0.242191
0.367895 0.516167 0.243046
