code/data/lut/38柔和深红2.cube
TITLE "LD - Super Gold 2"
# Copyright (c) 2019 Lens Distortions, LLC. All Rights Reserved.
# LensDistortions.com
# ref-SG4
LUT_3D_SIZE 5
0.0249943 0.0265812 0.0291295
0.108034 0.0306096 0.0331884
0.240208 0.0403906 0.0424201
0.410727 0.0505074 0.0528115
0.597299 0.0560159 0.0593118
0.0840162 0.127687 0.0704967
0.154757 0.141009 0.0650339
0.27985 0.144671 0.070634
0.431449 0.147509 0.0753643
0.605859 0.146944 0.0782483
0.158206 0.26215 0.129305
0.228885 0.284398 0.134493
0.330907 0.306935 0.104402
0.49015 0.305562 0.11043
0.668452 0.303365 0.114748
0.236057 0.432822 0.195178
0.330541 0.46128 0.220081
0.401129 0.500923 0.174029
0.551171 0.519326 0.154269
0.741024 0.518807 0.162875
0.325612 0.642008 0.276066
0.440528 0.677623 0.31281
0.528847 0.716884 0.300374
0.624308 0.758389 0.222873
0.808576 0.771786 0.215488
0.0293736 0.0310369 0.0936904
0.141543 0.0383917 0.104936
0.289693 0.0494087 0.115694
0.454276 0.0577401 0.124773
0.628305 0.0603342 0.12668
0.0690166 0.16495 0.141024
0.181598 0.165682 0.141939
0.311757 0.160555 0.138125
0.462699 0.154009 0.133135
0.638117 0.136004 0.119112
0.137804 0.318517 0.187076
0.270588 0.317327 0.219699
0.360067 0.331273 0.182391
0.52639 0.319753 0.172885
0.704128 0.30753 0.163912
0.225315 0.48249 0.252781
0.365652 0.505074 0.308186
0.455222 0.529122 0.306523
0.580087 0.549157 0.220203
0.773526 0.537057 0.221851
0.316899 0.690257 0.341009
0.447837 0.724361 0.38468
0.579324 0.753689 0.41239
0.662791 0.788968 0.327718
0.834333 0.797406 0.277531
0.0340429 0.0355535 0.225132
0.152209 0.0446174 0.242603
0.33814 0.0592508 0.273213
0.527687 0.0652018 0.271717
0.6907 0.0653239 0.256245
0.072221 0.172564 0.279957
0.183749 0.174578 0.268879
0.352392 0.183017 0.287617
0.529641 0.17377 0.271595
0.701793 0.139162 0.244785
0.111498 0.360342 0.321248
0.242924 0.361532 0.334234
0.407294 0.380301 0.341039
0.583062 0.365606 0.326101
0.769528 0.33022 0.293217
0.178424 0.570062 0.366506
0.355688 0.584436 0.408438
0.524681 0.587259 0.45124
0.646983 0.604929 0.383612
0.852003 0.580941 0.343236
0.280919 0.778515 0.437705
0.454505 0.804028 0.499794
0.643183 0.822248 0.56643
0.76286 0.854719 0.552468
0.898146 0.864149 0.405524
0.0381476 0.0397192 0.418463
0.161044 0.0499428 0.43946
0.345983 0.0640269 0.469993
0.557 0.0691386 0.477913
0.747616 0.0691539 0.465293
0.0750134 0.175799 0.470863
0.188128 0.181338 0.445075
0.347616 0.189715 0.48098
0.558907 0.194308 0.479606
0.758083 0.155138 0.458213
0.112032 0.368353 0.517143
0.238926 0.369451 0.515114
0.40734 0.390219 0.526925
0.629984 0.400641 0.549447
0.832578 0.366552 0.525551
0.156542 0.601465 0.555489
0.302495 0.612558 0.576562
0.486488 0.639384 0.610956
0.699687 0.664668 0.618585
0.902678 0.630137 0.584131
0.227161 0.839811 0.603265
0.389944 0.86157 0.634867
0.611505 0.88632 0.688075
0.828153 0.898268 0.745968
0.953475 0.92694 0.58262
0.0406653 0.042298 0.63212
0.167147 0.0532845 0.652171
0.347723 0.0656748 0.675044
0.556802 0.0703288 0.681788
0.759487 0.070573 0.680705
0.0756085 0.175937 0.680583
0.190417 0.174838 0.679957
0.356115 0.184848 0.692271
0.56257 0.189578 0.6981
0.778286 0.189792 0.698238
0.113313 0.369512 0.730175
0.240223 0.370672 0.733867
0.416297 0.389471 0.754635
0.634913 0.40267 0.769604
0.858686 0.410208 0.778607
0.155917 0.611673 0.778332
0.291966 0.620371 0.789181
0.477928 0.648936 0.817517
0.70605 0.671199 0.840604
0.926711 0.686641 0.857114
0.207431 0.862852 0.820478
0.351125 0.879911 0.839261
0.542443 0.907973 0.871504
0.773602 0.929397 0.896529
0.962722 0.943816 0.913634
