code/data/lut/39柔和深红3.cube
TITLE "LD - Super Gold 3"
# Copyright (c) 2019 Lens Distortions, LLC. All Rights Reserved.
# LensDistortions.com
# ref-SG4
LUT_3D_SIZE 33
0.00141909 0.00259403 0.00445563
0.00590524 0.00251774 0.00434882
0.0173342 0.0027924 0.00474556
0.0325017 0.00302129 0.00509651
0.0490883 0.00331121 0.00564584
0.0666972 0.00337224 0.00578317
0.0865034 0.00392157 0.00669871
0.103853 0.00457771 0.00753796
0.121248 0.00534066 0.00842298
0.140536 0.00657664 0.00996414
0.159197 0.00758373 0.0111543
0.179049 0.00860609 0.0122683
0.200595 0.0101625 0.0137331
0.222583 0.0113222 0.0149233
0.245457 0.0124361 0.0161288
0.269581 0.0139925 0.0176852
0.294194 0.0152743 0.0188449
0.318929 0.016434 0.0197604
0.344381 0.017792 0.0210727
0.370565 0.0190738 0.0225223
0.396963 0.0204776 0.0239719
0.423423 0.021912 0.0252232
0.450248 0.0231785 0.0265354
0.476997 0.0243839 0.0279698
0.503899 0.02533 0.0291447
0.53135 0.0267796 0.0307164
0.558618 0.0280156 0.0320745
0.585351 0.0291142 0.0331884
0.612009 0.0303044 0.0345159
0.638086 0.0314488 0.0359045
0.663722 0.032578 0.0372931
0.6878 0.0335393 0.0385595
0.710979 0.0345617 0.0399176
0.00546273 0.00933852 0.00842298
0.0108644 0.0100557 0.00790417
0.0237583 0.0102388 0.00814832
0.0383001 0.0106508 0.00868238
0.0556802 0.0113222 0.00924697
0.07393 0.0120851 0.00993362
0.0927443 0.0128328 0.0106508
0.111025 0.0144961 0.0121767
0.128344 0.0156863 0.0132296
0.146868 0.0173342 0.0145113
0.166217 0.0193484 0.0162661
0.186343 0.0205692 0.0174411
0.207309 0.0220035 0.0188449
0.230564 0.0239872 0.0205997
0.253635 0.0254978 0.0216983
0.277974 0.0271458 0.0231479
0.302937 0.0285649 0.0246128
0.328115 0.0301518 0.0260471
0.353887 0.0319371 0.0273442
0.379477 0.0331121 0.0285191
0.405402 0.0343786 0.0297551
0.431479 0.0357671 0.0312047
0.457771 0.0368505 0.0324559
0.484291 0.0380713 0.0336461
0.511055 0.0392767 0.0347143
0.537499 0.0400854 0.0356603
0.564187 0.0412604 0.0371099
0.590021 0.0419165 0.037995
0.614923 0.0425269 0.0386969
0.640574 0.0434577 0.0397803
0.665858 0.0444038 0.0409705
0.689601 0.0451514 0.0419165
0.7122 0.0462959 0.0428931
0.012726 0.0223239 0.0130922
0.0201419 0.0241245 0.0138857
0.0302434 0.0257725 0.0128939
0.0450141 0.0256809 0.0132296
0.0621347 0.0258488 0.0137636
0.0804303 0.0263371 0.0144198
0.0993668 0.0274052 0.0154421
0.116762 0.0284428 0.0165408
0.135119 0.0304417 0.0183261
0.152956 0.0320745 0.0196689
0.172442 0.0338903 0.0211643
0.193561 0.0361486 0.0227665
0.214817 0.0376745 0.0242466
0.238117 0.0397803 0.0259556
0.261524 0.0413367 0.0272984
0.285542 0.0431067 0.0286259
0.310506 0.0447242 0.0301061
0.335363 0.0461891 0.0312963
0.36022 0.047425 0.0323796
0.385611 0.0487373 0.0335699
0.411154 0.0501259 0.0348821
0.437263 0.0514382 0.0361181
0.462898 0.0522774 0.0369879
0.487938 0.0529488 0.0377508
0.514092 0.0538949 0.0387884
0.53959 0.0542153 0.0393225
0.564797 0.0546731 0.0400397
0.590768 0.0555734 0.0411231
0.615808 0.0559854 0.0417639
0.640787 0.0566262 0.0426947
0.665934 0.057435 0.0436866
0.689891 0.0580606 0.0445716
0.712688 0.0587472 0.0456397
0.0222019 0.0381933 0.0182498
0.031754 0.0399939 0.0196078
0.0380255 0.0429847 0.0193027
0.0512398 0.0437781 0.0182193
0.0681163 0.0436103 0.018677
0.0869764 0.0438697 0.0194095
0.105989 0.0446021 0.0203861
0.123781 0.0458686 0.0217594
0.14168 0.047715 0.0232395
0.160327 0.0496986 0.0247959
0.17998 0.0517128 0.0264591
0.200855 0.0537728 0.0282902
0.222919 0.0557565 0.0297551
0.245029 0.0572671 0.0308232
0.268833 0.0592203 0.0323949
0.292378 0.0606851 0.0336919
0.316823 0.0622873 0.0349432
0.341009 0.0636454 0.0360571
0.365591 0.0649119 0.0371099
0.390433 0.0661479 0.0380102
0.414893 0.0667124 0.0385901
0.439231 0.0671855 0.0392309
0.464393 0.0679942 0.0402533
0.488899 0.0682841 0.0407874
0.514382 0.0686809 0.0413977
0.540002 0.0691691 0.0422065
0.565179 0.0693675 0.0427405
0.589883 0.0697032 0.0433814
0.615412 0.0703136 0.0442817
0.640604 0.0706798 0.0449683
0.664942 0.0710765 0.0457465
0.689281 0.0719463 0.047013
0.712489 0.0725872 0.0481575
0.0320592 0.0558022 0.0242771
0.0425116 0.0580453 0.0260929
0.0502174 0.0607309 0.025803
0.0585794 0.0642252 0.0244755
0.0746014 0.0645762 0.0236515
0.0935683 0.0649577 0.0245365
0.112673 0.0652018 0.025391
0.130663 0.0665751 0.0269017
0.148684 0.0683146 0.0284276
0.167208 0.0699321 0.0299077
0.186435 0.0716716 0.0314794
0.206851 0.0735027 0.0326543
0.228153 0.0751965 0.0339971
0.250309 0.0769055 0.0352483
0.27393 0.0786603 0.0368811
0.296696 0.0798962 0.0378119
0.319646 0.0806287 0.0384985
0.343297 0.0818341 0.0394903
0.366629 0.0823072 0.039765
0.390509 0.0827649 0.0402991
0.414878 0.0834669 0.0411078
0.438911 0.083711 0.0416419
0.463432 0.0840467 0.0423133
0.488411 0.0844892 0.0430152
0.513405 0.0847181 0.043595
0.538399 0.0847028 0.0440375
0.563653 0.0851453 0.0448157
0.588724 0.0852216 0.0454261
0.613703 0.0853132 0.0460975
0.639521 0.0860761 0.0471504
0.664118 0.0863355 0.0479896
0.68835 0.0867781 0.0490578
0.712016 0.0878004 0.0505226
0.042359 0.0760052 0.0311284
0.0536507 0.0783703 0.0336461
0.0632486 0.0813764 0.0347143
0.0706493 0.0851759 0.0316167
0.0825666 0.0878004 0.030518
0.100404 0.0879835 0.0298619
0.119265 0.0883955 0.0308385
0.136934 0.089189 0.0319066
0.154955 0.090486 0.0332799
0.173266 0.0915999 0.0344091
0.192645 0.0933852 0.0359045
0.212284 0.0946365 0.0371862
0.233021 0.0959182 0.0382086
0.254231 0.0968643 0.0391394
0.275715 0.0975204 0.0397192
0.298146 0.0985275 0.0404669
0.320485 0.0992142 0.0411536
0.343343 0.099733 0.0415656
0.366705 0.100084 0.0419471
0.390402 0.100526 0.0425879
0.414054 0.100649 0.0429999
0.437934 0.101198 0.0437781
0.462333 0.101381 0.044358
0.486656 0.101167 0.0447089
0.511879 0.101518 0.0454719
0.536843 0.10164 0.0459907
0.561517 0.101671 0.0464942
0.587182 0.102251 0.0475471
0.612253 0.102144 0.0481422
0.637583 0.102449 0.0489357
0.662455 0.10312 0.0501411
0.686976 0.10338 0.0511025
0.710445 0.103975 0.0522316
0.0539864 0.0976883 0.0397955
0.0656443 0.0999924 0.0420386
0.0771191 0.102663 0.0438544
0.0854505 0.105821 0.0417487
0.0942092 0.109865 0.0375067
0.108568 0.111666 0.0365606
0.126635 0.112245 0.0364233
0.143969 0.112612 0.0371252
0.161303 0.113329 0.0382239
0.178805 0.113664 0.0389715
0.196933 0.114046 0.0398566
0.216129 0.114824 0.0406043
0.235676 0.115419 0.0413672
0.257069 0.116304 0.0421454
0.278202 0.116716 0.042649
0.300099 0.117464 0.0433204
0.32224 0.117754 0.0436408
0.34464 0.117906 0.044007
0.36791 0.118273 0.0446937
0.391165 0.118334 0.0450904
0.414984 0.118807 0.0458076
0.438407 0.11873 0.0461738
0.462669 0.119066 0.0467689
0.487312 0.119203 0.0473945
0.511788 0.119051 0.0478218
0.53698 0.119493 0.0486
0.561913 0.119402 0.0491188
0.586862 0.119615 0.0498665
0.612375 0.119936 0.0507057
0.637476 0.120211 0.051545
0.66212 0.120333 0.0524453
0.686763 0.121004 0.0537575
0.710689 0.121523 0.0550088
0.0662242 0.119036 0.0490578
0.079118 0.121523 0.0518807
0.0907912 0.123186 0.0535134
0.101228 0.125948 0.0530556
0.108507 0.129259 0.0481727
0.119036 0.132708 0.0430762
0.133593 0.133486 0.0422065
0.150149 0.133867 0.0420386
0.167147 0.134051 0.0426642
0.184451 0.134203 0.0433661
0.20296 0.134447 0.0441901
0.221897 0.134615 0.0447089
0.241779 0.134997 0.0453346
0.261814 0.135317 0.0457771
0.283024 0.135409 0.0462196
0.304906 0.135851 0.0468605
0.326909 0.136004 0.047364
0.349294 0.136309 0.0479438
0.372305 0.136507 0.0484016
0.395209 0.136751 0.0489815
0.418769 0.136889 0.0494392
0.442451 0.136919 0.0498207
0.466667 0.137072 0.0504921
0.491142 0.137179 0.0509957
0.515373 0.137285 0.0515145
0.540352 0.137362 0.0519875
0.564935 0.137331 0.0524605
0.590295 0.137819 0.0534371
0.615106 0.137728 0.0540932
0.64007 0.138109 0.0549783
0.664698 0.138659 0.0561074
0.688945 0.138903 0.0571298
0.712688 0.139406 0.0583505
0.0783551 0.139483 0.0583047
0.0913405 0.140764 0.0608225
0.103899 0.142077 0.062623
0.114275 0.143832 0.0627146
0.122942 0.147189 0.0591135
0.130892 0.150668 0.0521706
0.142168 0.153689 0.0477607
0.156786 0.154482 0.0473945
0.173281 0.154833 0.0472877
0.190433 0.154726 0.0475166
0.208591 0.154788 0.0483406
0.227543 0.154559 0.0487831
0.247364 0.154788 0.0496376
0.267933 0.154498 0.049958
0.289631 0.155047 0.0507668
0.31104 0.154986 0.0510567
0.333242 0.155398 0.0517433
0.355459 0.155367 0.0520638
0.378119 0.155428 0.0524758
0.401404 0.155749 0.0530861
0.42443 0.155642 0.0533303
0.44831 0.155871 0.0539559
0.472221 0.155901 0.0544137
0.496239 0.155932 0.0548714
0.520882 0.156024 0.0555428
0.545785 0.156161 0.0562142
0.570459 0.156298 0.0569772
0.595361 0.156298 0.0576791
0.620233 0.156435 0.0584115
0.644968 0.157046 0.0595712
0.669535 0.157229 0.0605173
0.69398 0.157519 0.0615549
0.717739 0.158297 0.0630503
0.0898909 0.15845 0.0672465
0.1037 0.159258 0.0698711
0.116091 0.160235 0.0716564
0.127199 0.161776 0.0723125
0.136049 0.164492 0.0697185
0.143465 0.168154 0.0633707
0.151858 0.172305 0.0559243
0.163546 0.174777 0.0522469
0.178912 0.175875 0.0522621
0.196078 0.175937 0.051957
0.214755 0.17612 0.0525368
0.233097 0.175692 0.0530098
0.253498 0.175738 0.0538186
0.274067 0.175601 0.0542916
0.295796 0.175647 0.054963
0.317632 0.175463 0.0552529
0.339742 0.17557 0.0558022
0.361944 0.175448 0.0561685
0.384894 0.175753 0.0567941
0.407828 0.175616 0.0572671
0.431128 0.175555 0.0576944
0.45481 0.175845 0.0584726
0.478431 0.175601 0.0588388
0.503304 0.175982 0.0596933
0.527642 0.175723 0.0601511
0.552239 0.175708 0.0608072
0.577142 0.175921 0.0616922
0.601877 0.176043 0.0624857
0.626307 0.175952 0.0631113
0.65124 0.176486 0.0642863
0.675898 0.176761 0.0653544
0.699931 0.177066 0.0664378
0.723888 0.178058 0.0679332
0.100816 0.17673 0.0757
0.114672 0.17763 0.0782483
0.127581 0.178485 0.0805371
0.139055 0.180163 0.0819257
0.148089 0.182712 0.0805676
0.155734 0.186435 0.0757763
0.162997 0.190784 0.0671244
0.172717 0.194766 0.0599222
0.185763 0.197116 0.0569619
0.202182 0.198077 0.0570077
0.220249 0.198184 0.0569162
0.239277 0.197955 0.057145
0.259464 0.197879 0.0579232
0.280308 0.19762 0.0584878
0.30219 0.19762 0.0592355
0.32401 0.197314 0.0598154
0.346654 0.197086 0.060502
0.369192 0.196948 0.0609445
0.391623 0.196658 0.0612955
0.415015 0.196979 0.0620432
0.438025 0.196689 0.0624094
0.46183 0.196796 0.0631418
0.485786 0.196719 0.0636606
0.510094 0.196826 0.0644846
0.534508 0.196674 0.0650187
0.559213 0.196735 0.0656138
0.584039 0.196689 0.0664225
0.608728 0.196597 0.0670634
0.633341 0.196963 0.0680552
0.65803 0.197131 0.0690623
0.682857 0.197772 0.0703288
0.706783 0.19794 0.0714733
0.730617 0.198718 0.0729839
0.111818 0.195422 0.0842603
0.126146 0.196521 0.0872053
0.13901 0.197711 0.0895705
0.150149 0.19913 0.0911421
0.160082 0.201968 0.0916304
0.167834 0.205097 0.0877089
0.175326 0.209766 0.0803388
0.182925 0.214389 0.0706035
0.194324 0.218341 0.0640726
0.208911 0.220615 0.0618601
0.226169 0.221393 0.0621042
0.245502 0.221653 0.0620127
0.265766 0.221286 0.0623789
0.287266 0.22118 0.0630503
0.308278 0.220798 0.0636454
0.330343 0.220645 0.064332
0.352987 0.220295 0.0650339
0.376104 0.219837 0.0655833
0.398917 0.219471 0.0659037
0.422126 0.219562 0.0665293
0.445212 0.219303 0.0669413
0.4692 0.219532 0.0677501
0.492836 0.219074 0.0682078
0.517296 0.219165 0.0689555
0.541741 0.219104 0.0697032
0.566262 0.218906 0.0704356
0.59144 0.219226 0.0714733
0.615854 0.218967 0.0721752
0.640757 0.219089 0.0731365
0.665553 0.219471 0.0744335
0.689906 0.219867 0.0757153
0.714092 0.220188 0.076936
0.737987 0.221042 0.0785992
0.122805 0.215106 0.0928206
0.137133 0.215991 0.0959182
0.149966 0.217426 0.0986496
0.161303 0.219532 0.100984
0.171649 0.22211 0.101839
0.179736 0.225177 0.0995651
0.18761 0.229847 0.0940719
0.194781 0.234531 0.0838788
0.204227 0.239643 0.0741436
0.216785 0.243046 0.0682689
0.233051 0.245136 0.0666056
0.251347 0.245762 0.066865
0.271656 0.246006 0.0668498
0.292973 0.245869 0.0673075
0.314931 0.245472 0.0678416
0.337102 0.245182 0.0686503
0.359411 0.244739 0.0691539
0.382269 0.244526 0.0699321
0.405524 0.244022 0.0706035
0.429236 0.243397 0.0714427
0.452781 0.243381 0.0720226
0.47628 0.243015 0.0725567
0.500587 0.243168 0.0734264
0.524697 0.24271 0.0739452
0.549645 0.242847 0.0749371
0.574334 0.242542 0.0756237
0.598886 0.242603 0.0764782
0.623819 0.242832 0.0776379
0.648661 0.242939 0.0786755
0.673136 0.243015 0.0797589
0.697978 0.243671 0.0810864
0.721706 0.243915 0.0821241
0.7449 0.244419 0.083711
0.133745 0.235599 0.101701
0.148394 0.236667 0.104906
0.160708 0.238727 0.107973
0.17229 0.240757 0.110552
0.182544 0.242939 0.111788
0.192004 0.246601 0.111315
0.19968 0.250278 0.106645
0.207553 0.255573 0.0987411
0.215961 0.260899 0.0875715
0.226596 0.266194 0.078233
0.240818 0.269383 0.073167
0.258106 0.271031 0.0720989
0.277745 0.271962 0.0721752
0.299031 0.271672 0.0719768
0.321675 0.271855 0.0726177
0.343313 0.271153 0.0730144
0.366247 0.271214 0.0740978
0.38883 0.270466 0.0745403
0.412604 0.270436 0.0755322
0.436118 0.26952 0.0761425
0.460319 0.269169 0.0771649
0.484245 0.268666 0.0777752
0.508461 0.268574 0.0784924
0.532937 0.268376 0.079118
0.557473 0.268177 0.079881
0.582238 0.267979 0.0808118
0.607065 0.268223 0.0817578
0.631693 0.267826 0.0825818
0.65626 0.267964 0.0838788
0.681208 0.26833 0.0851606
0.705653 0.268589 0.0864576
0.72961 0.269398 0.0879225
0.752712 0.269551 0.0892958
0.145235 0.257237 0.110994
0.159365 0.258747 0.11458
0.171481 0.260578 0.117266
0.183093 0.263157 0.120058
0.19408 0.265675 0.121874
0.204196 0.269001 0.122255
0.21265 0.27277 0.119524
0.220752 0.277607 0.113329
0.228107 0.282734 0.102739
0.237629 0.288502 0.0909285
0.24976 0.293034 0.0821393
0.265675 0.296345 0.0776837
0.284321 0.297826 0.0772412
0.305333 0.298726 0.0773022
0.327214 0.298589 0.0773327
0.350149 0.298711 0.0778363
0.372793 0.297993 0.0782635
0.396048 0.297642 0.0792096
0.419394 0.297093 0.079942
0.443168 0.296818 0.0809949
0.467247 0.296529 0.0818799
0.491569 0.295995 0.0827344
0.516442 0.295338 0.0835889
0.540841 0.294896 0.0843366
0.56527 0.294652 0.0852216
0.590341 0.294804 0.0861372
0.61503 0.294697 0.087129
0.640085 0.294926 0.0882429
0.664576 0.294713 0.0892348
0.689326 0.295171 0.0908064
0.713527 0.295491 0.0921492
0.737301 0.295918 0.093431
0.760555 0.296376 0.095079
0.156176 0.279469 0.119814
0.169619 0.281468 0.123278
0.182467 0.283894 0.126467
0.194217 0.286488 0.129152
0.205585 0.289036 0.131106
0.215763 0.292119 0.131716
0.225376 0.295918 0.130892
0.233509 0.300221 0.126436
0.241627 0.305486 0.118212
0.250095 0.311177 0.106447
0.260777 0.316655 0.0940871
0.274601 0.321141 0.0866407
0.292027 0.323842 0.0826276
0.312139 0.32549 0.0826276
0.333806 0.32604 0.0825208
0.356176 0.326146 0.0826123
0.379156 0.325963 0.0830701
0.402533 0.325612 0.0837568
0.426062 0.325032 0.0847486
0.449973 0.324865 0.0857404
0.474037 0.324269 0.0867323
0.498619 0.324056 0.0877394
0.523308 0.323278 0.0885786
0.548363 0.322896 0.0896162
0.573587 0.322286 0.0905013
0.598474 0.322423 0.0916457
0.623026 0.322408 0.0924849
0.647852 0.322271 0.0934615
0.672618 0.322423 0.0946517
0.697108 0.322698 0.0958724
0.721569 0.323125 0.0974594
0.745449 0.323537 0.0989853
0.768521 0.324163 0.100633
0.166873 0.30248 0.128649
0.180575 0.305013 0.13193
0.192966 0.307668 0.135302
0.205173 0.310002 0.137835
0.217197 0.3131 0.140581
0.228031 0.31603 0.141772
0.23801 0.319539 0.141146
0.247211 0.323766 0.138613
0.255375 0.328496 0.132647
0.263584 0.334264 0.122438
0.273182 0.340017 0.109636
0.285252 0.345327 0.0981308
0.300786 0.349645 0.0911116
0.319158 0.351873 0.0878004
0.340047 0.353368 0.087953
0.362097 0.353902 0.0880446
0.385519 0.354162 0.0882124
0.408865 0.353902 0.0885481
0.432776 0.353765 0.0893416
0.456657 0.353353 0.090486
0.48098 0.353017 0.0914168
0.50515 0.352193 0.0921187
0.52987 0.352041 0.0932631
0.555169 0.351431 0.094255
0.581003 0.35108 0.0956436
0.606317 0.35053 0.0966354
0.631159 0.350454 0.0975967
0.655573 0.3505 0.0987106
0.680446 0.350912 0.0999771
0.705028 0.351064 0.101396
0.729549 0.351446 0.102831
0.753262 0.351858 0.104372
0.775967 0.352346 0.106035
0.177249 0.326329 0.137255
0.19115 0.328832 0.140658
0.203693 0.331609 0.144076
0.216602 0.334646 0.147189
0.228717 0.337484 0.149737
0.240467 0.34049 0.151553
0.251164 0.344182 0.151888
0.260441 0.347921 0.149783
0.269352 0.352819 0.145663
0.27747 0.357916 0.137942
0.286488 0.363699 0.126314
0.297429 0.36968 0.112825
0.310658 0.374655 0.102068
0.328389 0.378698 0.0961318
0.347784 0.381048 0.0932784
0.3691 0.382162 0.0933089
0.391959 0.382925 0.0935836
0.41529 0.382925 0.0936904
0.439216 0.383047 0.094377
0.463325 0.38262 0.0950484
0.487633 0.382025 0.0959945
0.512245 0.381582 0.0970016
0.537377 0.381384 0.0981003
0.562448 0.380865 0.0992142
0.58735 0.380438 0.100328
0.613077 0.379965 0.101579
0.638636 0.379431 0.102983
0.663874 0.379416 0.104326
0.688457 0.379522 0.105577
0.713268 0.380087 0.106859
0.737072 0.380163 0.107988
0.760876 0.380896 0.109712
0.783444 0.381399 0.111223
0.18793 0.350683 0.146059
0.201724 0.353521 0.149523
0.215091 0.356649 0.153338
0.227543 0.359426 0.156283
0.240345 0.362387 0.158907
0.252537 0.365774 0.161227
0.263874 0.368811 0.161807
0.274601 0.373236 0.161151
0.28368 0.37734 0.157733
0.292332 0.382635 0.15201
0.301045 0.388037 0.142901
0.310704 0.394125 0.129595
0.323003 0.400107 0.116365
0.338216 0.404791 0.106722
0.356008 0.40827 0.100954
0.376486 0.41062 0.0987716
0.398169 0.411719 0.0990463
0.421378 0.412314 0.0991836
0.445319 0.412177 0.0994125
0.469825 0.412192 0.100023
0.494194 0.411765 0.100816
0.51899 0.411597 0.101884
0.54403 0.411017 0.103075
0.569528 0.410742 0.104189
0.594659 0.410071 0.105074
0.619791 0.410056 0.106371
0.645274 0.409644 0.107576
0.67068 0.409201 0.109087
0.696391 0.409171 0.110719
0.720195 0.40911 0.111879
0.744915 0.409888 0.113573
0.768185 0.410239 0.115023
0.79086 0.410697 0.116625
0.198871 0.376028 0.155108
0.212604 0.378729 0.158572
0.225681 0.381476 0.162005
0.239506 0.385168 0.165713
0.25243 0.387976 0.168353
0.265141 0.391333 0.170932
0.277302 0.394797 0.172213
0.287938 0.398367 0.171786
0.298268 0.40296 0.169589
0.3075 0.407721 0.164843
0.316457 0.413321 0.157595
0.325551 0.419089 0.14696
0.336233 0.425132 0.133242
0.349935 0.430793 0.120226
0.366064 0.435386 0.111208
0.38439 0.438224 0.106157
0.406027 0.44062 0.104372
0.428092 0.441382 0.104799
0.451957 0.442145 0.104952
0.476158 0.442161 0.105318
0.501137 0.442206 0.105898
0.52578 0.441398 0.106447
0.550988 0.441566 0.107652
0.575875 0.440757 0.108614
0.601541 0.440696 0.110048
0.626841 0.440223 0.111147
0.651698 0.439658 0.112352
0.677684 0.439948 0.114092
0.702449 0.439414 0.115526
0.727947 0.439353 0.117403
0.752392 0.439551 0.11902
0.77557 0.440101 0.120394
0.798169 0.44097 0.122118
0.209232 0.401053 0.163684
0.223606 0.40444 0.167712
0.237446 0.407721 0.17171
0.250828 0.410712 0.17467
0.264637 0.414115 0.178134
0.277882 0.417487 0.180545
0.29044 0.420798 0.182376
0.302449 0.424704 0.182757
0.312978 0.429038 0.181201
0.322896 0.433692 0.17763
0.331991 0.438865 0.171511
0.340948 0.444587 0.162799
0.350851 0.450568 0.150896
0.362951 0.456641 0.137026
0.376944 0.461753 0.124147
0.394385 0.466346 0.116411
0.413947 0.468956 0.111803
0.435615 0.471107 0.110079
0.458289 0.471931 0.110826
0.482444 0.472663 0.110979
0.506981 0.472297 0.11107
0.532799 0.472557 0.11191
0.557549 0.47187 0.112505
0.582696 0.471412 0.113481
0.608194 0.471244 0.114916
0.63357 0.470878 0.116152
0.659388 0.470802 0.117662
0.684443 0.470298 0.118868
0.709209 0.470603 0.120348
0.734371 0.470634 0.122164
0.759258 0.470603 0.124041
0.783291 0.47068 0.125872
0.805615 0.471275 0.127764
0.220645 0.427222 0.173251
0.235004 0.430549 0.177096
0.248966 0.433921 0.181033
0.262989 0.437339 0.18468
0.277012 0.440665 0.187884
0.290669 0.444007 0.190814
0.304067 0.447395 0.193133
0.316609 0.451514 0.194034
0.328069 0.455406 0.193042
0.338277 0.460197 0.189899
0.348226 0.465187 0.185153
0.357198 0.47068 0.177508
0.36669 0.476646 0.167529
0.376928 0.4822 0.154513
0.389853 0.488701 0.140673
0.404929 0.493492 0.12871
0.423392 0.497551 0.121492
0.443488 0.499931 0.117266
0.466011 0.502052 0.116014
0.489021 0.502586 0.116487
0.513695 0.503075 0.116747
0.538796 0.503151 0.117052
0.563989 0.502953 0.117571
0.589776 0.502876 0.118578
0.61529 0.502358 0.1196
0.640711 0.50219 0.121019
0.665858 0.502068 0.122301
0.690867 0.501808 0.12372
0.716121 0.501762 0.125353
0.741222 0.502068 0.127382
0.765881 0.502174 0.129198
0.78941 0.502205 0.131121
0.812772 0.502632 0.133349
0.231754 0.453971 0.182635
0.246525 0.457023 0.186831
0.260655 0.460533 0.190829
0.27541 0.464332 0.194812
0.289631 0.46746 0.197986
0.303838 0.47097 0.201129
0.317922 0.474739 0.203952
0.330709 0.478172 0.204807
0.343191 0.482521 0.20502
0.354162 0.487007 0.202411
0.364187 0.491753 0.198367
0.373617 0.49749 0.191913
0.382422 0.502785 0.182879
0.392676 0.509056 0.172107
0.403479 0.514885 0.158007
0.417166 0.520638 0.144106
0.433722 0.525414 0.133089
0.452934 0.529137 0.12665
0.473762 0.531533 0.123125
0.496422 0.533074 0.121904
0.520531 0.534051 0.122774
0.545373 0.534432 0.122896
0.570672 0.534386 0.123156
0.596414 0.534508 0.124025
0.621927 0.534279 0.124712
0.647059 0.533745 0.125643
0.672847 0.533867 0.127367
0.697856 0.533623 0.128908
0.723323 0.533822 0.130785
0.748012 0.533928 0.132326
0.772122 0.534066 0.134051
0.79617 0.534676 0.136355
0.818708 0.5346 0.138079
0.242756 0.480644 0.192172
0.258579 0.484428 0.196841
0.273152 0.487861 0.201129
0.287556 0.491218 0.204669
0.30251 0.495094 0.208484
0.31722 0.498573 0.211841
0.331289 0.501823 0.214359
0.345342 0.506096 0.216251
0.358129 0.50985 0.216449
0.369482 0.51429 0.214817
0.380499 0.519219 0.211505
0.389868 0.524117 0.205432
0.399069 0.530007 0.197803
0.408591 0.535714 0.187793
0.418677 0.541711 0.175967
0.430701 0.547707 0.161639
0.446036 0.553323 0.148318
0.463096 0.557916 0.138048
0.482521 0.561212 0.132052
0.504265 0.563745 0.128832
0.527565 0.565118 0.128084
0.55198 0.565911 0.128771
0.576684 0.565972 0.128771
0.602884 0.566461 0.129427
0.62829 0.566079 0.129931
0.654032 0.566125 0.131044
0.67953 0.565942 0.132189
0.704631 0.565805 0.1337
0.7299 0.566049 0.135592
0.75433 0.565957 0.137301
0.779095 0.566278 0.139239
0.802563 0.566613 0.141268
0.824933 0.566918 0.14316
0.254826 0.508309 0.202441
0.269963 0.511711 0.206607
0.285039 0.514961 0.210803
0.300542 0.519341 0.215259
0.315618 0.522622 0.218936
0.330343 0.526055 0.222217
0.34522 0.529824 0.225162
0.359548 0.533608 0.227436
0.373022 0.53756 0.228122
0.385122 0.542107 0.227344
0.396124 0.546593 0.224537
0.406394 0.55172 0.219333
0.416266 0.557214 0.212451
0.425254 0.563104 0.203677
0.434669 0.5691 0.192538
0.446113 0.575204 0.180407
0.459144 0.581064 0.165743
0.474632 0.586191 0.152346
0.493126 0.590555 0.143389
0.51368 0.593637 0.137987
0.535866 0.595804 0.13492
0.559335 0.596979 0.134142
0.584237 0.59794 0.135119
0.609506 0.598245 0.135317
0.634928 0.598337 0.13576
0.66096 0.598581 0.136645
0.686122 0.598474 0.137621
0.711513 0.598337 0.138857
0.736431 0.598199 0.140642
0.761425 0.598642 0.142611
0.785397 0.598535 0.14435
0.808698 0.599069 0.146273
0.831189 0.59942 0.148287
0.266026 0.535714 0.212024
0.28217 0.539422 0.216876
0.297658 0.543435 0.221592
0.312795 0.546914 0.225452
0.328695 0.550591 0.229709
0.344091 0.554391 0.233219
0.35964 0.558053 0.236347
0.374304 0.561761 0.238956
0.388128 0.565713 0.240269
0.400534 0.570031 0.239734
0.412604 0.574655 0.237797
0.42269 0.57969 0.233371
0.433143 0.585229 0.227604
0.442618 0.59089 0.219196
0.451713 0.596857 0.208804
0.462257 0.603037 0.197436
0.473701 0.60853 0.184329
0.487953 0.614588 0.169909
0.504875 0.619364 0.157244
0.523613 0.623468 0.14876
0.544945 0.626215 0.143725
0.567666 0.628092 0.141207
0.591882 0.629541 0.141039
0.616495 0.630182 0.14168
0.641535 0.630655 0.141894
0.667231 0.63064 0.142473
0.693172 0.630961 0.143374
0.718105 0.630594 0.14432
0.743191 0.631022 0.145953
0.767803 0.63093 0.147417
0.791714 0.63093 0.149096
0.81529 0.631617 0.151278
0.837201 0.631647 0.153124
0.278431 0.563912 0.222644
0.294743 0.567803 0.227359
0.309987 0.571405 0.231952
0.326177 0.575204 0.23624
0.342199 0.578988 0.24062
