code/data/lut/39柔和深红3.cube
TITLE "LD - Super Gold 3"
# Copyright (c) 2019 Lens Distortions, LLC. All Rights Reserved.
# LensDistortions.com
# ref-SG4
LUT_3D_SIZE 5
0.00141909 0.00259403 0.00445563
0.121248 0.00534066 0.00842298
0.294194 0.0152743 0.0188449
0.503899 0.02533 0.0291447
0.710979 0.0345617 0.0399176
0.0783551 0.139483 0.0583047
0.173281 0.154833 0.0472877
0.333242 0.155398 0.0517433
0.520882 0.156024 0.0555428
0.717739 0.158297 0.0630503
0.166873 0.30248 0.128649
0.255375 0.328496 0.132647
0.385519 0.354162 0.0882124
0.581003 0.35108 0.0956436
0.775967 0.352346 0.106035
0.254826 0.508309 0.202441
0.373022 0.53756 0.228122
0.459144 0.581064 0.165743
0.634928 0.598337 0.13576
0.831189 0.59942 0.148287
0.358328 0.736797 0.293019
0.497292 0.766842 0.33228
0.598947 0.801541 0.309316
0.70457 0.838407 0.205966
0.880186 0.847288 0.190799
0.00442512 0.00616464 0.101686
0.165454 0.0144656 0.114748
0.35465 0.0259709 0.123262
0.553658 0.0345922 0.131426
0.741711 0.0414435 0.136599
0.0526741 0.186038 0.154116
0.204852 0.184115 0.152544
0.37203 0.1738 0.143954
0.557595 0.164034 0.136294
0.750637 0.145113 0.122194
0.135393 0.371695 0.199756
0.306172 0.367681 0.239231
0.420172 0.382742 0.188769
0.62153 0.368032 0.176852
0.810651 0.358373 0.171847
0.237705 0.565499 0.273381
0.412787 0.584802 0.33756
0.520592 0.609033 0.330205
0.664668 0.629633 0.21503
0.859541 0.618799 0.219806
0.345495 0.785657 0.377417
0.502892 0.810803 0.422766
0.650538 0.830747 0.447379
0.739712 0.861646 0.333532
0.899825 0.86775 0.264118
0.00877394 0.0111391 0.278386
0.177035 0.0221866 0.297124
0.411902 0.0366979 0.328237
0.634211 0.0436713 0.323781
0.801572 0.0505531 0.31014
0.0551614 0.193515 0.334737
0.205356 0.193576 0.317006
0.420417 0.199512 0.336629
0.633265 0.188281 0.316197
0.813199 0.152132 0.29041
0.0965591 0.422126 0.371664
0.265614 0.421057 0.385687
0.473121 0.439246 0.388785
0.679377 0.42063 0.369223
0.869871 0.386221 0.337499
0.175341 0.664103 0.419455
0.394247 0.671473 0.461891
0.595331 0.667231 0.506676
0.729503 0.684688 0.418326
0.924315 0.663859 0.370901
0.300023 0.872328 0.5037
0.506081 0.881865 0.561761
0.710826 0.88455 0.624491
0.825742 0.907698 0.600229
0.949508 0.918379 0.418311
0.0132906 0.0159457 0.521141
0.186069 0.0278019 0.541421
0.419043 0.0417182 0.569253
0.664851 0.0486305 0.57763
0.853574 0.058381 0.572946
0.0574044 0.195895 0.569802
0.209277 0.200275 0.537346
0.412787 0.206867 0.575677
0.664363 0.213001 0.574868
0.865751 0.174853 0.562051
0.0962844 0.430854 0.610513
0.259342 0.429892 0.606577
0.470481 0.449058 0.614466
0.725338 0.459297 0.638209
0.922103 0.42829 0.622919
0.145785 0.697185 0.646723
0.324437 0.70277 0.663264
0.546105 0.720623 0.69012
0.774472 0.739132 0.69015
0.962707 0.708232 0.657221
0.233433 0.929366 0.702693
0.426123 0.935286 0.720836
0.672404 0.939529 0.755505
0.876783 0.940154 0.800671
0.999008 0.969726 0.622324
0.0176699 0.0202792 0.750439
0.193927 0.033051 0.766201
0.422309 0.0452735 0.781933
0.666346 0.0519265 0.788388
0.866819 0.0636454 0.798672
0.0597848 0.197406 0.789364
0.214084 0.193622 0.788495
0.425742 0.202457 0.797787
0.670939 0.20911 0.805066
0.886351 0.220203 0.81651
0.100221 0.434318 0.827893
0.262501 0.433051 0.831632
0.48275 0.449393 0.845991
0.731701 0.46247 0.8589
0.942916 0.478737 0.875914
0.145281 0.708766 0.86804
0.310674 0.711818 0.873549
0.535348 0.730816 0.889784
0.779187 0.744121 0.901473
0.980407 0.758404 0.915694
0.208865 0.950134 0.914595
0.376349 0.953902 0.91873
0.594232 0.9635 0.92932
0.824994 0.970657 0.937072
0.999008 0.980957 0.947738
