code/data/lut/39柔和深红3.cube
TITLE "LD - Super Gold 3"
# Copyright (c) 2019 Lens Distortions, LLC. All Rights Reserved.
# LensDistortions.com
# ref-SG4
LUT_3D_SIZE 9
0.00141909 0.00259403 0.00445563
0.0490883 0.00331121 0.00564584
0.121248 0.00534066 0.00842298
0.200595 0.0101625 0.0137331
0.294194 0.0152743 0.0188449
0.396963 0.0204776 0.0239719
0.503899 0.02533 0.0291447
0.612009 0.0303044 0.0345159
0.710979 0.0345617 0.0399176
0.0320592 0.0558022 0.0242771
0.0746014 0.0645762 0.0236515
0.148684 0.0683146 0.0284276
0.228153 0.0751965 0.0339971
0.319646 0.0806287 0.0384985
0.414878 0.0834669 0.0411078
0.513405 0.0847181 0.043595
0.613703 0.0853132 0.0460975
0.712016 0.0878004 0.0505226
0.0783551 0.139483 0.0583047
0.122942 0.147189 0.0591135
0.173281 0.154833 0.0472877
0.247364 0.154788 0.0496376
0.333242 0.155398 0.0517433
0.42443 0.155642 0.0533303
0.520882 0.156024 0.0555428
0.620233 0.156435 0.0584115
0.717739 0.158297 0.0630503
0.122805 0.215106 0.0928206
0.171649 0.22211 0.101839
0.204227 0.239643 0.0741436
0.271656 0.246006 0.0668498
0.359411 0.244739 0.0691539
0.452781 0.243381 0.0720226
0.549645 0.242847 0.0749371
0.648661 0.242939 0.0786755
0.7449 0.244419 0.083711
0.166873 0.30248 0.128649
0.217197 0.3131 0.140581
0.255375 0.328496 0.132647
0.300786 0.349645 0.0911116
0.385519 0.354162 0.0882124
0.48098 0.353017 0.0914168
0.581003 0.35108 0.0956436
0.680446 0.350912 0.0999771
0.775967 0.352346 0.106035
0.209232 0.401053 0.163684
0.264637 0.414115 0.178134
0.312978 0.429038 0.181201
0.350851 0.450568 0.150896
0.413947 0.468956 0.111803
0.506981 0.472297 0.11107
0.608194 0.471244 0.114916
0.709209 0.470603 0.120348
0.805615 0.471275 0.127764
0.254826 0.508309 0.202441
0.315618 0.522622 0.218936
0.373022 0.53756 0.228122
0.416266 0.557214 0.212451
0.459144 0.581064 0.165743
0.535866 0.595804 0.13492
0.634928 0.598337 0.13576
0.736431 0.598199 0.140642
0.831189 0.59942 0.148287
0.30338 0.620996 0.244572
0.370504 0.636957 0.263996
0.434256 0.651987 0.277989
0.484535 0.670024 0.27277
0.524437 0.692515 0.236851
0.578988 0.714382 0.184176
0.664988 0.725261 0.161395
0.762875 0.727474 0.163073
0.855848 0.728008 0.168185
0.358328 0.736797 0.293019
0.430564 0.752407 0.315435
0.497292 0.766842 0.33228
0.554635 0.782315 0.33547
0.598947 0.801541 0.309316
0.640848 0.822141 0.258503
0.70457 0.838407 0.205966
0.791226 0.845502 0.188785
0.880186 0.847288 0.190799
0.00274662 0.00378424 0.0377813
0.0694896 0.00543221 0.0415198
0.143755 0.00932326 0.0428626
0.221149 0.0142214 0.0471504
0.313726 0.0197604 0.0531167
0.414664 0.0250248 0.0594492
0.519432 0.0295415 0.0648508
0.623728 0.0336309 0.0697642
0.720226 0.0379644 0.0735332
0.0217136 0.0777447 0.0602579
0.0947433 0.0833295 0.0655985
0.168658 0.0797894 0.0634623
0.247852 0.0799878 0.064332
0.337819 0.0793011 0.0648508
0.432395 0.078233 0.0647288
0.528817 0.0788891 0.0660563
0.627634 0.0796368 0.0675517
0.723064 0.0823987 0.0711376
0.0679332 0.166491 0.0943313
0.143664 0.159716 0.10547
0.186618 0.165225 0.0822461
0.263325 0.160922 0.0777142
0.348623 0.157946 0.0751202
0.439658 0.155947 0.0733196
0.534386 0.154849 0.0740063
0.631556 0.15491 0.0757916
0.726833 0.156359 0.0788586
0.113725 0.238636 0.124392
0.186542 0.238605 0.140749
0.22594 0.246769 0.139483
0.281437 0.255573 0.0995651
0.372564 0.25095 0.0935378
0.467124 0.246555 0.09337
0.562448 0.244236 0.0941634
0.66038 0.243702 0.0967422
0.75433 0.244465 0.100511
0.160525 0.324697 0.156435
0.227512 0.331624 0.175753
0.278645 0.340017 0.18471
0.31487 0.35729 0.150759
0.394888 0.363775 0.114458
0.492088 0.359701 0.113176
0.593439 0.355444 0.117449
0.692012 0.353872 0.119966
0.785122 0.354513 0.124407
0.2047 0.4215 0.192203
0.268421 0.43212 0.210697
0.331487 0.44361 0.226307
0.374456 0.459861 0.208362
0.424186 0.478492 0.155734
0.516213 0.481361 0.133867
0.618235 0.478233 0.136034
0.719661 0.475761 0.142138
0.814557 0.475242 0.148425
0.249973 0.527642 0.233021
0.31133 0.539513 0.248417
0.383749 0.553231 0.265934
0.438178 0.568154 0.265339
0.477485 0.589227 0.222538
0.544518 0.604517 0.174182
0.643488 0.606775 0.157427
0.745174 0.605524 0.161181
0.839261 0.604959 0.169406
0.299168 0.639841 0.278965
0.361334 0.652216 0.293156
0.441611 0.667185 0.315969
0.503655 0.681392 0.325017
0.548333 0.700404 0.298314
0.593347 0.721645 0.240162
0.672389 0.732738 0.197894
0.770321 0.734768 0.184588
0.862638 0.734554 0.188205
0.354665 0.75465 0.331624
0.420203 0.766201 0.346975
0.503166 0.780804 0.372
0.569924 0.792828 0.385214
0.620371 0.80824 0.373037
0.661463 0.827939 0.321843
0.715343 0.844221 0.260624
0.797452 0.851667 0.223758
0.886152 0.853529 0.21207
0.00442512 0.00616464 0.101686
0.0742809 0.00831617 0.104219
0.165454 0.0144656 0.114748
0.260731 0.0209049 0.1205
0.35465 0.0259709 0.123262
0.452506 0.0303807 0.127001
0.553658 0.0345922 0.131426
0.652338 0.0378576 0.133883
0.741711 0.0414435 0.136599
0.0249332 0.0840009 0.124865
0.0964981 0.0897383 0.125704
0.188998 0.0962539 0.137453
0.277165 0.0962234 0.135927
0.367605 0.0912184 0.133867
0.462318 0.0844739 0.131991
0.558526 0.0809644 0.130709
0.653773 0.0825055 0.131472
0.743801 0.0848402 0.133654
0.0526741 0.186038 0.154116
0.126741 0.180728 0.154299
0.204852 0.184115 0.152544
0.28484 0.17882 0.147753
0.37203 0.1738 0.143954
0.461204 0.169955 0.140261
0.557595 0.164034 0.136294
0.657206 0.153536 0.128054
0.750637 0.145113 0.122194
0.0880751 0.282124 0.174716
0.180499 0.273869 0.181277
0.253574 0.270329 0.193606
0.306752 0.275456 0.168475
0.398398 0.26804 0.16379
0.491218 0.261646 0.160571
0.589044 0.254582 0.156313
0.688441 0.24477 0.14699
0.779767 0.241215 0.145434
0.135393 0.371695 0.199756
0.228534 0.367391 0.217151
0.306172 0.367681 0.239231
0.353994 0.375967 0.233585
0.420172 0.382742 0.188769
0.51783 0.376638 0.181247
0.62153 0.368032 0.176852
0.722042 0.360876 0.168383
0.810651 0.358373 0.171847
0.187808 0.463264 0.232151
0.270054 0.467063 0.255253
0.362142 0.472953 0.289265
0.418585 0.480217 0.298222
0.456718 0.497887 0.247013
0.538338 0.502327 0.205402
0.644373 0.4963 0.191287
0.747326 0.489006 0.191897
0.837812 0.484977 0.197162
0.237705 0.565499 0.273381
0.311681 0.573785 0.297307
0.412787 0.584802 0.33756
0.476326 0.5935 0.35198
0.520592 0.609033 0.330205
0.568017 0.628946 0.251225
0.664668 0.629633 0.21503
0.766949 0.623056 0.211429
0.859541 0.618799 0.219806
0.289036 0.67483 0.322042
0.358144 0.685344 0.34464
0.462196 0.699901 0.383948
0.53254 0.709743 0.400595
0.586587 0.723659 0.390021
0.626093 0.744762 0.322133
0.692882 0.755917 0.258701
0.788479 0.754421 0.24062
0.879667 0.750317 0.23856
0.345495 0.785657 0.377417
0.417365 0.795529 0.400397
0.502892 0.810803 0.422766
0.584894 0.821073 0.44065
0.650538 0.830747 0.447379
0.694087 0.845624 0.40766
0.739712 0.861646 0.333532
0.81384 0.868223 0.278706
0.899825 0.86775 0.264118
0.00639353 0.00854505 0.179599
0.0796979 0.0118105 0.183978
0.171633 0.018677 0.196521
0.282261 0.0265202 0.212055
0.398184 0.0328069 0.220722
0.497688 0.0367285 0.217899
0.594705 0.0393988 0.21442
0.689052 0.042649 0.212604
0.770947 0.0461585 0.211978
0.0294347 0.0894484 0.2065
0.10164 0.0968185 0.200443
0.188205 0.101625 0.21796
0.292241 0.106569 0.221912
0.398672 0.105531 0.220951
0.496925 0.0958572 0.214755
0.596689 0.0849317 0.209918
0.689906 0.0866102 0.206317
0.773831 0.0894942 0.205325
0.0532845 0.190936 0.236469
0.124575 0.185855 0.229496
0.205661 0.188861 0.227726
0.306874 0.192691 0.235904
0.405814 0.190585 0.226963
0.499138 0.183673 0.219059
0.595728 0.174441 0.209873
0.693294 0.15993 0.199115
0.781704 0.148211 0.191836
0.0749981 0.297642 0.254307
0.153552 0.29073 0.253483
0.236088 0.294469 0.258289
0.330068 0.301396 0.258457
0.425666 0.293675 0.250858
0.520623 0.285328 0.243412
0.619058 0.276356 0.235966
0.715587 0.266438 0.226673
0.808209 0.246052 0.210224
0.107652 0.407843 0.272892
0.197452 0.402564 0.275502
0.292683 0.407492 0.295155
0.386831 0.404761 0.309453
0.448157 0.410971 0.274556
0.55082 0.401602 0.266987
0.651347 0.392554 0.258991
0.751019 0.382803 0.249577
0.843885 0.365011 0.2309
0.154879 0.519005 0.301503
0.254246 0.515618 0.31487
0.366262 0.513527 0.344762
0.445869 0.51281 0.364202
0.497704 0.521843 0.35494
0.572244 0.528298 0.292943
0.678431 0.520287 0.280705
0.783383 0.51043 0.267781
0.873793 0.498268 0.248905
0.210346 0.618616 0.332815
0.298497 0.621485 0.354269
0.418769 0.624659 0.394598
0.50663 0.62678 0.422217
0.567163 0.63386 0.429969
0.609552 0.652796 0.360845
0.698222 0.656428 0.304189
0.803052 0.650767 0.274296
0.892439 0.639719 0.273396
0.26804 0.723339 0.377951
0.340856 0.730205 0.400198
0.467781 0.73753 0.444038
0.569146 0.742733 0.482551
0.634562 0.74995 0.495155
0.677897 0.766293 0.46183
0.725246 0.78764 0.355779
0.817823 0.785733 0.303609
0.906462 0.775113 0.292088
0.327749 0.82707 0.43267
0.403555 0.833692 0.45684
0.505043 0.843748 0.487739
0.626429 0.852018 0.540581
0.69543 0.859129 0.554498
0.741131 0.871931 0.52781
0.776593 0.887709 0.441459
0.837873 0.89453 0.358114
0.920882 0.891447 0.328435
0.00877394 0.0111391 0.278386
0.0843519 0.0151064 0.283421
0.177035 0.0221866 0.297124
0.288853 0.0302586 0.314565
0.411902 0.0366979 0.328237
0.535271 0.0411994 0.334615
0.634211 0.0436713 0.323781
0.72491 0.0468757 0.315755
0.801572 0.0505531 0.31014
0.0327916 0.0938277 0.307362
0.10724 0.102159 0.298177
0.190463 0.10454 0.316426
0.291402 0.110094 0.321187
0.407019 0.112306 0.323095
0.526833 0.110201 0.325521
0.632288 0.093019 0.317372
0.726024 0.0906233 0.308858
0.804913 0.093904 0.303258
0.0551614 0.193515 0.334737
0.125994 0.189609 0.321736
0.205356 0.193576 0.317006
0.302815 0.196765 0.335286
0.420417 0.199512 0.336629
0.533242 0.199878 0.332189
0.633265 0.188281 0.316197
0.730083 0.169543 0.302266
0.813199 0.152132 0.29041
0.0740215 0.303334 0.355612
0.148547 0.296101 0.350729
0.233814 0.29839 0.353933
0.330678 0.30634 0.354986
0.447807 0.310582 0.363653
0.555917 0.308171 0.351263
0.656825 0.29601 0.340368
0.754314 0.281544 0.328786
0.840497 0.254292 0.308812
0.0965591 0.422126 0.371664
0.176715 0.416648 0.369985
0.265614 0.421057 0.385687
0.364706 0.430747 0.386618
0.473121 0.439246 0.388785
0.578286 0.430381 0.379858
0.679377 0.42063 0.369223
0.780926 0.407492 0.358572
0.869871 0.386221 0.337499
0.129442 0.543023 0.390661
0.217624 0.539788 0.391669
0.313619 0.547585 0.414649
0.427146 0.55462 0.431189
0.533074 0.551812 0.446128
0.599161 0.559182 0.403433
0.709224 0.548623 0.3935
0.811048 0.538048 0.380713
0.89929 0.521569 0.358907
0.175341 0.664103 0.419455
0.270207 0.663966 0.428168
0.394247 0.671473 0.461891
0.510353 0.668864 0.487068
0.595331 0.667231 0.506676
0.650813 0.677134 0.494224
0.729503 0.684688 0.418326
0.836988 0.674891 0.396933
0.924315 0.663859 0.370901
0.23743 0.778683 0.459678
0.329412 0.781216 0.477653
0.460578 0.783078 0.513878
0.577798 0.780575 0.548867
0.658854 0.781582 0.569772
0.721065 0.788708 0.575723
0.764187 0.809125 0.488762
0.8542 0.813657 0.410727
0.940963 0.804654 0.370642
0.300023 0.872328 0.5037
0.373831 0.877287 0.523537
0.506081 0.881865 0.561761
0.618982 0.882124 0.595758
0.710826 0.88455 0.624491
0.781399 0.891768 0.641657
0.825742 0.907698 0.600229
0.875257 0.925063 0.471611
0.949508 0.918379 0.418311
0.0112459 0.0136416 0.394461
0.0877089 0.0178225 0.399802
0.181476 0.0249332 0.413779
0.294194 0.0334173 0.431586
0.416526 0.0396277 0.444541
0.540154 0.0433356 0.450614
0.663661 0.0468147 0.454444
0.756008 0.0506752 0.443015
0.82948 0.0548104 0.431785
0.035584 0.0973678 0.423545
0.11104 0.102907 0.418402
0.194949 0.105409 0.429938
0.297276 0.109087 0.435309
0.409689 0.112505 0.438514
0.530663 0.113985 0.440604
0.655985 0.113985 0.444404
0.757504 0.094255 0.437079
0.833448 0.0978408 0.425345
0.0563516 0.194873 0.447349
0.127596 0.190555 0.436484
0.206836 0.197101 0.420981
0.296223 0.200977 0.447761
0.417212 0.203662 0.450782
0.540566 0.206073 0.450645
0.663096 0.209552 0.450965
0.761471 0.187732 0.433341
0.841123 0.156298 0.415366
0.0755169 0.30547 0.468681
0.148547 0.29897 0.460517
0.232685 0.302556 0.456428
0.327993 0.311376 0.458595
0.443687 0.315282 0.47808
0.570611 0.318502 0.480293
0.688914 0.320348 0.476539
0.786618 0.302312 0.458213
0.869474 0.265385 0.435828
0.0946975 0.428336 0.48748
0.169909 0.4224 0.483879
0.260838 0.425544 0.49514
0.362829 0.434836 0.498924
0.474418 0.443275 0.501152
0.597864 0.449699 0.509911
0.711711 0.447074 0.496895
0.812451 0.431662 0.483711
0.89926 0.40145 0.467216
0.119509 0.556008 0.503105
0.1991 0.552743 0.501289
0.294667 0.558511 0.520333
0.39852 0.567544 0.534325
0.508247 0.579171 0.530968
0.62472 0.588037 0.535042
0.733501 0.578683 0.525689
0.833448 0.567758 0.512901
0.924041 0.543603 0.4907
0.154589 0.684794 0.524056
0.241032 0.683604 0.524697
0.340383 0.6925 0.547494
0.450187 0.701839 0.570626
0.573648 0.707652 0.581521
0.68574 0.704845 0.596704
0.751934 0.713069 0.547112
0.856733 0.702693 0.535393
0.946044 0.686412 0.50573
0.204242 0.808331 0.557687
0.297566 0.808682 0.563394
0.415396 0.81651 0.590692
0.544366 0.820584 0.622889
0.66305 0.817319 0.641627
0.748089 0.815702 0.661295
0.800702 0.826032 0.645685
0.87451 0.835538 0.557351
0.966934 0.828458 0.494209
0.264469 0.91136 0.597803
0.363058 0.914046 0.614313
0.477363 0.917449 0.637903
0.594629 0.915434 0.661448
0.704982 0.912535 0.686625
0.794125 0.914397 0.711269
0.857832 0.922988 0.718074
0.89955 0.944701 0.614572
0.978927 0.949752 0.505974
0.0132906 0.0159457 0.521141
0.0903487 0.0198215 0.526116
0.186069 0.0278019 0.541421
0.298177 0.0357061 0.557473
0.419043 0.0417182 0.569253
0.54168 0.0449226 0.57438
0.664851 0.0486305 0.57763
0.774945 0.0537118 0.581491
0.853574 0.058381 0.572946
0.0379034 0.100267 0.550027
0.113008 0.101289 0.549462
0.199771 0.10486 0.553429
0.299718 0.108705 0.558679
0.41265 0.111238 0.5626
0.533791 0.113207 0.565744
0.657359 0.115251 0.568093
0.773129 0.119249 0.572244
0.857969 0.101167 0.567269
0.0574044 0.195895 0.569802
0.128206 0.19057 0.563027
0.209277 0.200275 0.537346
0.295369 0.204089 0.562997
0.412787 0.206867 0.575677
0.537377 0.210681 0.574655
0.664363 0.213001 0.574868
0.783429 0.21796 0.579416
0.865751 0.174853 0.562051
0.0769207 0.30692 0.591089
0.149493 0.300099 0.584482
0.233677 0.306142 0.571252
0.32781 0.315847 0.571542
0.43415 0.321126 0.599557
0.567452 0.323262 0.604608
0.695735 0.327199 0.607156
0.812055 0.334829 0.611231
0.895262 0.2925 0.593881
0.0962844 0.430854 0.610513
0.169711 0.425086 0.605539
0.259342 0.429892 0.606577
0.35993 0.43917 0.6121
0.470481 0.449058 0.614466
0.595865 0.453834 0.633661
0.725338 0.459297 0.638209
0.837049 0.464057 0.636744
0.922103 0.42829 0.622919
0.116793 0.562524 0.62826
0.191302 0.559136 0.625879
0.287694 0.563226 0.641566
0.393454 0.572122 0.654002
0.506539 0.583047 0.654063
0.627497 0.591821 0.65803
0.748577 0.600702 0.666957
0.857588 0.59707 0.655497
0.944793 0.568048 0.64506
0.145785 0.697185 0.646723
0.224079 0.695445 0.645197
0.324437 0.70277 0.663264
0.433066 0.711604 0.685939
0.546105 0.720623 0.69012
0.658991 0.730709 0.683543
0.774472 0.739132 0.69015
0.873808 0.729397 0.678599
0.962707 0.708232 0.657221
0.186084 0.824613 0.672633
0.270466 0.824048 0.672114
0.372442 0.832288 0.691997
0.480659 0.83975 0.715602
0.608789 0.843809 0.728557
0.726558 0.847959 0.735637
0.8309 0.846525 0.750652
0.890379 0.855009 0.699001
0.980896 0.844251 0.659998
0.233433 0.929366 0.702693
0.32491 0.929747 0.706661
0.426123 0.935286 0.720836
0.545678 0.938598 0.73669
0.672404 0.939529 0.755505
0.789853 0.938766 0.779065
0.876783 0.940154 0.800671
0.927535 0.952651 0.784573
0.999008 0.969726 0.622324
0.0152743 0.0178531 0.646159
0.0934005 0.0222324 0.651835
0.190173 0.030457 0.664881
0.302449 0.038407 0.678172
0.420874 0.043534 0.686213
0.542794 0.0465705 0.690257
0.665934 0.0502327 0.693645
0.776181 0.0555276 0.697978
0.865354 0.0615702 0.702647
0.0399023 0.10248 0.673136
0.113832 0.10219 0.671489
0.201282 0.105287 0.675212
0.300618 0.109316 0.679911
0.413489 0.112184 0.683711
0.534768 0.114351 0.686824
0.658564 0.116411 0.689662
0.774578 0.120821 0.694453
0.86949 0.125414 0.699702
0.0584115 0.19675 0.689738
0.128511 0.191196 0.684596
0.211902 0.201968 0.663279
0.297581 0.204486 0.687236
0.414664 0.207523 0.697261
0.536858 0.211841 0.699916
0.664546 0.215396 0.700145
0.784955 0.220325 0.704189
0.884535 0.218219 0.712139
0.0784924 0.308095 0.71046
0.149859 0.300847 0.705562
0.236118 0.308415 0.693645
0.328832 0.31989 0.688258
0.430961 0.327138 0.709209
0.560876 0.328283 0.728817
0.692653 0.332311 0.729213
0.813931 0.338094 0.734707
0.913939 0.337301 0.745495
0.098146 0.432654 0.72932
0.171115 0.4271 0.726223
0.260258 0.433692 0.720882
0.35877 0.443427 0.7243
0.468803 0.454597 0.727092
0.585306 0.46038 0.752819
0.722652 0.464317 0.75845
0.842588 0.471855 0.765332
0.940597 0.476265 0.776257
0.118441 0.566079 0.74786
0.191897 0.562234 0.745892
0.285039 0.567498 0.752377
0.389914 0.57731 0.761654
0.504677 0.588113 0.76524
0.618814 0.598154 0.772122
0.748852 0.604562 0.783963
0.867796 0.611566 0.792157
0.960662 0.611475 0.798337
0.143755 0.704555 0.768368
0.217166 0.702663 0.767788
0.315419 0.708049 0.780667
0.432441 0.715846 0.794949
0.549661 0.724681 0.797604
0.660258 0.734066 0.800275
0.773678 0.743389 0.804944
0.887404 0.749706 0.81323
0.975311 0.738781 0.810971
0.178012 0.835203 0.791897
0.255283 0.834669 0.791318
0.356786 0.840772 0.804608
0.487053 0.846281 0.81854
0.602869 0.851209 0.823316
0.707774 0.857816 0.8262
0.809232 0.866163 0.829847
0.906371 0.874266 0.833234
0.990616 0.86125 0.819043
0.216571 0.941588 0.815595
0.300649 0.941283 0.815122
0.392645 0.946792 0.822919
0.502419 0.95201 0.831281
0.62031 0.955673 0.838682
0.741375 0.957732 0.846006
0.861372 0.959991 0.859876
0.949065 0.962341 0.879835
0.999008 0.976715 0.804593
0.0176699 0.0202792 0.750439
0.0964675 0.0251164 0.755734
0.193927 0.033051 0.766201
0.305821 0.0409094 0.776669
0.422309 0.0452735 0.781933
0.543511 0.0480812 0.785077
0.666346 0.0519265 0.788388
0.777066 0.0574044 0.793286
0.866819 0.0636454 0.798672
0.0419318 0.104585 0.77435
0.114839 0.103288 0.773358
0.201968 0.105837 0.776425
0.301442 0.109911 0.780636
0.414557 0.113054 0.784237
0.534936 0.115221 0.786999
0.659266 0.117754 0.790295
0.775906 0.122454 0.795819
0.871168 0.127382 0.801724
0.0597848 0.197406 0.789364
0.128893 0.191913 0.786191
0.214084 0.193622 0.788495
0.312413 0.198611 0.793683
0.425742 0.202457 0.797787
0.546899 0.205661 0.801465
0.670939 0.20911 0.805066
0.788754 0.214343 0.810605
0.886351 0.220203 0.81651
0.0802014 0.308934 0.809308
0.15108 0.301961 0.806745
0.2383 0.304128 0.810178
0.3393 0.311009 0.816739
0.454917 0.317143 0.822736
0.577447 0.322042 0.827863
0.702327 0.326833 0.833326
0.819318 0.332921 0.840223
0.916213 0.339498 0.847822
0.100221 0.434318 0.827893
0.172519 0.428824 0.826764
0.262501 0.433051 0.831632
0.36585 0.441154 0.838926
0.48275 0.449393 0.845991
0.606729 0.455802 0.852247
0.731701 0.46247 0.8589
0.847913 0.47129 0.867796
0.942916 0.478737 0.875914
0.12076 0.568551 0.846479
0.1935 0.564813 0.846052
0.285283 0.569863 0.851545
0.390967 0.580179 0.859983
0.509209 0.589395 0.867765
0.633234 0.596857 0.874662
0.757443 0.60473 0.881971
0.871229 0.612924 0.890333
0.96405 0.620829 0.898466
0.145281 0.708766 0.86804
0.217319 0.705974 0.86804
0.310674 0.711818 0.873549
0.41735 0.721981 0.882307
0.535348 0.730816 0.889784
0.658106 0.737758 0.895674
0.779187 0.744121 0.901473
0.890196 0.751644 0.909087
0.980407 0.758404 0.915694
0.175753 0.841856 0.892729
0.247822 0.840955 0.893187
0.340673 0.846494 0.898543
0.445563 0.854398 0.905821
0.562112 0.860883 0.911879
0.682353 0.865446 0.916014
0.800931 0.870436 0.920913
0.908598 0.876402 0.927169
0.996262 0.881773 0.932387
0.208865 0.950134 0.914595
0.284977 0.949584 0.914168
0.376349 0.953902 0.91873
0.480613 0.959533 0.924895
0.594232 0.9635 0.92932
0.71133 0.966857 0.933028
0.824994 0.970657 0.937072
0.927092 0.97583 0.942458
0.999008 0.980957 0.947738
