code/data/lut/41温暖蓝调1.cube
TITLE "LD - Golden Age 1"
# Copyright (c) 2019 Lens Distortions, LLC. All Rights Reserved.
# LensDistortions.com
# ref-GDA17
LUT_3D_SIZE 33
0.0219425 0.0189975 0.0235752
0.0261692 0.0213626 0.0282597
0.0391241 0.0233768 0.0309911
0.061387 0.0251164 0.0344854
0.0893263 0.0273747 0.0387274
0.126543 0.0292821 0.0426795
0.168322 0.0316167 0.0459144
0.208728 0.0337835 0.0473335
0.248707 0.0354009 0.0468757
0.287556 0.0362707 0.0437018
0.327184 0.0370794 0.0395361
0.364096 0.0395361 0.0366827
0.399268 0.0430457 0.0333867
0.433906 0.0470741 0.0309911
0.467201 0.0523384 0.0285649
0.501564 0.0571298 0.0260624
0.53576 0.0617838 0.0237125
0.569787 0.0665904 0.0218204
0.604517 0.0708324 0.0194247
0.639338 0.0748913 0.0177615
0.674525 0.0791485 0.0161898
0.709712 0.0827955 0.0157931
0.745235 0.0865949 0.0146944
0.781079 0.0898756 0.0138399
0.816526 0.0933852 0.0129854
0.852674 0.0963455 0.0123293
0.888975 0.0990311 0.0118868
0.925841 0.101564 0.0113985
0.962936 0.103258 0.0111696
1 0.104555 0.0112306
1 0.105547 0.0116732
1 0.105684 0.0118257
1 0.105272 0.0119936
0.0255436 0.0305486 0.0330205
0.0304112 0.0339818 0.0363928
0.0460212 0.038056 0.0404974
0.0730297 0.0407263 0.0435187
0.103319 0.0438849 0.0458381
0.139773 0.0465553 0.0475013
0.176577 0.0489815 0.0473182
0.211688 0.0507515 0.0462501
0.245945 0.0525826 0.0448615
0.279561 0.0553597 0.0424659
0.31516 0.0577401 0.0399023
0.351858 0.0604105 0.0375067
0.387549 0.0636301 0.0338903
0.42501 0.0668498 0.0311894
0.461234 0.0703593 0.0282902
0.497887 0.0740673 0.0254063
0.533684 0.0779583 0.0234073
0.569345 0.0815137 0.0210727
0.605219 0.0855421 0.0194095
0.639948 0.0896773 0.0175326
0.67541 0.0938582 0.0163272
0.710643 0.0975052 0.0153048
0.746334 0.10164 0.0146029
0.781888 0.10518 0.0138552
0.817884 0.108568 0.0129244
0.854109 0.111574 0.0124514
0.890761 0.11426 0.0115511
0.927153 0.116625 0.0110628
0.964691 0.118608 0.0106355
1 0.119982 0.0106203
1 0.120668 0.0108797
1 0.12018 0.0109407
1 0.119539 0.0113375
0.0258946 0.0514534 0.0467079
0.0303807 0.05626 0.0472114
0.0465705 0.0611734 0.0496529
0.0766003 0.0643931 0.0490883
0.109545 0.0657664 0.0485237
0.142992 0.0670634 0.0461738
0.176074 0.0686809 0.0440375
0.209308 0.071397 0.0434272
0.242634 0.0734112 0.0419165
0.277577 0.0758831 0.0400397
0.313909 0.0783398 0.0376135
0.351415 0.0802014 0.035462
0.38883 0.0827955 0.0326085
0.426001 0.0856641 0.0298466
0.462867 0.0890974 0.0278782
0.498817 0.0927749 0.025452
0.534661 0.0961776 0.0235447
0.570443 0.100389 0.0212863
0.605661 0.104341 0.019379
0.641184 0.108598 0.0177615
0.676509 0.112642 0.0164645
0.712077 0.11667 0.0153048
0.747997 0.120287 0.0149386
0.78352 0.123873 0.013962
0.819699 0.12694 0.0131838
0.856077 0.129702 0.0126802
0.892699 0.132525 0.0120089
0.92958 0.134737 0.0113527
0.966918 0.136309 0.0108949
1 0.137407 0.0105592
1 0.138003 0.0107881
1 0.137209 0.0106813
1 0.136217 0.0107576
0.0249027 0.078233 0.0607462
0.0303044 0.0828565 0.0590524
0.0429847 0.0868391 0.055436
0.0716259 0.0869612 0.0602579
0.110536 0.0885634 0.0531472
0.149737 0.0891737 0.0499428
0.18172 0.0912032 0.0466468
0.212894 0.0934005 0.0447852
0.245396 0.0962387 0.0423438
0.279316 0.0989548 0.0401465
0.31577 0.101198 0.0380255
0.352956 0.103441 0.0351415
0.389532 0.106325 0.032517
0.427283 0.109026 0.0306859
0.463569 0.11249 0.0280461
0.499596 0.115877 0.0258793
0.535882 0.119417 0.0239719
0.570993 0.123201 0.0222019
0.607233 0.127047 0.020676
0.642771 0.130907 0.0190433
0.678233 0.1346 0.0176089
0.714183 0.138079 0.0165866
0.749554 0.141421 0.0153048
0.786297 0.144457 0.0150912
0.822141 0.14757 0.0142977
0.858701 0.149981 0.0134432
0.895659 0.152178 0.013077
0.932784 0.154192 0.0124361
0.970443 0.155795 0.0118105
1 0.157 0.0113069
1 0.157076 0.0110628
1 0.156146 0.0107881
1 0.154696 0.0107271
0.022797 0.104952 0.0657206
0.0292973 0.107897 0.0639353
0.042237 0.11165 0.0581216
0.0675669 0.113024 0.0608072
0.0989395 0.114504 0.0681773
0.151354 0.115175 0.0581064
0.186618 0.117067 0.0526741
0.217472 0.11957 0.0489204
0.249302 0.122362 0.0459907
0.28217 0.125399 0.0429084
0.316716 0.128374 0.0401923
0.352682 0.131304 0.0375067
0.389715 0.133639 0.0352789
0.427054 0.136095 0.0330968
0.463554 0.138964 0.03093
0.500435 0.14168 0.0285801
0.53669 0.144747 0.0267338
0.572534 0.148272 0.024918
0.608728 0.1514 0.0234379
0.644053 0.154864 0.0217746
0.680446 0.158206 0.0200351
0.716167 0.161135 0.0190127
0.752514 0.164248 0.0175021
0.788846 0.166964 0.0166171
0.825711 0.16936 0.0157931
0.86183 0.171603 0.015671
0.899413 0.173541 0.0147707
0.936553 0.175296 0.0140993
0.974136 0.176608 0.0135042
1 0.177661 0.0132753
1 0.177111 0.0124514
1 0.176226 0.0118257
1 0.174914 0.0116426
0.0220951 0.132326 0.0646372
0.0296941 0.134737 0.062501
0.0426642 0.138293 0.0555276
0.0693217 0.139742 0.0624247
0.10013 0.140871 0.0751202
0.133333 0.144991 0.075639
0.185458 0.146075 0.0631113
0.222461 0.148348 0.0574655
0.254063 0.150423 0.0534066
0.286961 0.152804 0.0498512
0.320714 0.155322 0.04654
0.355673 0.158114 0.0428931
0.390661 0.16112 0.0400244
0.42652 0.164065 0.0371862
0.463935 0.166339 0.0353094
0.500862 0.168765 0.0334173
0.537316 0.171283 0.031281
0.573648 0.174014 0.029572
0.610162 0.176745 0.0283665
0.646128 0.17966 0.0265202
0.682582 0.182315 0.0248112
0.719112 0.185031 0.023743
0.755856 0.187747 0.0218509
0.792081 0.18996 0.0207065
0.82919 0.192172 0.0190585
0.866346 0.194186 0.0183413
0.90338 0.196017 0.0170138
0.941161 0.19733 0.0168917
0.978805 0.198383 0.0159304
1 0.199512 0.0154879
1 0.198611 0.0146944
1 0.197482 0.0139773
1 0.195758 0.0133669
0.023209 0.158663 0.0605631
0.0321508 0.160754 0.0605783
0.0456703 0.164141 0.0535134
0.0730602 0.165621 0.0625925
0.108248 0.16643 0.0813306
0.134005 0.171038 0.085008
0.167498 0.175692 0.0832227
0.219669 0.17702 0.0700694
0.258732 0.179248 0.0638132
0.291066 0.181292 0.0599985
0.32549 0.182986 0.0561837
0.360784 0.184619 0.0523384
0.396124 0.186908 0.0480964
0.431098 0.189685 0.0448157
0.465843 0.192813 0.0419013
0.501396 0.195941 0.039704
0.538216 0.198322 0.0373693
0.574609 0.200488 0.0359197
0.611139 0.202808 0.0344701
0.648096 0.205264 0.0326696
0.684901 0.207523 0.0307622
0.721553 0.209644 0.0294957
0.758556 0.21207 0.0275883
0.795544 0.21416 0.0264439
0.832715 0.216159 0.0248112
0.870192 0.217609 0.0229953
0.907515 0.219226 0.0215305
0.945266 0.220493 0.0200809
0.983536 0.221424 0.0187381
1 0.222187 0.0185855
1 0.221241 0.0178073
1 0.219638 0.0169375
1 0.21828 0.016144
0.0256046 0.184192 0.0544747
0.0353094 0.186404 0.0548257
0.052781 0.18822 0.0564584
0.0797284 0.190692 0.0665904
0.117998 0.191348 0.0870832
0.143694 0.195926 0.0929885
0.16791 0.201495 0.09691
0.2009 0.206775 0.0905776
0.25388 0.207706 0.0773327
0.295445 0.209934 0.0717327
0.327962 0.211963 0.0675212
0.363424 0.212879 0.0638437
0.399725 0.214221 0.0598459
0.436027 0.215869 0.0561532
0.471473 0.218296 0.0519722
0.506142 0.221134 0.0487678
0.540856 0.224231 0.0459602
0.575647 0.227146 0.0433661
0.612009 0.229648 0.0415198
0.649134 0.231724 0.0400092
0.686351 0.23357 0.0380865
0.723491 0.235538 0.0366369
0.760708 0.237324 0.0345464
0.798001 0.239033 0.0330053
0.83563 0.240635 0.0315251
0.873274 0.242161 0.0297093
0.911116 0.243351 0.0280003
0.949035 0.244358 0.025864
0.987198 0.245136 0.0241245
1 0.245716 0.0228275
1 0.244495 0.0212253
1 0.243061 0.0203708
1 0.241428 0.0195163
0.0284886 0.208957 0.051133
0.0394598 0.211658 0.0513924
0.0578775 0.213077 0.0548562
0.0867475 0.215106 0.0709697
0.12784 0.215961 0.0933547
0.154681 0.220645 0.101823
0.176455 0.226398 0.106203
0.199252 0.232349 0.109255
0.233417 0.237934 0.0975509
0.284733 0.239185 0.0847639
0.329839 0.240726 0.0795148
0.365408 0.242512 0.0753338
0.400809 0.243366 0.072221
0.438148 0.24416 0.0680705
0.475242 0.245289 0.0647288
0.511131 0.247105 0.0604715
0.546059 0.249607 0.0570993
0.580652 0.252262 0.0532692
0.615427 0.255268 0.0506905
0.650629 0.258106 0.0482338
0.687282 0.260349 0.046067
0.724422 0.261784 0.0445411
0.762264 0.263294 0.0425269
0.799924 0.264622 0.0406653
0.837507 0.265995 0.0391241
0.875502 0.267247 0.0370336
0.913756 0.268223 0.035111
0.951965 0.269184 0.0332647
0.9906 0.26978 0.0310063
1 0.270039 0.0293278
1 0.268605 0.0270085
1 0.267216 0.0251469
1 0.265751 0.0236057
0.0325475 0.23389 0.0472267
0.0455024 0.235523 0.0535897
0.0646677 0.237156 0.0575418
0.0936904 0.239963 0.0744488
0.135103 0.241138 0.0971847
0.16556 0.244923 0.111559
0.186465 0.250965 0.11574
0.20705 0.257145 0.11986
0.229816 0.263142 0.121553
0.264332 0.26949 0.104753
0.316213 0.270329 0.0917067
0.364324 0.270848 0.0870375
0.40177 0.273045 0.0826276
0.436713 0.27425 0.0798199
0.474678 0.274556 0.0760967
0.512474 0.275013 0.0727703
0.549493 0.276097 0.0687877
0.585 0.278126 0.065568
0.619944 0.280629 0.0619059
0.655146 0.283268 0.0590524
0.690196 0.286015 0.0559091
0.726085 0.28835 0.053666
0.76289 0.290043 0.051194
0.800427 0.291386 0.0487831
0.838437 0.29247 0.0469368
0.876646 0.293462 0.044892
0.915099 0.294255 0.0424506
0.953597 0.294804 0.0406348
0.992309 0.295201 0.038056
1 0.295354 0.036286
1 0.294041 0.0341192
1 0.292226 0.0318761
1 0.289937 0.0257267
0.0351568 0.258991 0.0431373
0.0505989 0.260075 0.0529488
0.0730449 0.260899 0.0626841
0.100526 0.264286 0.079469
0.141772 0.266377 0.101701
0.176074 0.269429 0.121721
0.196033 0.275608 0.12604
0.216022 0.281941 0.130632
0.236606 0.288029 0.132662
0.259281 0.294667 0.132265
0.29543 0.300649 0.11136
0.348028 0.30161 0.0975814
0.397742 0.301488 0.0940108
0.43714 0.304189 0.0896162
0.472374 0.305303 0.086656
0.510185 0.305562 0.0831006
0.548775 0.305653 0.0800183
0.586557 0.306264 0.0764324
0.623102 0.307637 0.073579
0.658595 0.30959 0.0700999
0.693919 0.311696 0.0673075
0.729549 0.31371 0.0635996
0.765118 0.315984 0.0610513
0.801358 0.317937 0.0582742
0.838514 0.319509 0.0555886
0.876677 0.320348 0.0537423
0.915496 0.320882 0.0510719
0.954299 0.321386 0.0489052
0.993088 0.321614 0.0463111
1 0.321508 0.0438544
1 0.320195 0.0415656
1 0.318639 0.0390478
1 0.313802 0.0231327
0.0392309 0.283696 0.0446174
0.0530098 0.285054 0.0508431
0.0777142 0.285756 0.0652018
0.107958 0.289219 0.0837873
0.148089 0.291615 0.10573
0.18352 0.294301 0.12842
0.20531 0.300038 0.136278
0.22446 0.306569 0.139971
0.244144 0.312917 0.143008
0.26421 0.319493 0.144167
0.28838 0.326497 0.141314
0.328496 0.331655 0.116838
0.381033 0.332662 0.103212
0.431128 0.33257 0.0998703
0.471458 0.335164 0.0959793
0.507744 0.336645 0.0928206
0.545251 0.336858 0.089662
0.584207 0.336736 0.0865797
0.622553 0.336934 0.0832685
0.659983 0.337789 0.0805371
0.696574 0.33901 0.0773938
0.732052 0.34052 0.0745556
0.767819 0.342306 0.0713359
0.8038 0.343999 0.0689555
0.840177 0.3458 0.0658885
0.87715 0.347326 0.0627298
0.915099 0.348363 0.0602731
0.953857 0.348745 0.0572976
0.992828 0.348806 0.0549477
1 0.348516 0.0523537
1 0.347173 0.0496529
1 0.345266 0.0471962
1 0.339651 0.0239567
0.0423743 0.308141 0.0501411
0.0601053 0.308568 0.0576486
0.0833448 0.310262 0.0706188
0.113405 0.314534 0.0879072
0.153155 0.317052 0.109819
0.190402 0.319478 0.135729
0.213718 0.324834 0.146349
0.232456 0.331487 0.14995
0.251469 0.337896 0.153597
0.271641 0.344411 0.155215
0.292943 0.351202 0.15462
0.320333 0.35761 0.148409
0.362829 0.362707 0.121721
0.414099 0.36376 0.108461
0.463935 0.363973 0.105714
0.505043 0.366339 0.101671
0.542489 0.36817 0.0987869
0.579217 0.368551 0.0961166
0.618723 0.3682 0.0928817
0.657755 0.367864 0.0899367
0.696208 0.368078 0.087129
0.733608 0.368719 0.084062
0.770092 0.36994 0.0814374
0.805966 0.371328 0.0786755
0.842435 0.372686 0.0763256
0.879164 0.374044 0.0731823
0.916213 0.375265 0.0708934
0.954223 0.376043 0.0679332
0.992187 0.376684 0.064683
1 0.376287 0.0623941
1 0.374853 0.0587778
1 0.373129 0.0561074
1 0.367269 0.0256504
0.0426947 0.333608 0.0502937
0.0618906 0.333608 0.0601358
0.0887922 0.335348 0.0769055
0.117617 0.339834 0.0918898
0.157305 0.342657 0.113298
0.193866 0.345541 0.13933
0.221378 0.349859 0.156603
0.240192 0.356329 0.160281
0.258854 0.363134 0.163867
0.278706 0.369512 0.166171
0.299458 0.376211 0.165927
0.322667 0.382803 0.164279
0.35375 0.388739 0.154543
0.396979 0.393545 0.126986
0.447059 0.395056 0.114076
0.496651 0.395193 0.111513
0.538186 0.397757 0.107393
0.576745 0.399771 0.104875
0.613626 0.400198 0.102113
0.652293 0.399908 0.0997177
0.692149 0.399344 0.0965438
0.731838 0.398871 0.0937057
0.770443 0.399176 0.091249
0.807553 0.399741 0.0885786
0.8439 0.40061 0.0856031
0.88069 0.401465 0.082826
0.917586 0.402594 0.0801862
0.955123 0.403204 0.0776379
0.992782 0.403754 0.0747082
1 0.404013 0.072221
1 0.403113 0.0697032
1 0.401419 0.0662242
1 0.395819 0.0310063
0.0453803 0.358129 0.0572061
0.0642557 0.358587 0.0659953
0.0893111 0.360922 0.0787366
0.121309 0.365545 0.0955673
0.160266 0.368475 0.117479
0.196674 0.371557 0.14316
0.229313 0.374975 0.167758
0.247837 0.381353 0.171481
0.266026 0.387976 0.174334
0.285893 0.394476 0.177142
0.306416 0.401038 0.17789
0.328832 0.407279 0.176226
0.353872 0.413626 0.173297
0.388006 0.419715 0.159792
0.431128 0.424399 0.132509
0.479973 0.425986 0.120333
0.528756 0.426612 0.11751
0.570871 0.429023 0.114061
0.610086 0.431495 0.111467
0.647486 0.431922 0.10837
0.68603 0.431662 0.106279
0.726162 0.430976 0.102922
0.76614 0.43035 0.100526
0.80557 0.430014 0.0979019
0.844144 0.429892 0.0950332
0.881529 0.430274 0.0922866
0.918242 0.430961 0.0893721
0.956146 0.431632 0.0869306
0.99379 0.431983 0.0842756
1 0.432059 0.082002
1 0.430991 0.0790417
1 0.429618 0.0765393
1 0.424659 0.0397192
0.0468147 0.382742 0.0647898
0.0698711 0.383169 0.0763561
0.093904 0.386542 0.0868238
0.122866 0.39118 0.0995499
0.162203 0.394507 0.121492
0.198962 0.397665 0.14725
0.232914 0.400809 0.173083
0.255085 0.406348 0.183337
0.27364 0.412757 0.185641
0.292607 0.419272 0.188159
0.313588 0.425818 0.189685
0.335241 0.432197 0.188861
0.359472 0.438422 0.186877
0.386191 0.444785 0.182849
0.422004 0.450629 0.16495
0.464958 0.455436 0.13843
0.512947 0.45713 0.127184
0.560662 0.458045 0.123934
0.602792 0.460349 0.1205
0.642618 0.463355 0.118059
0.681132 0.46389 0.115282
0.719646 0.46363 0.112688
0.759731 0.462989 0.109453
0.80029 0.461891 0.107012
0.840925 0.460945 0.104463
0.880232 0.460487 0.101808
0.918395 0.46038 0.0991226
0.956268 0.460639 0.0960861
0.993729 0.460883 0.0935378
1 0.460807 0.0906386
1 0.459892 0.0881056
1 0.458656 0.0856794
1 0.454093 0.0550698
0.0499733 0.407324 0.0786603
0.0731823 0.408499 0.0857557
0.0961013 0.4121 0.0938277
0.125917 0.416693 0.106218
0.162341 0.420417 0.125841
0.200244 0.423575 0.151568
0.235111 0.426841 0.17911
0.261692 0.43154 0.195102
0.280537 0.437934 0.197925
0.299702 0.444373 0.2
0.320272 0.450568 0.201404
0.341787 0.456977 0.201617
0.365393 0.463279 0.199954
0.390814 0.46923 0.197223
0.419364 0.475868 0.191058
0.456138 0.481682 0.170291
0.498726 0.486397 0.144457
0.54548 0.488411 0.133761
0.592203 0.489708 0.130282
0.634211 0.491981 0.127169
0.674372 0.494652 0.124666
0.714046 0.495537 0.121981
0.75285 0.495232 0.119265
0.792782 0.494392 0.116503
0.833692 0.493385 0.113573
0.874754 0.492149 0.110933
0.915511 0.491203 0.108354
0.954864 0.490578 0.105806
0.993179 0.490394 0.102571
1 0.49044 0.100359
1 0.489525 0.0975814
1 0.488029 0.094789
1 0.484215 0.07364
0.0544137 0.432151 0.0915084
0.0779431 0.43357 0.0973373
0.100099 0.437476 0.103563
0.127092 0.442298 0.112947
0.163455 0.446281 0.132265
0.199435 0.449653 0.155962
0.235813 0.453285 0.183398
0.267002 0.456947 0.205554
0.286793 0.462882 0.209827
0.306264 0.469078 0.211612
0.326711 0.475425 0.21297
0.348409 0.481758 0.213825
0.371695 0.487999 0.212985
0.396384 0.494209 0.210803
0.422766 0.50016 0.206943
0.452735 0.506584 0.198138
0.490257 0.512779 0.174838
0.53228 0.51722 0.150637
0.577539 0.519478 0.140215
0.623514 0.521035 0.136172
0.665858 0.523384 0.133928
0.706783 0.525948 0.131807
0.747066 0.527077 0.129442
0.786252 0.526726 0.127092
0.826169 0.52604 0.124224
0.867292 0.524926 0.121126
0.90869 0.523537 0.118303
0.950042 0.522255 0.115846
0.990509 0.521294 0.112978
1 0.52079 0.110063
1 0.519402 0.107225
1 0.517052 0.0994736
1 0.514946 0.0893873
0.0595865 0.457069 0.104219
0.0827039 0.458885 0.108904
0.104997 0.462913 0.115755
0.131014 0.467994 0.124666
0.163485 0.472099 0.139727
0.198703 0.475898 0.16173
0.234882 0.479545 0.187823
0.269917 0.482719 0.213672
0.292866 0.488167 0.221881
0.312551 0.494392 0.223667
0.332952 0.500404 0.224872
0.354971 0.506539 0.225681
0.377584 0.512886 0.225772
0.401404 0.518853 0.223774
0.42739 0.524895 0.221164
0.455421 0.531304 0.21648
0.487068 0.53753 0.2047
0.524117 0.543587 0.17998
0.566461 0.548119 0.157321
0.61062 0.550607 0.146746
0.655116 0.552254 0.142489
0.697917 0.554498 0.140902
0.739605 0.557275 0.139269
0.780621 0.55874 0.137606
0.820218 0.558251 0.135256
0.860197 0.557473 0.132464
0.901183 0.556359 0.129198
0.942596 0.555077 0.126574
0.98471 0.553521 0.123781
1 0.552239 0.121035
1 0.550011 0.1178
1 0.54728 0.107195
1 0.545953 0.103792
0.0647746 0.48217 0.117922
0.0873579 0.484001 0.122728
0.110369 0.488136 0.129992
0.13637 0.493309 0.138506
0.167117 0.497536 0.151415
0.197498 0.5019 0.168124
0.233051 0.505592 0.192203
0.270115 0.508888 0.219394
0.297993 0.513298 0.233249
0.318318 0.519387 0.235691
0.339208 0.525292 0.23682
0.361181 0.531518 0.237613
0.383841 0.537652 0.237964
0.407782 0.543847 0.237171
0.432959 0.549661 0.234791
0.459556 0.555764 0.231693
0.488609 0.561944 0.225589
0.521782 0.56849 0.211124
0.559167 0.574456 0.185443
0.600885 0.578546 0.164248
0.644434 0.581415 0.154147
0.688029 0.583474 0.150134
0.730846 0.585641 0.14818
0.772366 0.587991 0.146838
0.814603 0.590097 0.146242
0.85452 0.589563 0.144106
0.894636 0.588724 0.141176
0.93547 0.58764 0.138003
0.976944 0.586175 0.135531
1 0.584421 0.132219
1 0.58201 0.129732
1 0.579065 0.121447
1 0.577462 0.119371
0.0703593 0.507012 0.134569
0.0919814 0.50927 0.139284
0.115541 0.513497 0.146136
0.142031 0.518318 0.154543
0.171725 0.522759 0.165896
0.200183 0.527291 0.179889
0.230701 0.532021 0.197711
0.268894 0.535195 0.224125
0.301869 0.538796 0.243839
0.324071 0.544564 0.248203
0.345602 0.55053 0.249607
0.367483 0.556405 0.250141
0.390402 0.562432 0.250416
0.413596 0.568322 0.249821
0.438254 0.574502 0.248463
0.464866 0.580377 0.246021
0.493065 0.586374 0.24242
0.522606 0.592676 0.234684
0.556558 0.599039 0.216236
0.594553 0.60499 0.191348
0.635981 0.60914 0.171603
0.67866 0.61178 0.161746
0.721675 0.61416 0.157427
0.764096 0.616571 0.155703
0.805783 0.61886 0.154711
0.848219 0.620661 0.154711
0.88893 0.620706 0.153124
0.929229 0.619715 0.150072
0.97023 0.618616 0.146883
1 0.617166 0.144259
1 0.615396 0.141207
1 0.612222 0.136309
1 0.609781 0.135241
0.0762646 0.531823 0.152697
0.0973831 0.534463 0.157748
0.121416 0.538384 0.164492
0.147356 0.543313 0.171847
0.17644 0.547845 0.182528
0.204623 0.552605 0.194705
0.232425 0.557397 0.20882
0.266712 0.561303 0.229221
0.306203 0.564111 0.255528
0.329427 0.569543 0.260258
0.351064 0.575402 0.262226
0.373877 0.581247 0.263249
0.396643 0.587304 0.263645
0.420188 0.593347 0.263416
0.444434 0.599161 0.261784
0.469703 0.605219 0.259876
0.49723 0.610834 0.257313
0.526635 0.616892 0.252995
0.55697 0.62356 0.242786
0.591531 0.629862 0.222324
0.629602 0.635447 0.197314
0.670893 0.639841 0.178927
0.71313 0.642664 0.169909
0.755505 0.644892 0.164721
0.797696 0.647181 0.163104
0.839734 0.649577 0.163134
0.882094 0.65127 0.163363
0.923308 0.651591 0.162509
0.96405 0.650782 0.159243
1 0.649592 0.156405
1 0.648417 0.153658
1 0.645716 0.149691
1 0.643122 0.147921
0.0822156 0.556512 0.17261
0.103426 0.559258 0.177172
0.127428 0.563378 0.183566
0.153323 0.568368 0.190829
0.181827 0.572686 0.200122
0.208698 0.577371 0.211002
0.235706 0.582483 0.2224
0.266056 0.587137 0.237766
0.303807 0.590387 0.259998
0.334493 0.594797 0.272938
0.357137 0.600671 0.275273
0.379797 0.606332 0.276112
0.403037 0.612131 0.276478
0.426474 0.618112 0.276417
0.450233 0.623941 0.275135
0.475334 0.63003 0.273381
0.502449 0.635828 0.271336
0.53048 0.641611 0.268879
0.560098 0.647486 0.26276
0.591333 0.654154 0.250126
0.626673 0.660807 0.228275
0.66511 0.666285 0.204181
0.705501 0.670314 0.186709
0.747692 0.67335 0.177417
0.789807 0.675761 0.172442
0.831342 0.677775 0.170291
0.873518 0.680034 0.170336
0.916213 0.682231 0.171939
0.957824 0.682612 0.171984
0.998947 0.681819 0.168841
1 0.680842 0.166079
1 0.67863 0.163531
1 0.676326 0.161013
0.0879988 0.580972 0.193179
0.109133 0.583856 0.198047
0.13344 0.58793 0.203662
0.158755 0.592782 0.209995
0.186526 0.597528 0.21886
0.214084 0.602335 0.228702
0.240192 0.607385 0.238483
0.266667 0.612375 0.24831
0.302373 0.616587 0.26714
0.338872 0.62005 0.285084
0.362036 0.625437 0.287663
0.385336 0.631113 0.289113
0.408713 0.637003 0.289799
0.432227 0.643061 0.289815
0.456535 0.648936 0.288792
0.481163 0.654673 0.286702
0.506722 0.66067 0.285115
0.53489 0.666255 0.282887
0.564111 0.672221 0.279652
0.593912 0.678569 0.271626
0.625742 0.684901 0.256657
0.66128 0.691463 0.233845
0.699962 0.697063 0.21062
0.740261 0.701015 0.193408
0.781857 0.703883 0.183627
0.82385 0.706554 0.178897
0.86569 0.708782 0.17673
0.907347 0.710735 0.176928
0.94995 0.712505 0.178912
0.99205 0.713726 0.18114
1 0.712795 0.178332
1 0.71107 0.176196
1 0.709392 0.174807
0.0936751 0.605478 0.214664
0.115694 0.608377 0.218906
0.139956 0.612451 0.224063
0.164645 0.617594 0.230213
0.19176 0.622293 0.237613
0.218357 0.626993 0.246204
0.244846 0.632242 0.255039
0.271626 0.637583 0.264042
0.301472 0.642329 0.275639
0.338674 0.645884 0.293553
0.366766 0.650874 0.300191
0.390326 0.656397 0.30161
0.414267 0.66215 0.302159
0.438117 0.667903 0.302434
0.461769 0.673609 0.301503
0.486503 0.679683 0.30016
0.512093 0.685802 0.298314
0.539361 0.691585 0.296239
0.567727 0.697292 0.293904
0.597131 0.703182 0.288808
0.627527 0.709712 0.279255
0.660197 0.716304 0.262272
0.695705 0.722545 0.238544
0.734081 0.727962 0.215412
0.774792 0.732006 0.1991
0.816037 0.734997 0.189548
0.857466 0.737377 0.183886
0.899367 0.739574 0.182452
0.941222 0.741711 0.18323
0.983795 0.74316 0.185275
1 0.744228 0.188708
1 0.743435 0.189075
1 0.742214 0.188067
0.0999008 0.630014 0.235843
0.121767 0.632853 0.239658
0.146075 0.636942 0.244419
0.170336 0.641962 0.24979
0.196292 0.647181 0.256199
0.223514 0.652125 0.264179
0.249897 0.657099 0.271687
0.275944 0.662654 0.279545
0.303075 0.667674 0.287205
0.337835 0.671931 0.301335
0.370764 0.676097 0.312062
0.394491 0.681468 0.313649
0.41883 0.687327 0.314672
0.442847 0.693233 0.315053
0.467536 0.699001 0.31458
0.492012 0.704921 0.312947
0.517037 0.710857 0.310857
0.542885 0.716915 0.308766
0.571084 0.722698 0.306188
0.600244 0.728557 0.303609
0.630152 0.734615 0.296681
0.660807 0.74107 0.285115
0.693996 0.747845 0.266102
0.729778 0.754299 0.242115
0.768078 0.759075 0.219303
0.808652 0.763027 0.203449
0.849851 0.766232 0.19353
0.891585 0.768627 0.188449
0.933165 0.770428 0.186236
0.975052 0.772351 0.187533
1 0.774105 0.191089
1 0.775204 0.197803
1 0.774838 0.201038
0.105653 0.654353 0.256321
0.127947 0.657237 0.259953
0.152575 0.661387 0.264057
0.176562 0.666636 0.268971
0.201297 0.672084 0.274403
0.228046 0.677043 0.281132
0.254047 0.6822 0.287968
0.280293 0.687709 0.295186
0.307134 0.693111 0.301854
0.336294 0.697856 0.309483
0.374029 0.701549 0.323827
0.398779 0.707118 0.325811
0.423255 0.712749 0.326757
0.447578 0.718578 0.32694
0.471748 0.724285 0.326421
0.496437 0.730327 0.325383
0.521523 0.736446 0.323445
0.547265 0.742641 0.320775
0.57438 0.74847 0.318029
0.602655 0.754009 0.315114
0.63267 0.759945 0.31136
0.662745 0.766461 0.303197
0.69369 0.772992 0.289342
0.727001 0.779507 0.268238
0.762982 0.785885 0.243915
0.802136 0.791058 0.221866
0.842344 0.794369 0.206058
0.883192 0.79762 0.196078
0.925246 0.799939 0.191104
0.967346 0.801892 0.189334
1 0.803265 0.190875
1 0.804944 0.197009
1 0.805676 0.205615
0.11136 0.67866 0.275898
0.133852 0.681743 0.279286
0.157916 0.685802 0.28278
0.181994 0.691096 0.287572
0.205905 0.696971 0.292226
0.231998 0.702342 0.297826
0.25835 0.707591 0.304341
0.284291 0.712871 0.310063
