code/data/lut/41温暖蓝调1.cube
TITLE "LD - Golden Age 1"
# Copyright (c) 2019 Lens Distortions, LLC. All Rights Reserved.
# LensDistortions.com
# ref-GDA17
LUT_3D_SIZE 9
0.0219425 0.0189975 0.0235752
0.0893263 0.0273747 0.0387274
0.248707 0.0354009 0.0468757
0.399268 0.0430457 0.0333867
0.53576 0.0617838 0.0237125
0.674525 0.0791485 0.0161898
0.816526 0.0933852 0.0129854
0.962936 0.103258 0.0111696
1 0.105272 0.0119936
0.022797 0.104952 0.0657206
0.0989395 0.114504 0.0681773
0.249302 0.122362 0.0459907
0.389715 0.133639 0.0352789
0.53669 0.144747 0.0267338
0.680446 0.158206 0.0200351
0.825711 0.16936 0.0157931
0.974136 0.176608 0.0135042
1 0.174914 0.0116426
0.0284886 0.208957 0.051133
0.12784 0.215961 0.0933547
0.233417 0.237934 0.0975509
0.400809 0.243366 0.072221
0.546059 0.249607 0.0570993
0.687282 0.260349 0.046067
0.837507 0.265995 0.0391241
0.9906 0.26978 0.0310063
1 0.265751 0.0236057
0.0423743 0.308141 0.0501411
0.153155 0.317052 0.109819
0.251469 0.337896 0.153597
0.362829 0.362707 0.121721
0.542489 0.36817 0.0987869
0.696208 0.368078 0.087129
0.842435 0.372686 0.0763256
0.992187 0.376684 0.064683
1 0.367269 0.0256504
0.0499733 0.407324 0.0786603
0.162341 0.420417 0.125841
0.280537 0.437934 0.197925
0.365393 0.463279 0.199954
0.498726 0.486397 0.144457
0.674372 0.494652 0.124666
0.833692 0.493385 0.113573
0.993179 0.490394 0.102571
1 0.484215 0.07364
0.0703593 0.507012 0.134569
0.171725 0.522759 0.165896
0.301869 0.538796 0.243839
0.390402 0.562432 0.250416
0.493065 0.586374 0.24242
0.635981 0.60914 0.171603
0.805783 0.61886 0.154711
0.97023 0.618616 0.146883
1 0.609781 0.135241
0.0936751 0.605478 0.214664
0.19176 0.622293 0.237613
0.301472 0.642329 0.275639
0.414267 0.66215 0.302159
0.512093 0.685802 0.298314
0.627527 0.709712 0.279255
0.774792 0.732006 0.1991
0.941222 0.741711 0.18323
1 0.742214 0.188067
0.117113 0.703334 0.295048
0.210269 0.721965 0.309209
0.314168 0.743877 0.329412
0.429389 0.764508 0.348882
0.528878 0.788312 0.345846
0.635386 0.812665 0.332784
0.757809 0.838239 0.291051
0.909133 0.858991 0.203998
1 0.866178 0.192096
0.136873 0.799985 0.357977
0.226749 0.81944 0.367391
0.319936 0.846128 0.375814
0.431647 0.869383 0.384604
0.53463 0.894545 0.379858
0.63624 0.920531 0.360983
0.752132 0.945586 0.331701
0.881041 0.968826 0.262501
1 0.982651 0.185687
0.0245823 0.0227817 0.0718395
0.0959793 0.030396 0.106722
0.2533 0.0341344 0.137469
0.412909 0.032105 0.140841
0.567803 0.0332341 0.123461
0.713863 0.0365911 0.10103
0.858091 0.0413214 0.0742962
0.995987 0.0517281 0.050721
1 0.0632792 0.0432136
0.0198978 0.121035 0.128466
0.0918593 0.123766 0.131991
0.235233 0.125643 0.12784
0.377325 0.131411 0.122774
0.520165 0.141939 0.116793
0.661845 0.155566 0.110307
0.806134 0.168307 0.104173
0.956039 0.174746 0.0946975
1 0.174151 0.0846113
0.026215 0.22443 0.163043
0.11957 0.228641 0.183978
0.237125 0.241321 0.174716
0.400244 0.2439 0.142458
0.535622 0.251637 0.134737
0.678721 0.258564 0.128557
0.825284 0.264393 0.120378
0.975311 0.268132 0.110338
1 0.264561 0.100587
0.0460212 0.322225 0.163577
0.160204 0.333486 0.210605
0.250629 0.346273 0.218738
0.374166 0.363958 0.213169
0.573358 0.35935 0.165072
0.703044 0.365927 0.154879
0.842878 0.371862 0.143526
0.992782 0.373617 0.133227
1 0.362524 0.104631
0.0565652 0.422049 0.170886
0.184787 0.438743 0.225589
0.266514 0.451881 0.245716
0.382193 0.466789 0.287282
0.512535 0.486412 0.242725
0.728603 0.479896 0.18996
0.854978 0.485939 0.179431
1 0.487465 0.167926
1 0.482429 0.148013
0.0708629 0.52108 0.207034
0.198566 0.540658 0.259953
0.27921 0.553964 0.283101
0.404913 0.56878 0.324681
0.504051 0.58938 0.331838
0.647425 0.609384 0.269139
0.863508 0.606027 0.222751
0.994049 0.610666 0.21001
1 0.609506 0.22887
0.091722 0.618601 0.272129
0.212543 0.639918 0.314611
0.296239 0.654093 0.334295
0.421332 0.669749 0.366033
0.529656 0.69044 0.374441
0.630564 0.7122 0.366339
0.78294 0.732494 0.292851
0.989059 0.733822 0.258595
1 0.73846 0.274571
0.114382 0.716258 0.343359
0.223011 0.738979 0.37174
0.310323 0.754864 0.385672
0.425422 0.774197 0.402106
0.542443 0.794614 0.412222
0.648478 0.817227 0.408103
0.757259 0.840085 0.379522
0.914336 0.859342 0.296498
1 0.863798 0.302113
0.132982 0.813184 0.40209
0.232944 0.835737 0.420539
0.317327 0.858839 0.428214
0.431647 0.880507 0.437888
0.544167 0.902663 0.438117
0.648966 0.926375 0.426154
0.75964 0.949584 0.400595
0.884077 0.973602 0.334829
1 0.986084 0.245472
0.0268254 0.0276341 0.157397
0.103609 0.0327916 0.217823
0.255543 0.0355383 0.256046
0.415778 0.0318761 0.265522
0.570901 0.0305333 0.261814
0.717586 0.0323033 0.252979
0.859251 0.0384985 0.233539
1 0.044007 0.213886
1 0.0461128 0.199161
0.0121462 0.135241 0.243977
0.0785382 0.130755 0.241108
0.232395 0.126421 0.247288
0.380026 0.129778 0.234791
0.529366 0.132891 0.23241
0.676265 0.137484 0.225483
0.824323 0.142168 0.212497
0.973465 0.145968 0.198322
1 0.146029 0.185931
0.0250248 0.239689 0.2486
0.104509 0.240803 0.262547
0.234043 0.248386 0.261067
0.376928 0.250584 0.248798
0.522698 0.252934 0.243793
0.659388 0.261585 0.241123
0.798138 0.271489 0.240269
0.944259 0.278752 0.236835
1 0.281178 0.23006
0.0309606 0.339727 0.280262
0.134386 0.343618 0.310338
0.258106 0.354253 0.304417
0.37705 0.367422 0.294392
0.543832 0.367971 0.264683
0.680354 0.372625 0.25687
0.819867 0.377584 0.254063
0.965591 0.380819 0.250401
1 0.3738 0.230304
0.049836 0.438422 0.288914
0.18613 0.448035 0.328344
0.288273 0.461189 0.357076
0.377661 0.474266 0.346105
0.510399 0.489982 0.325567
0.713497 0.48394 0.283467
0.846815 0.487541 0.274861
0.990433 0.488914 0.268132
1 0.488563 0.264805
0.0720684 0.536263 0.308019
0.206485 0.551934 0.346517
0.321599 0.567605 0.391577
0.405753 0.579446 0.391485
0.510872 0.593057 0.405539
0.647074 0.611521 0.35996
0.878828 0.60058 0.306538
1 0.601053 0.295689
1 0.612451 0.330343
0.0907912 0.633555 0.350347
0.220569 0.652354 0.384741
0.353368 0.671534 0.436805
0.435416 0.683101 0.443809
0.537057 0.696452 0.454795
0.639368 0.714275 0.465064
0.785962 0.733455 0.392309
1 0.720668 0.363531
1 0.735714 0.390097
0.110628 0.73135 0.404532
0.225971 0.752667 0.431174
0.366064 0.775708 0.481407
0.450431 0.788281 0.489418
0.547265 0.80264 0.493309
0.662806 0.820798 0.502907
0.758129 0.840894 0.498878
0.919921 0.858396 0.414908
1 0.861967 0.416052
0.126925 0.827955 0.4551
0.23154 0.848814 0.472862
0.366186 0.881315 0.509773
0.465095 0.896254 0.513771
0.568566 0.913237 0.51519
0.673182 0.932464 0.510124
0.775433 0.953216 0.489067
0.890791 0.973724 0.440391
1 0.986694 0.342336
0.027863 0.0298161 0.263569
0.114229 0.0339361 0.337606
0.261524 0.0340734 0.379431
0.416205 0.0327611 0.38703
0.57084 0.0312657 0.384695
0.717494 0.0323949 0.377997
0.861967 0.0352789 0.370504
1 0.0386511 0.361776
1 0.04271 0.348272
0.0120394 0.135164 0.373663
0.0698711 0.139818 0.340581
0.211017 0.132815 0.370352
0.375143 0.132418 0.357443
0.527016 0.135546 0.348089
0.677821 0.136889 0.343755
0.826642 0.138094 0.342931
0.974502 0.141176 0.335882
1 0.142763 0.325978
0.0189517 0.260182 0.349691
0.0804913 0.255909 0.369146
0.221347 0.25388 0.367727
0.376104 0.250126 0.367178
0.524453 0.252872 0.347494
0.668605 0.255818 0.345129
0.809979 0.261524 0.343862
0.955474 0.266743 0.339315
1 0.270161 0.333944
0.0308385 0.356283 0.361822
0.114916 0.357855 0.382239
0.248371 0.365469 0.38262
0.373648 0.374655 0.380102
0.522057 0.374441 0.366461
0.657298 0.379553 0.357702
0.804288 0.380972 0.357656
0.939498 0.389303 0.35642
1 0.386053 0.347127
0.0335393 0.456992 0.3897
0.136294 0.460914 0.413886
0.274022 0.470237 0.435599
0.395621 0.480751 0.413581
0.516472 0.494484 0.40177
0.679835 0.494362 0.37847
0.821103 0.49575 0.371786
0.962936 0.497902 0.369238
1 0.495521 0.364614
0.0473793 0.556252 0.404074
0.192416 0.563821 0.431678
0.31368 0.575982 0.472129
0.423972 0.586206 0.47805
0.514229 0.599725 0.468147
0.649531 0.615045 0.43653
0.852049 0.608545 0.398718
0.988876 0.610117 0.389609
1 0.614496 0.408484
0.0800336 0.651026 0.432197
0.219501 0.665446 0.462745
0.352132 0.680873 0.509544
0.457847 0.691798 0.538537
0.544244 0.704356 0.529915
0.638575 0.719127 0.526818
0.783169 0.736278 0.475624
0.998306 0.727367 0.452461
1 0.736309 0.461585
0.102022 0.748074 0.474601
0.222568 0.766476 0.498985
0.369985 0.786633 0.545083
0.487022 0.800092 0.575647
0.574578 0.812512 0.577462
0.672618 0.826215 0.574517
0.77377 0.842832 0.584237
0.914778 0.85948 0.524758
1 0.863661 0.489799
0.117601 0.844266 0.515969
0.227008 0.862806 0.531823
0.359091 0.892348 0.560235
0.465293 0.906004 0.564797
0.570443 0.921584 0.568246
0.678157 0.93875 0.567575
0.781826 0.957198 0.554116
0.89514 0.975479 0.523003
1 0.987472 0.44097
0.0286717 0.0333867 0.382055
0.121569 0.0343633 0.464744
0.268177 0.0323491 0.505287
0.412009 0.0371099 0.507057
0.570413 0.0314183 0.508827
0.717037 0.0329747 0.502922
0.86154 0.0356146 0.495796
1 0.0385595 0.488609
1 0.0397345 0.481666
0.0122072 0.134554 0.499901
0.0711986 0.145922 0.449958
0.192203 0.139315 0.488273
0.356817 0.140002 0.483467
0.521111 0.139971 0.469673
0.671794 0.142107 0.464378
0.824903 0.140902 0.461677
0.974594 0.141085 0.459907
1 0.140002 0.456138
0.0159304 0.267277 0.504021
0.0773327 0.261494 0.475196
0.20325 0.263172 0.462806
0.352804 0.256825 0.490913
0.522164 0.252598 0.477195
0.666728 0.257343 0.463508
0.8121 0.261753 0.454887
0.958679 0.264881 0.453529
1 0.267155 0.451301
0.0260014 0.376745 0.449638
0.0834974 0.37644 0.479133
0.223224 0.378164 0.495048
0.363195 0.378271 0.49102
0.517876 0.374548 0.487404
0.662928 0.377798 0.462806
0.808911 0.379644 0.454231
0.94873 0.383886 0.455299
1 0.383642 0.454459
0.0335241 0.473854 0.473167
0.121614 0.475334 0.492439
0.265171 0.482551 0.513176
0.387167 0.490745 0.498466
0.513298 0.499855 0.496696
0.66186 0.498848 0.485969
0.790829 0.505653 0.471183
0.937163 0.506218 0.470314
1 0.499352 0.467109
0.0365911 0.57409 0.499626
0.147158 0.577478 0.517479
0.283543 0.586831 0.546548
0.415549 0.594537 0.551354
0.536965 0.605219 0.530083
0.65745 0.619028 0.517143
0.817624 0.618601 0.497917
0.958618 0.619455 0.489387
1 0.617029 0.49688
0.0536049 0.671794 0.522072
0.190265 0.678828 0.538827
0.32961 0.691691 0.577218
0.45211 0.70013 0.599252
0.563806 0.710811 0.590478
0.656046 0.724361 0.58323
0.789288 0.739467 0.549859
0.970535 0.735424 0.541543
1 0.738079 0.536797
0.0876326 0.766491 0.549432
0.212406 0.780438 0.567697
0.35996 0.798688 0.606088
0.480613 0.809644 0.633677
0.594125 0.819562 0.645869
0.692973 0.831891 0.639323
0.785306 0.846677 0.640681
0.915053 0.862226 0.603098
1 0.865919 0.564446
0.105409 0.863005 0.578103
0.225147 0.879454 0.593088
0.349477 0.906264 0.615152
0.459617 0.917525 0.618006
0.572656 0.931289 0.622492
0.682017 0.945754 0.624826
0.789807 0.962142 0.619547
0.901915 0.978027 0.601801
1 0.988617 0.545037
0.0286107 0.0362249 0.517723
0.125887 0.0342412 0.588281
0.271122 0.0332189 0.617884
0.422263 0.0323644 0.623896
0.556848 0.0444038 0.60763
0.717784 0.034287 0.614679
0.861982 0.0369726 0.608682
1 0.0394903 0.603128
1 0.0408331 0.597543
0.0132296 0.136049 0.610925
0.0776532 0.14725 0.569619
0.194522 0.141878 0.594385
0.355993 0.140154 0.597314
0.507591 0.149767 0.582681
0.668864 0.146502 0.577722
0.820874 0.146181 0.576333
0.97406 0.142794 0.575219
1 0.142779 0.571145
0.0171511 0.267277 0.620096
0.0808118 0.26479 0.580575
0.197116 0.271641 0.556405
0.31667 0.269398 0.593042
0.502815 0.261173 0.589364
0.664958 0.258854 0.580346
0.808255 0.265095 0.571984
0.957168 0.268269 0.564431
1 0.268315 0.560586
0.0202487 0.396933 0.588693
0.0687419 0.391241 0.586419
0.211826 0.386267 0.585534
0.338704 0.389242 0.578851
0.499611 0.380606 0.596872
0.663661 0.376745 0.587015
0.805005 0.381521 0.572503
0.949203 0.385687 0.559472
1 0.383536 0.562081
0.0284276 0.494347 0.562478
0.0899672 0.494804 0.581155
0.229984 0.499275 0.608667
0.362997 0.503975 0.605936
0.507378 0.503059 0.598779
0.652369 0.501701 0.595453
0.798856 0.503471 0.573236
0.943175 0.505684 0.558175
1 0.501045 0.57171
0.0373236 0.59089 0.579767
0.132631 0.592401 0.592599
0.285145 0.599512 0.620829
0.412573 0.606195 0.623636
0.529702 0.615015 0.603937
0.653391 0.625162 0.606195
0.80325 0.622538 0.598962
0.941314 0.626001 0.580224
1 0.621988 0.58851
0.0448463 0.690089 0.603784
0.154025 0.694331 0.615686
0.297169 0.703822 0.643153
0.436149 0.710201 0.662211
0.555566 0.719615 0.65568
0.679515 0.730083 0.636881
0.798062 0.743633 0.623468
0.953414 0.742901 0.614054
1 0.740963 0.613214
0.0673228 0.787396 0.622904
0.192035 0.794705 0.633326
0.32314 0.811658 0.66659
0.453803 0.820218 0.695491
0.591302 0.827527 0.702831
0.703578 0.838163 0.69546
0.798703 0.85182 0.691875
0.920058 0.866636 0.66392
1 0.868009 0.636942
0.0921035 0.883101 0.641413
0.203326 0.893294 0.650202
0.329091 0.917113 0.671244
0.441657 0.931182 0.676097
0.565362 0.941741 0.680613
0.6851 0.953872 0.685847
0.797986 0.967224 0.68751
0.90988 0.980835 0.679591
1 0.990723 0.639368
0.0298009 0.0396887 0.644114
0.128649 0.0353094 0.703243
0.274098 0.0341039 0.730373
0.424872 0.0328832 0.734905
0.566262 0.0392004 0.722774
0.707378 0.0454108 0.712901
0.86273 0.0385443 0.716899
1 0.0412299 0.711192
1 0.042359 0.706538
0.0142977 0.137514 0.722164
0.0859388 0.142138 0.691005
0.209674 0.137789 0.705715
0.366217 0.136889 0.704707
0.517754 0.142214 0.696681
0.66598 0.151507 0.684199
0.821485 0.148501 0.683268
0.971603 0.149386 0.680934
1 0.142672 0.679866
0.0186007 0.268498 0.727947
0.0853132 0.265721 0.690272
0.198734 0.279774 0.646586
0.301686 0.280476 0.680644
0.478798 0.268864 0.703197
0.645228 0.271122 0.684581
0.806271 0.268513 0.677821
0.950423 0.275151 0.670619
1 0.274205 0.666255
0.0222171 0.400732 0.721767
0.0769665 0.392813 0.695155
0.208209 0.392996 0.673961
0.324544 0.399451 0.661036
0.458366 0.394324 0.697215
0.645365 0.384726 0.692073
0.805768 0.381872 0.683345
0.946929 0.387396 0.671992
1 0.386404 0.664988
0.0231632 0.517143 0.672511
0.0637827 0.515068 0.6851
0.209232 0.512444 0.698375
0.348424 0.512749 0.694102
0.483024 0.513832 0.683101
0.641077 0.506188 0.698711
0.801266 0.502251 0.688792
0.940368 0.506996 0.671351
1 0.503471 0.668467
0.0341802 0.611368 0.665629
0.0966506 0.611811 0.68159
0.246204 0.616846 0.717021
0.378531 0.621408 0.731029
0.509728 0.6271 0.714214
0.651194 0.627329 0.705501
0.788022 0.627558 0.702159
0.939681 0.627497 0.677745
1 0.624537 0.6822
0.0464179 0.707164 0.680293
0.142306 0.708888 0.690684
0.30219 0.716121 0.723323
0.434928 0.721752 0.74551
0.557244 0.728969 0.730739
0.669291 0.73933 0.708492
0.793973 0.749294 0.713283
0.940688 0.748104 0.700694
1 0.745678 0.699931
0.0544747 0.807126 0.699474
0.1738 0.80975 0.70692
0.287236 0.824353 0.739757
0.444175 0.829725 0.76759
0.608896 0.833021 0.768658
0.702586 0.84506 0.76463
0.811704 0.857084 0.751797
0.925994 0.870939 0.733791
1 0.869993 0.719173
0.0780804 0.903624 0.713329
0.189731 0.91014 0.720333
0.308431 0.92784 0.739208
0.399405 0.94522 0.744823
0.536126 0.954513 0.748653
0.672724 0.963653 0.754818
0.802152 0.972488 0.762127
0.918105 0.983078 0.764523
1 0.992935 0.735973
0.0294804 0.0411078 0.780362
0.128954 0.0349432 0.836759
0.274495 0.0331426 0.866194
0.424353 0.0325017 0.866926
0.573281 0.0327916 0.860044
0.703655 0.0483864 0.838453
0.856184 0.0443122 0.838941
1 0.0413825 0.838941
1 0.0424659 0.83331
0.0136873 0.136812 0.856016
0.0915236 0.132357 0.837247
0.225238 0.130404 0.839658
0.372473 0.133562 0.83389
0.532143 0.132235 0.825925
0.668742 0.147356 0.815015
0.822599 0.147112 0.808804
0.972732 0.147662 0.806165
1 0.147845 0.80148
0.018204 0.267933 0.858457
0.0874189 0.261616 0.827146
0.203815 0.286381 0.749401
0.301747 0.286046 0.789242
0.461067 0.273243 0.832227
0.627939 0.274968 0.819593
0.788128 0.279683 0.797223
0.947265 0.278096 0.790036
1 0.28278 0.783886
0.0221408 0.399374 0.85771
0.0806592 0.390219 0.828214
0.206943 0.399252 0.773144
0.31809 0.408164 0.752956
0.429892 0.408301 0.787442
0.613901 0.39263 0.823697
0.785901 0.390478 0.802747
0.945342 0.388357 0.793301
1 0.388266 0.786892
0.0242771 0.531807 0.825483
0.0627604 0.523354 0.820661
0.20177 0.519966 0.797406
0.335409 0.520073 0.791424
0.461982 0.523812 0.774899
0.59826 0.5178 0.817792
0.782956 0.508354 0.809033
0.942184 0.505043 0.798444
1 0.505074 0.789075
0.0295109 0.63331 0.780621
0.0648356 0.632761 0.799146
0.213947 0.630701 0.827115
0.353704 0.632578 0.841596
0.49485 0.633875 0.821057
0.618189 0.636835 0.815183
0.779248 0.629969 0.819013
0.940734 0.624964 0.809003
1 0.625696 0.797345
0.0428168 0.726467 0.778439
0.109697 0.72639 0.79202
0.259998 0.73196 0.837583
0.420752 0.734127 0.858946
0.547112 0.739315 0.846677
0.657526 0.748501 0.837858
0.782635 0.752056 0.828794
0.933898 0.748714 0.821851
1 0.746578 0.8112
0.0526131 0.823926 0.786969
0.165911 0.823941 0.795834
0.301823 0.835203 0.834882
0.520943 0.832761 0.842344
0.636637 0.838392 0.839139
0.724102 0.849897 0.838483
0.813916 0.86302 0.83418
0.925444 0.874617 0.830884
1 0.872145 0.822858
0.0670634 0.922347 0.79971
0.172641 0.924987 0.803937
0.289219 0.938964 0.822904
0.378943 0.953719 0.832578
0.495964 0.967285 0.83946
0.639658 0.974716 0.843229
0.788418 0.979644 0.848524
0.92517 0.984451 0.858183
1 0.994278 0.84596
0.0262303 0.0386511 0.928817
0.127275 0.0325475 0.94757
0.273518 0.0304265 0.951049
0.422477 0.0300145 0.949813
0.571481 0.0304112 0.947951
0.710826 0.0378119 0.947921
0.840665 0.0547799 0.947158
1 0.0408789 0.947402
1 0.0408942 0.946761
0.011429 0.134478 0.95021
0.0915999 0.124041 0.951782
0.235111 0.123644 0.950301
0.378119 0.127443 0.948775
0.534539 0.126711 0.946502
0.680461 0.132509 0.945342
0.817716 0.148333 0.943755
0.973602 0.141207 0.944137
1 0.142138 0.943481
0.0161135 0.265568 0.956069
0.0857099 0.255283 0.956802
0.209216 0.28687 0.893355
0.307057 0.283619 0.937209
0.456306 0.272374 0.954726
0.623682 0.272068 0.952926
0.771054 0.281559 0.95201
0.935363 0.282399 0.940459
1 0.280598 0.934127
0.0202029 0.396994 0.958862
0.0785687 0.38526 0.960082
0.208118 0.401679 0.905684
0.313542 0.413046 0.876905
0.421561 0.411719 0.920378
0.590143 0.398032 0.954757
0.761715 0.395468 0.953536
0.929427 0.392233 0.942824
1 0.385763 0.937636
0.0223392 0.529778 0.958282
0.0662242 0.518959 0.959945
0.200885 0.521309 0.931777
0.310674 0.52314 0.935256
0.434104 0.52192 0.952193
0.586465 0.518242 0.955352
0.757214 0.513527 0.954665
0.921355 0.510033 0.945861
1 0.503914 0.937835
0.0287175 0.649653 0.952605
0.0547189 0.64419 0.962585
0.195682 0.639887 0.960739
0.30454 0.642267 0.963836
0.449668 0.638972 0.96289
0.600855 0.636683 0.960983
0.756359 0.63357 0.959594
0.917037 0.62974 0.954528
1 0.623194 0.945876
0.0358892 0.745754 0.91342
0.0753338 0.745174 0.931807
0.255222 0.743969 0.960479
0.363516 0.748608 0.968902
0.489952 0.752117 0.968719
0.62649 0.754467 0.968261
0.763851 0.753674 0.967071
0.92166 0.748943 0.96582
1 0.743328 0.957687
0.0483253 0.840574 0.902922
0.133928 0.839551 0.911147
0.306706 0.846204 0.937697
0.422858 0.851545 0.947005
0.534981 0.858152 0.959167
0.651606 0.865675 0.967208
0.780102 0.87219 0.968277
0.916274 0.874235 0.967239
1 0.87013 0.963439
0.0607004 0.93785 0.903258
0.181506 0.938048 0.906844
0.291585 0.947967 0.918685
0.373602 0.960372 0.930892
0.466072 0.975113 0.946578
0.615351 0.98143 0.950103
0.77113 0.984878 0.95198
0.917906 0.988205 0.95317
1 0.994781 0.959701
