code/data/lut/41温暖蓝调1.cube
TITLE "LD - Golden Age 1"
# Copyright (c) 2019 Lens Distortions, LLC. All Rights Reserved.
# LensDistortions.com
# ref-GDA17
LUT_3D_SIZE 5
0.0219425 0.0189975 0.0235752
0.248707 0.0354009 0.0468757
0.53576 0.0617838 0.0237125
0.816526 0.0933852 0.0129854
1 0.105272 0.0119936
0.0284886 0.208957 0.051133
0.233417 0.237934 0.0975509
0.546059 0.249607 0.0570993
0.837507 0.265995 0.0391241
1 0.265751 0.0236057
0.0499733 0.407324 0.0786603
0.280537 0.437934 0.197925
0.498726 0.486397 0.144457
0.833692 0.493385 0.113573
1 0.484215 0.07364
0.0936751 0.605478 0.214664
0.301472 0.642329 0.275639
0.512093 0.685802 0.298314
0.774792 0.732006 0.1991
1 0.742214 0.188067
0.136873 0.799985 0.357977
0.319936 0.846128 0.375814
0.53463 0.894545 0.379858
0.752132 0.945586 0.331701
1 0.982651 0.185687
0.0268254 0.0276341 0.157397
0.255543 0.0355383 0.256046
0.570901 0.0305333 0.261814
0.859251 0.0384985 0.233539
1 0.0461128 0.199161
0.0250248 0.239689 0.2486
0.234043 0.248386 0.261067
0.522698 0.252934 0.243793
0.798138 0.271489 0.240269
1 0.281178 0.23006
0.049836 0.438422 0.288914
0.288273 0.461189 0.357076
0.510399 0.489982 0.325567
0.846815 0.487541 0.274861
1 0.488563 0.264805
0.0907912 0.633555 0.350347
0.353368 0.671534 0.436805
0.537057 0.696452 0.454795
0.785962 0.733455 0.392309
1 0.735714 0.390097
0.126925 0.827955 0.4551
0.366186 0.881315 0.509773
0.568566 0.913237 0.51519
0.775433 0.953216 0.489067
1 0.986694 0.342336
0.0286717 0.0333867 0.382055
0.268177 0.0323491 0.505287
0.570413 0.0314183 0.508827
0.86154 0.0356146 0.495796
1 0.0397345 0.481666
0.0159304 0.267277 0.504021
0.20325 0.263172 0.462806
0.522164 0.252598 0.477195
0.8121 0.261753 0.454887
1 0.267155 0.451301
0.0335241 0.473854 0.473167
0.265171 0.482551 0.513176
0.513298 0.499855 0.496696
0.790829 0.505653 0.471183
1 0.499352 0.467109
0.0536049 0.671794 0.522072
0.32961 0.691691 0.577218
0.563806 0.710811 0.590478
0.789288 0.739467 0.549859
1 0.738079 0.536797
0.105409 0.863005 0.578103
0.349477 0.906264 0.615152
0.572656 0.931289 0.622492
0.789807 0.962142 0.619547
1 0.988617 0.545037
0.0298009 0.0396887 0.644114
0.274098 0.0341039 0.730373
0.566262 0.0392004 0.722774
0.86273 0.0385443 0.716899
1 0.042359 0.706538
0.0186007 0.268498 0.727947
0.198734 0.279774 0.646586
0.478798 0.268864 0.703197
0.806271 0.268513 0.677821
1 0.274205 0.666255
0.0231632 0.517143 0.672511
0.209232 0.512444 0.698375
0.483024 0.513832 0.683101
0.801266 0.502251 0.688792
1 0.503471 0.668467
0.0464179 0.707164 0.680293
0.30219 0.716121 0.723323
0.557244 0.728969 0.730739
0.793973 0.749294 0.713283
1 0.745678 0.699931
0.0780804 0.903624 0.713329
0.308431 0.92784 0.739208
0.536126 0.954513 0.748653
0.802152 0.972488 0.762127
1 0.992935 0.735973
0.0262303 0.0386511 0.928817
0.273518 0.0304265 0.951049
0.571481 0.0304112 0.947951
0.840665 0.0547799 0.947158
1 0.0408942 0.946761
0.0161135 0.265568 0.956069
0.209216 0.28687 0.893355
0.456306 0.272374 0.954726
0.771054 0.281559 0.95201
1 0.280598 0.934127
0.0223392 0.529778 0.958282
0.200885 0.521309 0.931777
0.434104 0.52192 0.952193
0.757214 0.513527 0.954665
1 0.503914 0.937835
0.0358892 0.745754 0.91342
0.255222 0.743969 0.960479
0.489952 0.752117 0.968719
0.763851 0.753674 0.967071
1 0.743328 0.957687
0.0607004 0.93785 0.903258
0.291585 0.947967 0.918685
0.466072 0.975113 0.946578
0.77113 0.984878 0.95198
1 0.994781 0.959701
