code/data/lut/42温暖蓝调2.cube
TITLE "LD - Golden Age 2"
# Copyright (c) 2019 Lens Distortions, LLC. All Rights Reserved.
# LensDistortions.com
# ref-GDA17
LUT_3D_SIZE 5
0.0211185 0.0229648 0.0269932
0.213718 0.0320897 0.0414588
0.511055 0.0590677 0.0288396
0.781857 0.0859388 0.0124971
1 0.098085 7.62951e-05
0.0271763 0.19443 0.0508278
0.213291 0.223102 0.0913863
0.518257 0.232914 0.0554208
0.800992 0.248096 0.0418708
1 0.251087 0.0275883
0.0464179 0.386145 0.0732738
0.258167 0.416388 0.184512
0.472343 0.463935 0.134447
0.799435 0.471443 0.106859
1 0.466728 0.0724651
0.0826734 0.581552 0.201526
0.279591 0.617075 0.259556
0.487007 0.659449 0.281605
0.743923 0.703273 0.18706
1 0.715114 0.178729
0.126558 0.770596 0.342
0.301305 0.814542 0.359976
0.512337 0.858991 0.36376
0.72491 0.904784 0.316289
0.981781 0.938369 0.176883
0.0243076 0.029633 0.139086
0.22211 0.0330358 0.22742
0.534463 0.0301671 0.236118
0.815763 0.0376135 0.210895
1 0.0463264 0.183581
0.0231785 0.222278 0.230137
0.213794 0.232868 0.244343
0.495094 0.236042 0.226719
0.763989 0.253819 0.223499
1 0.267124 0.217945
0.0462348 0.4159 0.270283
0.266117 0.439445 0.33727
0.484428 0.467796 0.306889
0.812146 0.466011 0.258366
1 0.470985 0.252827
0.0803235 0.609522 0.332296
0.330694 0.645975 0.416556
0.511696 0.669673 0.433967
0.754818 0.704646 0.372213
1 0.708751 0.372015
0.117464 0.797833 0.437644
0.346777 0.847532 0.491554
0.545922 0.875944 0.496178
0.746578 0.911116 0.469062
0.984222 0.941649 0.325963
0.0234684 0.0322118 0.349111
0.233814 0.0302739 0.46894
0.533837 0.0308995 0.476265
0.816205 0.0344701 0.463523
1 0.0399939 0.453468
0.00288396 0.246418 0.47628
0.184451 0.246616 0.440284
0.494484 0.235599 0.453468
0.777676 0.244709 0.432059
1 0.253971 0.43238
0.0311437 0.447608 0.446555
0.243732 0.460288 0.490028
0.487175 0.477363 0.473945
0.758862 0.483467 0.449104
1 0.480949 0.449027
0.0513924 0.643854 0.497704
0.307774 0.665492 0.553933
0.537881 0.683421 0.566201
0.757626 0.710185 0.526314
1 0.710567 0.515465
0.0975204 0.831815 0.559396
0.330907 0.871046 0.594583
0.549508 0.892317 0.600061
0.759716 0.918791 0.595468
0.983261 0.942336 0.522957
0.0217288 0.0348363 0.598245
0.240894 0.0327306 0.686702
0.531472 0.0388037 0.683619
0.817105 0.0372015 0.67599
1 0.0424964 0.670314
0.00433356 0.247257 0.690974
0.180194 0.262608 0.61825
0.452186 0.251804 0.671778
0.77232 0.251408 0.647776
1 0.260868 0.640879
0.00929274 0.488304 0.63798
0.190707 0.489464 0.668009
0.457267 0.491447 0.654032
0.769284 0.480552 0.660075
1 0.484993 0.64416
0.0445411 0.676326 0.649027
0.281758 0.689372 0.694041
0.531838 0.701213 0.700389
0.762264 0.719692 0.683207
1 0.717662 0.672053
0.0751354 0.869734 0.688991
0.291646 0.891554 0.712779
0.514153 0.914321 0.720119
0.771176 0.927825 0.730007
0.983124 0.94548 0.704814
0.0173037 0.0334936 0.873014
0.241581 0.0299687 0.952255
0.53402 0.0297398 0.942977
0.803372 0.0531319 0.919081
1 0.0415656 0.924956
0.00122072 0.245029 0.946685
0.190814 0.269917 0.849775
0.43093 0.256138 0.925139
0.739651 0.264958 0.909102
1 0.268147 0.891432
0 0.500664 0.93814
0.183703 0.49926 0.885908
0.410208 0.500603 0.905394
0.727596 0.492287 0.908766
1 0.486168 0.895567
0.0248722 0.713191 0.86659
0.237522 0.716915 0.915084
0.466423 0.724193 0.935714
0.733852 0.7243 0.924727
1 0.715557 0.911742
0.0615091 0.901137 0.865827
0.276173 0.910643 0.880171
0.446097 0.934325 0.904921
0.741665 0.939208 0.906004
0.977646 0.946654 0.91162
