code/data/lut/42温暖蓝调2.cube
TITLE "LD - Golden Age 2"
# Copyright (c) 2019 Lens Distortions, LLC. All Rights Reserved.
# LensDistortions.com
# ref-GDA17
LUT_3D_SIZE 33
0.0211185 0.0229648 0.0269932
0.0251621 0.0254215 0.0313878
0.034165 0.0274968 0.0340887
0.0497139 0.0289921 0.0370336
0.0732433 0.0298161 0.0392767
0.104601 0.0299229 0.0407111
0.140703 0.0305028 0.0418708
0.176715 0.0312963 0.0420996
0.213718 0.0320897 0.0414588
0.25185 0.0329747 0.0394141
0.291341 0.0340581 0.0367437
0.32958 0.0368505 0.0352178
0.366674 0.0407568 0.0337072
0.403677 0.045182 0.0329595
0.439414 0.050309 0.0317998
0.475776 0.0550851 0.0304723
0.511055 0.0590677 0.0288396
0.545296 0.0630655 0.027039
0.579629 0.0666819 0.0244755
0.613428 0.0701305 0.0219577
0.646952 0.0737621 0.019501
0.680735 0.076997 0.0184634
0.714488 0.0802014 0.0162814
0.748363 0.0830091 0.0144656
0.781857 0.0859388 0.0124971
0.815488 0.0887312 0.0104829
0.849424 0.0911269 0.00875868
0.883604 0.093431 0.00680552
0.917708 0.0951247 0.00500496
0.95169 0.0964981 0.00329595
0.983917 0.0977798 0.00234989
1 0.0982528 0.00125124
1 0.098085 7.62951e-05
0.024918 0.0334478 0.0358892
0.0294499 0.0365454 0.0390021
0.0407721 0.0401007 0.0425269
0.060441 0.0419623 0.0447395
0.0864271 0.0428321 0.0450294
0.117693 0.0434119 0.0449226
0.151522 0.0447242 0.044419
0.185718 0.0465248 0.0442054
0.219715 0.0486305 0.043946
0.253834 0.0516518 0.043061
0.28986 0.0543832 0.0418402
0.327626 0.0572366 0.0406958
0.364614 0.0606394 0.0385138
0.402823 0.0639048 0.0366979
0.439323 0.0671855 0.0341192
0.475196 0.0704814 0.0312657
0.510094 0.0738079 0.0289006
0.544442 0.0767987 0.026276
0.578943 0.0801556 0.0240177
0.61265 0.0837262 0.0213321
0.646494 0.0871901 0.01944
0.680186 0.0901045 0.0177615
0.713863 0.093431 0.0162051
0.747799 0.0965896 0.0145266
0.781506 0.0995193 0.0126802
0.815549 0.102098 0.0112001
0.849653 0.104463 0.00906386
0.883497 0.106615 0.00730907
0.917754 0.108614 0.00549325
0.952331 0.110048 0.00389105
0.983948 0.110887 0.0021973
1 0.111009 0.000518807
1 0.110918 0
0.0253452 0.049485 0.0468605
0.0294194 0.0531777 0.0476692
0.0413214 0.0571298 0.0494698
0.0642863 0.0595407 0.0492103
0.0947433 0.060029 0.048188
0.126009 0.0609445 0.0461891
0.157443 0.0627146 0.0449378
0.190021 0.0658885 0.0450752
0.222873 0.0684215 0.0444495
0.257435 0.0713207 0.0436561
0.293187 0.0741283 0.0419623
0.330404 0.0763714 0.0402686
0.367559 0.0791485 0.0381323
0.403723 0.0817426 0.0353399
0.43949 0.0846265 0.0330968
0.474449 0.0876478 0.0305333
0.509377 0.0905623 0.0283207
0.543679 0.0937667 0.0256657
0.577554 0.0968185 0.0232547
0.611597 0.100267 0.0212253
0.645853 0.103624 0.0192264
0.679805 0.106889 0.0174411
0.713954 0.109743 0.0165866
0.747646 0.112749 0.0148928
0.781704 0.115587 0.0133822
0.816281 0.118059 0.0120851
0.850355 0.120562 0.0104219
0.884596 0.12282 0.00872816
0.91899 0.124514 0.00703441
0.953811 0.125811 0.00514229
0.984924 0.12668 0.00386053
1 0.12636 0.00180056
1 0.125841 0
0.0229496 0.0694438 0.0550698
0.027451 0.073579 0.0539864
0.0374762 0.0784924 0.0523537
0.0600595 0.0807965 0.0569314
0.0968795 0.0821241 0.051545
0.133532 0.0825666 0.0492409
0.163821 0.0849928 0.0471504
0.19411 0.0876478 0.0463111
0.225849 0.0910811 0.0449683
0.25922 0.0940719 0.043595
0.294667 0.0964675 0.0420539
0.330739 0.098436 0.0394751
0.366262 0.10071 0.0367742
0.402838 0.1028 0.0349889
0.43798 0.105486 0.0322728
0.473091 0.108248 0.0298314
0.508324 0.11078 0.0278782
0.54226 0.113466 0.0256352
0.577188 0.116426 0.0238499
0.611368 0.119493 0.0220493
0.645716 0.122744 0.0202182
0.680247 0.125643 0.0187076
0.714214 0.12842 0.0169223
0.749004 0.131106 0.0162509
0.783352 0.133898 0.0149844
0.81796 0.136309 0.0135958
0.852461 0.138521 0.0124666
0.887053 0.140597 0.0109865
0.921904 0.142367 0.0093843
0.956268 0.143832 0.0077821
0.986893 0.144259 0.00619516
1 0.143801 0.00428778
1 0.142977 0.00227359
0.019852 0.0927443 0.0572366
0.0260319 0.0968338 0.0569619
0.0365454 0.102022 0.0538949
0.0564126 0.10573 0.0571298
0.0861982 0.107622 0.0632029
0.135332 0.107637 0.0547341
0.168765 0.109789 0.0513924
0.198657 0.112703 0.049134
0.229297 0.115496 0.0472725
0.260563 0.118227 0.0448615
0.293812 0.120653 0.0426337
0.32845 0.122988 0.0402533
0.364385 0.124865 0.0381628
0.400854 0.12668 0.0361486
0.436408 0.128771 0.0339666
0.472084 0.13077 0.0315557
0.507469 0.133089 0.0296025
0.542428 0.135698 0.0277562
0.577569 0.138262 0.0262303
0.612253 0.141192 0.0244755
0.647242 0.14406 0.0226749
0.681895 0.146502 0.0213931
0.716915 0.149203 0.0198215
0.751583 0.151766 0.0183566
0.78677 0.154116 0.0171054
0.821042 0.156481 0.0167544
0.856336 0.158495 0.0153048
0.890974 0.160449 0.013962
0.925689 0.162097 0.0125887
0.959777 0.163485 0.0114748
0.99025 0.163439 0.00962844
1 0.163043 0.00781262
1 0.162295 0.00636301
0.0191958 0.11809 0.0565499
0.0263523 0.122087 0.0560006
0.0370947 0.127291 0.0525216
0.0582742 0.13109 0.0586404
0.0876173 0.132265 0.0697185
0.118761 0.135866 0.0702068
0.168002 0.137087 0.0589609
0.202899 0.139223 0.0548257
0.232914 0.141009 0.0521553
0.264408 0.143023 0.049546
0.297215 0.145068 0.0471809
0.330816 0.147265 0.0440986
0.364614 0.149508 0.0415961
0.399588 0.15172 0.0391699
0.435996 0.15349 0.0374304
0.47216 0.155322 0.035584
0.508064 0.157397 0.033814
0.543648 0.159716 0.0321202
0.579217 0.16202 0.030869
0.614328 0.164492 0.0291295
0.649622 0.166812 0.0274968
0.68513 0.169192 0.0263066
0.720424 0.171664 0.024506
0.755306 0.174029 0.0232242
0.79057 0.176196 0.0213779
0.825864 0.178225 0.0203098
0.860716 0.180179 0.0185702
0.89575 0.181765 0.0181582
0.930678 0.183139 0.0166018
0.964553 0.184649 0.0154726
0.994415 0.184405 0.0140078
1 0.183642 0.0123293
1 0.182559 0.0106661
0.0209354 0.144121 0.0546578
0.0290379 0.147784 0.0557259
0.0400854 0.152728 0.0520027
0.0626078 0.156481 0.0598917
0.0962844 0.156847 0.0765545
0.119982 0.16051 0.0797589
0.150881 0.164599 0.0776074
0.20032 0.165957 0.0652018
0.23772 0.168063 0.0599374
0.268406 0.169589 0.0570077
0.301503 0.170871 0.0542
0.335637 0.172045 0.0512398
0.370306 0.173983 0.0480507
0.404395 0.176242 0.0454566
0.438514 0.178759 0.0431373
0.473304 0.181353 0.0412909
0.5093 0.183276 0.039292
0.545113 0.18497 0.0380102
0.580774 0.186923 0.0365911
0.616678 0.189075 0.0350042
0.652598 0.191043 0.0333867
0.688411 0.193103 0.0322118
0.72398 0.195331 0.0305333
0.759228 0.197421 0.0292668
0.794736 0.199359 0.0277104
0.830106 0.20087 0.0259556
0.865202 0.202609 0.024506
0.900511 0.204166 0.0225528
0.935729 0.205539 0.0208286
0.969223 0.206607 0.020325
0.998718 0.206271 0.0189822
1 0.205386 0.0175631
1 0.204486 0.0159304
0.0239872 0.16997 0.0519722
0.0328679 0.173831 0.0534218
0.0466621 0.177523 0.0557259
0.0697642 0.180926 0.0636606
0.105531 0.180255 0.0821546
0.128985 0.183917 0.0872053
0.151431 0.188785 0.0907912
0.182834 0.193896 0.0849622
0.233036 0.194766 0.072221
0.27303 0.196704 0.0668956
0.304402 0.19855 0.0631113
0.338704 0.199145 0.0602884
0.374228 0.200061 0.057023
0.409766 0.201205 0.0543832
0.444404 0.203143 0.0511635
0.478309 0.205524 0.0486458
0.512581 0.20824 0.0466468
0.546944 0.210788 0.0446174
0.58233 0.213001 0.043061
0.61857 0.214786 0.0418402
0.65481 0.216342 0.0403143
0.690959 0.218097 0.0389868
0.726665 0.219806 0.0371862
0.762295 0.221515 0.0358129
0.798245 0.223117 0.0345464
0.833768 0.224765 0.0330205
0.869398 0.226261 0.0314488
0.904982 0.227634 0.0296178
0.940276 0.228809 0.0278325
0.973602 0.229633 0.0260929
1 0.228946 0.0241245
1 0.22829 0.0230106
1 0.227237 0.0216068
0.0271763 0.19443 0.0508278
0.0367742 0.198367 0.0519722
0.051194 0.201465 0.0553902
0.0766003 0.203967 0.0675517
0.114931 0.203403 0.0881208
0.139483 0.20708 0.0955062
0.159594 0.212207 0.0996719
0.181064 0.217746 0.102113
0.213291 0.223102 0.0913863
0.26276 0.224475 0.0793011
0.30634 0.225788 0.0742046
0.341085 0.227298 0.070222
0.375494 0.228 0.0671244
0.412192 0.228458 0.0635386
0.448569 0.229297 0.0609751
0.484047 0.230793 0.0578622
0.518257 0.232914 0.0554208
0.552087 0.235187 0.0525216
0.586023 0.237751 0.0506142
0.620615 0.240299 0.0488289
0.656199 0.242313 0.0471504
0.692485 0.243778 0.046067
0.728954 0.245182 0.0445106
0.765072 0.246662 0.0431678
0.800992 0.248096 0.0418708
0.836866 0.2495 0.0402686
0.872724 0.250751 0.0385901
0.908248 0.252049 0.0371405
0.94403 0.25304 0.0351415
0.976867 0.253697 0.0335546
1 0.252766 0.0314946
1 0.251896 0.0295262
1 0.251087 0.0275883
0.0310063 0.218311 0.0484627
0.0420691 0.221469 0.0542916
0.0568246 0.224552 0.0579232
0.0830854 0.227329 0.0709087
0.121447 0.226703 0.0916609
0.149355 0.229541 0.104082
0.168704 0.235126 0.107988
0.188205 0.241062 0.111681
0.209918 0.246937 0.113436
0.243015 0.253101 0.0982376
0.293126 0.253956 0.0857862
0.340154 0.254353 0.0814221
0.376867 0.256474 0.0772106
0.411231 0.257465 0.0741588
0.448371 0.257633 0.0706951
0.48571 0.257862 0.0675517
0.522133 0.25864 0.0644083
0.557137 0.260334 0.0619211
0.591318 0.262547 0.0592813
0.625483 0.265003 0.0572213
0.65977 0.267445 0.055024
0.694606 0.269612 0.0535286
0.730053 0.27126 0.0517281
0.766003 0.272618 0.0499886
0.802243 0.273838 0.0486
0.838254 0.275044 0.0471351
0.874357 0.276112 0.0453346
0.91014 0.277073 0.0439002
0.946059 0.277928 0.0419928
0.978882 0.27866 0.0405585
1 0.277806 0.0388952
1 0.276646 0.0368811
1 0.274693 0.0301671
0.0336004 0.242145 0.0457618
0.0463111 0.244816 0.0542763
0.0639811 0.247456 0.0621958
0.0897231 0.250141 0.0753338
0.127459 0.250385 0.0955825
0.159167 0.252888 0.113558
0.177752 0.258762 0.117388
0.19675 0.26479 0.121782
0.216251 0.270588 0.123842
0.237781 0.277012 0.123369
0.272953 0.283101 0.104494
0.324224 0.284016 0.0915389
0.372778 0.283726 0.0879988
0.411414 0.285985 0.0836957
0.446448 0.287098 0.080705
0.48365 0.287221 0.0773785
0.521675 0.287205 0.0741741
0.558892 0.287648 0.0708629
0.594644 0.288945 0.0682078
0.629496 0.290669 0.0655375
0.664073 0.292668 0.0635996
0.698695 0.294789 0.0610666
0.732876 0.297063 0.059266
0.767544 0.299046 0.057435
0.803067 0.300664 0.0556649
0.83917 0.301732 0.0545205
0.875608 0.302556 0.0527199
0.911681 0.303487 0.0512245
0.947631 0.304128 0.0495308
0.980102 0.304463 0.0477455
1 0.303655 0.0458839
1 0.302693 0.0440223
1 0.297856 0.0256199
0.037171 0.26569 0.0473335
0.0483711 0.26862 0.0530556
0.06804 0.271077 0.0641642
0.0964981 0.273472 0.0793774
0.133257 0.27454 0.0992905
0.165805 0.276585 0.119661
0.18645 0.282063 0.126665
0.204807 0.28835 0.130434
0.223621 0.294682 0.133379
0.242802 0.301076 0.134264
0.26598 0.307836 0.131777
0.305074 0.312795 0.109377
0.356222 0.313649 0.0966201
0.405692 0.313603 0.0935378
0.445228 0.316045 0.0897841
0.481193 0.317372 0.0864881
0.51812 0.317479 0.0835889
0.556512 0.317296 0.0803998
0.594308 0.317403 0.0773175
0.631296 0.318212 0.0746166
0.66685 0.319631 0.0719615
0.701427 0.321141 0.0693828
0.735912 0.322957 0.0669566
0.77055 0.324697 0.0653391
0.805173 0.326635 0.0632792
0.840146 0.328328 0.0613565
0.8757 0.329717 0.0597543
0.911772 0.330465 0.057847
0.947921 0.330983 0.0564431
0.980301 0.331121 0.0548104
1 0.330388 0.0529793
1 0.329213 0.0514534
1 0.3234 0.0269474
0.0399481 0.289265 0.0518654
0.0539559 0.291615 0.0584878
0.0730755 0.294423 0.0683452
0.101656 0.297536 0.0831159
0.137926 0.298711 0.1028
0.172427 0.300923 0.126452
0.194553 0.306111 0.13608
0.212482 0.31252 0.13962
0.230549 0.318807 0.142657
0.249714 0.32517 0.144228
0.270359 0.331716 0.143633
0.296727 0.337942 0.138064
0.338354 0.342901 0.113725
0.388785 0.343877 0.101457
0.437797 0.343969 0.0988022
0.478523 0.34641 0.0952926
0.515648 0.348089 0.0923323
0.551995 0.348363 0.0898604
0.590707 0.348043 0.0865949
0.629084 0.347692 0.0839399
0.666667 0.347982 0.0811017
0.703136 0.348669 0.0783703
0.738384 0.350042 0.0758068
0.772869 0.351583 0.0734569
0.807416 0.353262 0.0714122
0.842435 0.354818 0.0691081
0.877424 0.356283 0.0678874
0.912749 0.357565 0.0658885
0.948028 0.358709 0.0638895
0.980652 0.358831 0.0626688
1 0.357946 0.0602121
1 0.356771 0.0585184
1 0.350576 0.0298466
0.040116 0.313436 0.0518807
0.055375 0.315755 0.060441
0.0782635 0.318486 0.073167
0.105257 0.321675 0.086656
0.141787 0.323476 0.10605
0.175586 0.325917 0.12961
0.201526 0.330068 0.145312
0.219455 0.336446 0.148852
0.237476 0.343099 0.1523
0.256596 0.349508 0.154665
0.276661 0.356023 0.154437
0.299138 0.362448 0.152712
0.329397 0.36817 0.143542
0.371893 0.372961 0.118837
0.421378 0.374441 0.106813
0.470176 0.374456 0.104356
0.510994 0.37673 0.100206
0.549386 0.378866 0.0981765
0.585779 0.37911 0.095491
0.623926 0.378958 0.0930953
0.662882 0.378546 0.0902724
0.701289 0.378302 0.0874952
0.738567 0.378576 0.0852827
0.774365 0.3794 0.0827497
0.809247 0.38056 0.0803845
0.844312 0.381888 0.0778668
0.878935 0.383246 0.0756695
0.913985 0.384466 0.0737926
0.948974 0.385611 0.0715648
0.980667 0.38613 0.0700389
1 0.385916 0.0684825
1 0.384833 0.0662699
1 0.378759 0.0367437
0.0424353 0.33753 0.0573739
0.0571145 0.340154 0.0646067
0.0785382 0.342962 0.0747234
0.108583 0.34638 0.090013
0.14435 0.348318 0.109636
0.178164 0.351095 0.132982
0.209247 0.35465 0.155947
0.226719 0.360983 0.159457
0.244465 0.367376 0.162234
0.263569 0.373754 0.164889
0.283238 0.38024 0.165484
0.304982 0.386343 0.163943
0.32961 0.392767 0.16141
0.363256 0.39855 0.148806
0.405478 0.403067 0.123507
0.453635 0.404608 0.112413
0.502007 0.405112 0.109697
0.54342 0.407446 0.106447
0.582147 0.409827 0.104051
0.618921 0.410239 0.101244
0.656779 0.41001 0.0993668
0.695827 0.409476 0.0962692
0.734524 0.409064 0.0939651
0.772549 0.408942 0.0918135
0.809277 0.409186 0.0893263
0.844968 0.410101 0.087068
0.879515 0.4112 0.0845502
0.914885 0.41239 0.0825666
0.94992 0.413291 0.0803693
0.981659 0.413901 0.0783551
1 0.413458 0.076173
1 0.412863 0.0743114
1 0.40766 0.0455634
0.043534 0.361608 0.0628977
0.0613107 0.36434 0.072282
0.0829023 0.367514 0.0821393
0.109972 0.371267 0.0936751
0.146136 0.373373 0.1131
0.180194 0.376547 0.136522
0.212497 0.379782 0.16083
0.233616 0.385321 0.170474
0.25156 0.391669 0.172824
0.270268 0.398184 0.175555
0.290425 0.404669 0.176852
0.311452 0.41091 0.176211
0.335271 0.416968 0.17409
0.361318 0.423148 0.170214
0.39646 0.428717 0.153368
0.438911 0.433417 0.128878
0.48629 0.434989 0.11873
0.533364 0.435828 0.11545
0.574929 0.438361 0.112444
0.614145 0.441032 0.110048
0.65185 0.441611 0.107607
0.689616 0.44152 0.105486
0.728542 0.441169 0.102647
0.767452 0.440375 0.100587
0.806363 0.439765 0.0983139
0.843687 0.439673 0.0961929
0.879667 0.440009 0.0939651
0.914916 0.440803 0.0914015
0.949706 0.441611 0.0892805
0.98172 0.442069 0.0868849
1 0.441718 0.0847028
1 0.441123 0.0829328
1 0.43679 0.0584726
0.0464179 0.386145 0.0732738
0.0640879 0.389166 0.0810559
0.0849317 0.392325 0.0888075
0.112596 0.395865 0.0997635
0.146181 0.398627 0.117006
0.181308 0.401724 0.140414
0.214893 0.405356 0.166705
0.240162 0.410086 0.181643
0.258167 0.416388 0.184512
0.276997 0.422766 0.18645
0.296895 0.428855 0.187747
0.317891 0.434989 0.187808
0.340841 0.441138 0.186145
0.365896 0.447227 0.183886
0.39408 0.45362 0.178042
0.430182 0.45922 0.15848
0.472343 0.463935 0.134447
0.518608 0.465812 0.124956
0.564645 0.466819 0.12134
0.605844 0.469047 0.118578
0.645304 0.472007 0.116228
0.684077 0.472923 0.113817
0.721736 0.47277 0.111589
0.76022 0.472175 0.109117
0.799435 0.471443 0.106859
0.838575 0.470573 0.104723
0.877073 0.470222 0.102846
0.913863 0.470207 0.100877
0.949493 0.470573 0.0982376
0.981933 0.471046 0.0964065
1 0.470619 0.0940719
1 0.470039 0.0917372
1 0.466728 0.0724651
0.0497292 0.410574 0.0849928
0.0678721 0.413489 0.0921492
0.0882429 0.416876 0.0977798
0.113649 0.420844 0.105974
0.14699 0.423804 0.122683
0.180728 0.427405 0.144518
0.215366 0.431006 0.170382
0.245197 0.43476 0.191531
0.26424 0.440848 0.195392
0.28333 0.447059 0.197406
0.303243 0.453285 0.198962
0.324514 0.45948 0.199756
0.347021 0.465675 0.198871
0.371389 0.471748 0.196521
0.397467 0.477485 0.19321
0.427283 0.48394 0.184924
0.463951 0.489967 0.16286
0.505455 0.493935 0.139879
0.550134 0.496315 0.13048
0.595544 0.49778 0.127016
0.637171 0.500053 0.125002
0.676936 0.502678 0.122881
0.71632 0.504082 0.121004
0.753994 0.503838 0.118868
0.792218 0.503441 0.116426
0.831418 0.502602 0.114046
0.870497 0.501595 0.111681
0.909133 0.500832 0.109728
0.946578 0.500496 0.107576
0.980987 0.500526 0.105318
1 0.499977 0.103273
1 0.498375 0.096437
1 0.49688 0.0868544
0.0536812 0.435142 0.097261
0.0720073 0.438041 0.10309
0.0928817 0.44152 0.108736
0.117021 0.445594 0.116228
0.147005 0.449027 0.129442
0.17998 0.45301 0.149935
0.214252 0.456718 0.174273
0.248234 0.460243 0.199451
0.270253 0.465736 0.207172
0.289326 0.471901 0.208911
0.309422 0.47776 0.210224
0.330785 0.483848 0.210925
0.353017 0.490074 0.21088
0.376623 0.496162 0.209293
0.402243 0.502022 0.206867
0.42974 0.508247 0.202304
0.460929 0.514076 0.190997
0.497749 0.520088 0.167895
0.539559 0.524392 0.14641
0.58294 0.526802 0.136477
0.626841 0.528557 0.132998
0.668574 0.530602 0.131289
0.708965 0.53344 0.129946
0.748516 0.534997 0.128679
0.78645 0.534752 0.126574
0.824598 0.534264 0.124224
0.863279 0.533547 0.121782
0.902235 0.532937 0.119677
0.941421 0.531991 0.117571
0.978241 0.531289 0.11545
1 0.529747 0.113008
1 0.527733 0.103716
1 0.526925 0.100862
0.0574502 0.459892 0.110185
0.0761273 0.462364 0.115557
0.0975357 0.465873 0.121569
0.121843 0.47042 0.128817
0.150317 0.474128 0.140246
0.178637 0.478508 0.155734
0.212589 0.48249 0.178683
0.248463 0.485893 0.204654
0.275227 0.490501 0.218082
0.295079 0.496529 0.220249
0.315724 0.50248 0.221668
0.337224 0.508583 0.222461
0.359472 0.514595 0.222873
0.382803 0.520607 0.221912
0.40763 0.526268 0.219669
0.434043 0.532128 0.216754
0.462821 0.538293 0.211078
0.495521 0.544625 0.197162
0.532418 0.550286 0.172824
0.573724 0.55436 0.153094
0.616114 0.557015 0.143465
0.658991 0.558938 0.139773
0.700603 0.561074 0.138186
0.740841 0.563775 0.137301
0.781262 0.566049 0.136904
0.819257 0.565774 0.135103
0.857252 0.565255 0.132738
0.895628 0.564553 0.130495
0.934279 0.563607 0.128435
0.972763 0.562509 0.125963
1 0.5608 0.123873
1 0.55845 0.116793
1 0.557351 0.115267
0.0617838 0.484657 0.125948
0.0805982 0.487114 0.130846
0.102724 0.490669 0.136294
0.126986 0.49482 0.143282
0.154513 0.498726 0.153567
0.181292 0.503456 0.16701
0.210407 0.508339 0.1841
0.247242 0.511788 0.209293
0.279255 0.515572 0.22826
0.300801 0.521157 0.232395
0.321721 0.527077 0.233799
0.343343 0.532799 0.234318
0.365789 0.53872 0.234623
0.388846 0.544732 0.234302
0.413031 0.55079 0.232929
0.439307 0.556512 0.230549
0.467185 0.562264 0.227268
0.496468 0.568307 0.219837
0.529946 0.574639 0.202335
0.567361 0.580179 0.178546
0.608133 0.584054 0.160082
0.649943 0.586892 0.150927
0.691829 0.589212 0.146944
0.732982 0.591577 0.14548
0.772976 0.593774 0.144717
0.813413 0.596002 0.144976
0.852003 0.596307 0.143694
0.889815 0.595666 0.141405
0.927993 0.59501 0.13904
0.965927 0.594202 0.136919
1 0.593133 0.134798
1 0.590402 0.130541
1 0.588342 0.129839
0.066392 0.508965 0.142718
0.0856489 0.511574 0.147143
0.108095 0.514794 0.15288
0.132036 0.51931 0.159564
0.159091 0.523476 0.169375
0.185534 0.528344 0.180957
0.212085 0.533272 0.194568
0.245289 0.537575 0.214252
0.283452 0.540291 0.239353
0.306111 0.545739 0.244083
0.327504 0.55169 0.246052
0.349676 0.557473 0.247181
0.37232 0.563317 0.2477
0.39556 0.569223 0.24741
0.419196 0.574945 0.245731
0.444282 0.580774 0.24387
0.471824 0.586343 0.24181
0.500832 0.592248 0.237675
0.530434 0.598505 0.227619
0.564446 0.604547 0.20795
0.602182 0.610056 0.184527
0.642557 0.614206 0.167285
0.683696 0.616815 0.15877
0.724727 0.619181 0.154025
0.765469 0.621454 0.152636
0.805661 0.623911 0.152697
0.845762 0.625895 0.153277
0.88455 0.626688 0.152834
0.922347 0.626154 0.150286
0.960037 0.625422 0.148089
0.996674 0.624674 0.145708
1 0.622614 0.142794
1 0.620401 0.141558
0.0716869 0.533547 0.161746
0.0913252 0.535958 0.165713
0.114015 0.539345 0.171099
0.137713 0.54377 0.177584
0.163943 0.547951 0.185977
0.18996 0.552865 0.196689
0.215549 0.558175 0.207553
0.244648 0.562692 0.222446
0.281361 0.566323 0.243946
0.311421 0.570626 0.256764
0.333394 0.576501 0.258732
0.355764 0.58201 0.259525
0.378607 0.587655 0.260044
0.401831 0.593423 0.26006
0.425345 0.59939 0.258961
0.450217 0.605249 0.257404
0.476814 0.610651 0.255055
0.504555 0.616175 0.25272
0.533898 0.622019 0.247044
0.564813 0.628412 0.234913
0.599481 0.634745 0.214191
0.636774 0.63978 0.191073
0.6766 0.643763 0.17499
0.717494 0.646677 0.166155
0.757916 0.649104 0.161364
0.798062 0.651347 0.159792
0.837934 0.653635 0.160037
0.877897 0.65594 0.161532
0.916533 0.656687 0.161837
0.954543 0.656306 0.159594
0.990616 0.655756 0.157412
1 0.654322 0.155459
1 0.652262 0.153262
0.0770428 0.557534 0.181399
0.0968948 0.55996 0.185138
0.119722 0.563317 0.190005
0.143359 0.567849 0.195941
0.168933 0.572519 0.20415
0.195193 0.577234 0.213764
0.22005 0.582345 0.222919
0.245747 0.58761 0.23299
0.280064 0.591974 0.251057
0.315892 0.595376 0.268421
0.33872 0.600916 0.271
0.361486 0.606348 0.272312
0.384436 0.612024 0.272938
0.407721 0.617853 0.273106
0.431678 0.623545 0.272038
0.455848 0.629099 0.270054
0.481331 0.634897 0.268742
0.509133 0.640452 0.266545
0.538125 0.646082 0.263462
0.567437 0.652155 0.255726
0.598978 0.658259 0.241505
0.633509 0.664454 0.219486
0.671305 0.669718 0.197513
0.710414 0.673472 0.181231
0.75082 0.676402 0.172503
0.790768 0.678904 0.167788
0.830442 0.681163 0.165911
0.869795 0.683314 0.166537
0.909682 0.68542 0.168902
0.948623 0.686946 0.171344
0.984924 0.686412 0.169055
1 0.685252 0.167468
1 0.684001 0.166278
0.0826734 0.581552 0.201526
0.103288 0.584131 0.205371
0.126055 0.587457 0.209567
0.14876 0.591989 0.21503
0.173785 0.596643 0.222049
0.19971 0.601556 0.230808
0.224842 0.606973 0.239338
0.250553 0.612375 0.248142
0.279591 0.617075 0.259556
0.315969 0.620645 0.276829
0.343481 0.625544 0.28333
0.366598 0.630915 0.284718
0.390051 0.6365 0.285191
0.413458 0.642115 0.285359
0.437201 0.647791 0.284962
0.461753 0.653574 0.283635
0.487007 0.659449 0.281605
0.513756 0.665019 0.2795
0.541939 0.67039 0.277409
0.570871 0.67599 0.27248
0.600793 0.682185 0.263172
0.632731 0.688441 0.246769
0.66743 0.694469 0.224308
0.704982 0.699565 0.202762
0.743923 0.703273 0.18706
0.783383 0.706157 0.178012
0.823194 0.708675 0.173129
0.862531 0.710994 0.171847
0.901579 0.713268 0.172915
0.940871 0.714916 0.175051
0.9794 0.716381 0.178759
1 0.715984 0.179416
1 0.715114 0.178729
0.0884871 0.605554 0.22179
0.1093 0.607752 0.224933
0.131792 0.611383 0.229129
0.154696 0.616022 0.233997
0.17879 0.62118 0.240253
0.204776 0.62623 0.248112
0.229984 0.631266 0.255573
0.255238 0.636835 0.263264
0.281422 0.641962 0.270832
0.315297 0.646067 0.284703
0.347341 0.650202 0.294743
0.371206 0.655558 0.296635
0.395148 0.661219 0.297642
0.418891 0.66688 0.297917
0.443046 0.672465 0.297429
0.467292 0.678065 0.29604
0.492058 0.683787 0.294301
0.517662 0.689464 0.291951
0.545357 0.694987 0.289311
0.574258 0.70042 0.287053
0.60354 0.706142 0.280232
0.633799 0.712474 0.269139
0.666026 0.718715 0.250858
0.70074 0.724712 0.227939
0.737926 0.729335 0.206439
0.776822 0.733166 0.191485
0.815976 0.736248 0.1823
0.855421 0.738567 0.17763
0.894209 0.740566 0.175738
0.933043 0.742641 0.177264
0.972061 0.744595 0.180896
1 0.745907 0.187472
1 0.745861 0.190936
0.0945144 0.629465 0.241749
0.115496 0.631754 0.244709
0.138216 0.635325 0.248188
0.160571 0.640208 0.25272
0.183841 0.645548 0.258015
0.20943 0.65069 0.264714
0.234592 0.655833 0.271641
0.259785 0.661265 0.278859
0.285512 0.666712 0.285161
0.314244 0.671336 0.292882
0.35111 0.675181 0.3066
0.37557 0.680476 0.308766
0.399756 0.685786 0.309804
0.423453 0.691264 0.309728
0.447654 0.696895 0.309407
0.472007 0.702632 0.308309
0.496925 0.708385 0.306432
0.522164 0.714275 0.303883
0.548852 0.719738 0.301198
0.577081 0.725124 0.298299
0.606348 0.730709 0.294896
0.635843 0.736645 0.286809
0.665904 0.742657 0.273442
0.698604 0.748989 0.253269
0.733227 0.755001 0.229969
0.770901 0.759793 0.209079
0.809018 0.763073 0.194171
0.847791 0.766094 0.18497
0.887098 0.768399 0.180468
0.925948 0.770489 0.178912
