code/data/lut/42温暖蓝调2.cube
TITLE "LD - Golden Age 2"
# Copyright (c) 2019 Lens Distortions, LLC. All Rights Reserved.
# LensDistortions.com
# ref-GDA17
LUT_3D_SIZE 9
0.0211185 0.0229648 0.0269932
0.0732433 0.0298161 0.0392767
0.213718 0.0320897 0.0414588
0.366674 0.0407568 0.0337072
0.511055 0.0590677 0.0288396
0.646952 0.0737621 0.019501
0.781857 0.0859388 0.0124971
0.917708 0.0951247 0.00500496
1 0.098085 7.62951e-05
0.019852 0.0927443 0.0572366
0.0861982 0.107622 0.0632029
0.229297 0.115496 0.0472725
0.364385 0.124865 0.0381628
0.507469 0.133089 0.0296025
0.647242 0.14406 0.0226749
0.78677 0.154116 0.0171054
0.925689 0.162097 0.0125887
1 0.162295 0.00636301
0.0271763 0.19443 0.0508278
0.114931 0.203403 0.0881208
0.213291 0.223102 0.0913863
0.375494 0.228 0.0671244
0.518257 0.232914 0.0554208
0.656199 0.242313 0.0471504
0.800992 0.248096 0.0418708
0.94403 0.25304 0.0351415
1 0.251087 0.0275883
0.0399481 0.289265 0.0518654
0.137926 0.298711 0.1028
0.230549 0.318807 0.142657
0.338354 0.342901 0.113725
0.515648 0.348089 0.0923323
0.666667 0.347982 0.0811017
0.807416 0.353262 0.0714122
0.948028 0.358709 0.0638895
1 0.350576 0.0298466
0.0464179 0.386145 0.0732738
0.146181 0.398627 0.117006
0.258167 0.416388 0.184512
0.340841 0.441138 0.186145
0.472343 0.463935 0.134447
0.645304 0.472007 0.116228
0.799435 0.471443 0.106859
0.949493 0.470573 0.0982376
1 0.466728 0.0724651
0.0617838 0.484657 0.125948
0.154513 0.498726 0.153567
0.279255 0.515572 0.22826
0.365789 0.53872 0.234623
0.467185 0.562264 0.227268
0.608133 0.584054 0.160082
0.772976 0.593774 0.144717
0.927993 0.59501 0.13904
1 0.588342 0.129839
0.0826734 0.581552 0.201526
0.173785 0.596643 0.222049
0.279591 0.617075 0.259556
0.390051 0.6365 0.285191
0.487007 0.659449 0.281605
0.600793 0.682185 0.263172
0.743923 0.703273 0.18706
0.901579 0.713268 0.172915
1 0.715114 0.178729
0.105928 0.67715 0.279255
0.193347 0.694179 0.292195
0.293507 0.716106 0.312856
0.406561 0.735805 0.331807
0.504845 0.758297 0.328954
0.609857 0.780926 0.315923
0.728847 0.804547 0.275532
0.872526 0.824018 0.19292
1 0.831342 0.182712
0.126558 0.770596 0.342
0.211215 0.788647 0.35082
0.301305 0.814542 0.359976
0.410788 0.836103 0.368582
0.512337 0.858991 0.36376
0.612467 0.882506 0.345342
0.72491 0.904784 0.316289
0.847272 0.925856 0.249531
0.981781 0.938369 0.176883
0.0230716 0.026154 0.0634775
0.0779126 0.0316625 0.0930648
0.218204 0.0310521 0.114183
0.375921 0.0303807 0.119387
0.532601 0.0327459 0.106035
0.677378 0.0362554 0.0868696
0.816632 0.0406195 0.0646982
0.947784 0.0502937 0.0503853
1 0.0615091 0.0473487
0.0163729 0.106966 0.112352
0.0796216 0.116228 0.122499
0.215595 0.118715 0.119478
0.352697 0.123232 0.114107
0.491951 0.131411 0.106966
0.63035 0.142641 0.100084
0.769451 0.154345 0.0944381
0.910582 0.161944 0.0868391
1 0.163607 0.0788891
0.0250401 0.208255 0.149691
0.106966 0.215015 0.172015
0.216526 0.226001 0.162493
0.374823 0.228138 0.13193
0.507988 0.234745 0.124178
0.648188 0.240925 0.118303
0.789609 0.246937 0.111116
0.930816 0.252186 0.103548
1 0.251377 0.0963302
0.0432288 0.303181 0.15172
0.144411 0.314549 0.19646
0.229679 0.326772 0.203815
0.349645 0.344106 0.198978
0.545708 0.338949 0.152895
0.672953 0.345403 0.143313
0.807599 0.351949 0.133852
0.94815 0.355505 0.125765
1 0.347524 0.101671
0.0514687 0.400504 0.158923
0.166873 0.416876 0.210117
0.244846 0.429892 0.229664
0.357656 0.444984 0.26981
0.486244 0.464225 0.227008
0.698299 0.457481 0.176883
0.819638 0.464256 0.167849
0.955673 0.467491 0.158679
1 0.464836 0.142275
0.0623484 0.498543 0.193729
0.180133 0.516915 0.243046
0.257404 0.530358 0.265705
0.380407 0.545251 0.30634
0.478157 0.565316 0.312963
0.619608 0.584558 0.252674
0.827939 0.581933 0.208789
0.950042 0.587701 0.198505
1 0.588205 0.217823
0.0809796 0.594827 0.256703
0.194263 0.614282 0.296468
0.274632 0.628687 0.316121
0.397406 0.644175 0.347265
0.50425 0.663981 0.355245
0.6038 0.684581 0.347372
0.751842 0.703838 0.276036
0.9458 0.706081 0.244343
1 0.711757 0.260838
0.103517 0.690059 0.326482
0.205951 0.71104 0.353567
0.289921 0.726802 0.367605
0.402838 0.745266 0.384039
0.517922 0.764065 0.393301
0.622431 0.785107 0.388937
0.728313 0.806073 0.361227
0.877348 0.824277 0.280842
1 0.828855 0.286625
0.12285 0.78352 0.385183
0.217411 0.804257 0.403128
0.298909 0.826337 0.411353
0.41091 0.846479 0.420844
0.521767 0.866316 0.420615
0.624582 0.887541 0.408408
0.731762 0.908263 0.382925
0.849775 0.929885 0.318624
0.984451 0.941451 0.233295
0.0243076 0.029633 0.139086
0.0822919 0.0324254 0.193332
0.22211 0.0330358 0.22742
0.379416 0.0306554 0.238087
0.534463 0.0301671 0.236118
0.678477 0.0317082 0.227802
0.815763 0.0376135 0.210895
0.950347 0.0433967 0.195163
1 0.0463264 0.183581
0.00505074 0.119799 0.220783
0.0676585 0.123552 0.226154
0.213199 0.119448 0.231983
0.355581 0.121828 0.219333
0.50132 0.123354 0.215228
0.644816 0.12636 0.207416
0.786633 0.13051 0.194903
0.926284 0.135058 0.182727
1 0.137224 0.173205
0.0231785 0.222278 0.230137
0.0929732 0.227253 0.247379
0.213794 0.232868 0.244343
0.351919 0.234653 0.232395
0.495094 0.236042 0.226719
0.629618 0.244022 0.223972
0.763989 0.253819 0.223499
0.902403 0.262379 0.221897
1 0.267124 0.217945
0.0291752 0.31754 0.259709
0.120699 0.324865 0.292271
0.23711 0.334813 0.286046
0.352544 0.347601 0.276402
0.516747 0.347692 0.247517
0.650935 0.352346 0.239979
0.785992 0.357671 0.238056
0.923384 0.362387 0.235981
1 0.358282 0.219577
0.0462348 0.4159 0.270283
0.168246 0.426078 0.308843
0.266117 0.439445 0.33727
0.353368 0.452338 0.326741
0.484428 0.467796 0.306889
0.684001 0.461723 0.266133
0.812146 0.466011 0.258366
0.94699 0.469139 0.253971
1 0.470985 0.252827
0.0635233 0.513603 0.290166
0.187686 0.527901 0.326589
0.298451 0.543999 0.370886
0.381338 0.555749 0.371283
0.485115 0.569162 0.385077
0.619394 0.586801 0.340414
0.84268 0.576883 0.289326
0.96875 0.57882 0.280537
1 0.590982 0.315068
0.0803235 0.609522 0.332296
0.202136 0.626535 0.364767
0.330694 0.645975 0.416556
0.411353 0.657084 0.423346
0.511696 0.669673 0.433967
0.612299 0.686473 0.44361
0.754818 0.704646 0.372213
0.972946 0.693767 0.345953
1 0.708751 0.372015
0.100343 0.704601 0.386404
0.208988 0.724163 0.411582
0.344518 0.746731 0.461738
0.427329 0.758434 0.469444
0.522866 0.771786 0.47274
0.63624 0.788205 0.481834
0.728862 0.806561 0.477562
0.882109 0.823056 0.395224
1 0.826932 0.396872
0.117464 0.797833 0.437644
0.216663 0.816831 0.455055
0.346777 0.847532 0.491554
0.4439 0.860899 0.495064
0.545922 0.875944 0.496178
0.648005 0.892805 0.490288
0.746578 0.911116 0.469062
0.855604 0.929564 0.42118
0.984222 0.941649 0.325963
0.0241093 0.0304723 0.23711
0.0893416 0.0320439 0.305409
0.227893 0.0318151 0.346349
0.380835 0.0319524 0.356344
0.534508 0.03093 0.355001
0.677943 0.0316625 0.347982
0.816983 0.0343328 0.34136
0.95227 0.038117 0.334798
1 0.0430457 0.324681
0.00444038 0.1205 0.34696
0.0600595 0.132616 0.32256
0.192248 0.125032 0.350286
0.350317 0.123934 0.337224
0.498833 0.125551 0.326604
0.646296 0.125841 0.321294
0.789044 0.126909 0.320684
0.927687 0.130877 0.315068
1 0.134356 0.307561
0.012604 0.240742 0.326345
0.0703288 0.242145 0.35079
0.201678 0.237995 0.347219
0.35108 0.234241 0.346532
0.496788 0.235966 0.32668
0.63856 0.23856 0.324041
0.775525 0.244526 0.323384
0.91284 0.250965 0.320409
1 0.25684 0.317739
0.0286717 0.333364 0.338277
0.102525 0.338903 0.362264
0.227497 0.345693 0.362051
0.349233 0.354849 0.359503
0.495415 0.354253 0.346197
0.628702 0.359152 0.337713
0.771115 0.361074 0.337774
0.899306 0.370489 0.338109
1 0.370016 0.331777
0.0313878 0.431205 0.365103
0.122118 0.438865 0.392493
0.252201 0.448325 0.413901
0.371054 0.458808 0.392645
0.490288 0.472267 0.380774
0.651194 0.472068 0.357946
0.787625 0.474006 0.352026
0.921462 0.477668 0.351308
1 0.477531 0.348821
0.0446021 0.530694 0.381262
0.174594 0.539681 0.409842
0.29102 0.552407 0.450141
0.399268 0.562356 0.45626
0.488396 0.575586 0.44622
0.62179 0.590387 0.415213
0.817411 0.584451 0.37847
0.945724 0.58735 0.371374
1 0.59295 0.390723
0.0715343 0.626184 0.411978
0.201328 0.639338 0.441123
0.329534 0.65478 0.487739
0.433295 0.665492 0.51606
0.518929 0.677363 0.507759
0.611521 0.691066 0.504189
0.752026 0.707378 0.45388
0.954162 0.69987 0.432135
1 0.709117 0.44181
0.0925002 0.721035 0.455558
0.206043 0.737545 0.478325
0.348348 0.757153 0.52401
0.463508 0.769619 0.553796
0.549645 0.780835 0.554772
0.64564 0.793133 0.551614
0.743526 0.808118 0.56054
0.877012 0.823758 0.502724
1 0.828214 0.469108
0.108919 0.813901 0.498268
0.21236 0.829908 0.512688
0.339925 0.858 0.541161
0.444282 0.87013 0.545281
0.547677 0.883589 0.547768
0.652659 0.898375 0.546258
0.752453 0.914656 0.532509
0.859297 0.930785 0.501793
0.983841 0.941863 0.421653
0.0234684 0.0322118 0.349111
0.0943008 0.0316777 0.428077
0.233814 0.0302739 0.46894
0.379889 0.0370642 0.477043
0.533837 0.0308995 0.476265
0.67718 0.0320287 0.469841
0.816205 0.0344701 0.463523
0.952102 0.0379034 0.458091
1 0.0399939 0.453468
0.00430304 0.120546 0.470985
0.0612497 0.138567 0.42974
0.173816 0.130556 0.465385
0.331731 0.13048 0.459861
0.492592 0.129335 0.444999
0.639979 0.130663 0.439155
0.787396 0.12932 0.436286
0.927779 0.13077 0.436194
1 0.131884 0.434714
0.00288396 0.246418 0.47628
0.0674144 0.246998 0.454337
0.184451 0.246616 0.440284
0.328161 0.240558 0.467582
0.494484 0.235599 0.453468
0.636866 0.24007 0.439994
0.777676 0.244709 0.432059
0.915862 0.24921 0.431937
1 0.253971 0.43238
0.0211032 0.352361 0.423407
0.0730297 0.3579 0.457847
0.203632 0.357839 0.471839
0.339086 0.358434 0.46862
0.491356 0.354482 0.46453
0.634409 0.357443 0.440238
0.775845 0.359762 0.432395
0.907958 0.365591 0.434913
1 0.367773 0.4365
0.0311437 0.447608 0.446555
0.108873 0.453498 0.470039
0.243732 0.460288 0.490028
0.362737 0.468528 0.475868
0.487175 0.477363 0.473945
0.633692 0.476432 0.463478
0.758862 0.483467 0.449104
0.897658 0.485435 0.449699
1 0.480949 0.449027
0.0343328 0.545937 0.472511
0.132616 0.553368 0.494301
0.261891 0.562676 0.52285
0.391226 0.570703 0.528237
0.510948 0.580819 0.506828
0.629648 0.594125 0.494423
0.784619 0.593927 0.475792
0.917617 0.595895 0.46862
1 0.595407 0.477577
0.0513924 0.643854 0.497704
0.173693 0.652247 0.515709
0.307774 0.665492 0.553933
0.427695 0.673564 0.575189
0.537881 0.683421 0.566201
0.628717 0.696239 0.559106
0.757626 0.710185 0.526314
0.928389 0.707118 0.51902
1 0.710567 0.515465
0.0801862 0.738918 0.529015
0.196612 0.750973 0.545678
0.338994 0.768917 0.583597
0.457298 0.778729 0.609842
0.56875 0.787366 0.62063
0.665461 0.798276 0.61413
0.754604 0.811826 0.614908
0.877058 0.826078 0.578653
1 0.829999 0.54165
0.0975204 0.831815 0.559396
0.210971 0.845701 0.572488
0.330907 0.871046 0.594583
0.438483 0.880781 0.596597
0.549508 0.892317 0.600061
0.656413 0.904646 0.601404
0.759716 0.918791 0.595468
0.865049 0.932677 0.577951
0.983261 0.942336 0.522957
0.0218967 0.0331121 0.478767
0.0978714 0.0315709 0.548562
0.237324 0.0314488 0.579187
0.386954 0.0317845 0.587488
0.525429 0.0440986 0.577005
0.677546 0.0331579 0.578042
0.816373 0.0356451 0.573007
0.952514 0.0387884 0.569375
1 0.0409857 0.5664
0.00497444 0.122606 0.579614
0.0669871 0.139681 0.54612
0.175769 0.132708 0.56817
0.330556 0.130556 0.570291
0.478981 0.138125 0.554818
0.636881 0.134585 0.549355
0.783307 0.13434 0.548058
0.927474 0.13257 0.548852
1 0.134417 0.546838
0.00329595 0.246143 0.588617
0.0704967 0.250202 0.557107
0.178546 0.254551 0.531395
0.293217 0.252735 0.56733
0.475654 0.244129 0.563027
0.635111 0.241627 0.554009
0.773846 0.248005 0.546365
0.914565 0.252476 0.540444
1 0.255161 0.539452
0.00479133 0.370489 0.557488
0.0612497 0.371466 0.561959
0.192782 0.365637 0.559884
0.315221 0.369162 0.554086
0.473411 0.360479 0.571359
0.635157 0.356451 0.561593
0.772091 0.361624 0.547936
0.908583 0.367315 0.536919
1 0.367697 0.541955
0.023621 0.466987 0.533257
0.0789197 0.473274 0.557031
0.210163 0.476585 0.582467
0.339223 0.481849 0.580484
0.481239 0.480674 0.573266
0.624414 0.479271 0.570275
0.766613 0.481636 0.54902
0.903243 0.484993 0.535653
1 0.482551 0.551263
0.0348821 0.56231 0.550759
0.119295 0.568185 0.567498
0.263691 0.575372 0.59498
0.38819 0.58204 0.597879
0.503807 0.590616 0.57882
0.625574 0.600168 0.580819
0.770733 0.597726 0.573907
0.90135 0.601953 0.556756
1 0.599863 0.566705
0.0430915 0.65977 0.575494
0.140261 0.667735 0.590692
0.276448 0.677348 0.617502
0.412177 0.683406 0.635615
0.529839 0.691951 0.629007
0.651545 0.70135 0.610819
0.766186 0.714275 0.597757
0.912474 0.714046 0.589212
1 0.713329 0.589517
0.0649271 0.757321 0.598825
0.177707 0.76463 0.60943
0.303349 0.781277 0.642008
0.431159 0.789029 0.669032
0.566339 0.794827 0.674968
0.675761 0.804044 0.66714
0.767636 0.816403 0.663554
0.881621 0.830045 0.636667
1 0.831617 0.611505
0.0856641 0.851057 0.621164
0.190341 0.858793 0.627588
0.311498 0.8813 0.648539
0.421256 0.893599 0.652598
0.54255 0.90219 0.655619
0.659113 0.912093 0.659312
0.767422 0.92314 0.660197
0.87219 0.93489 0.651926
0.983673 0.943816 0.613672
0.0217288 0.0348363 0.598245
0.100923 0.0329747 0.659205
0.240894 0.0327306 0.686702
0.389548 0.0324712 0.692882
0.531472 0.0388037 0.683619
0.671427 0.0443122 0.67538
0.817105 0.0372015 0.67599
0.953506 0.0405432 0.672648
1 0.0424964 0.670314
0.00567636 0.124697 0.685893
0.0750591 0.134981 0.662333
0.190234 0.129168 0.674067
0.340841 0.12781 0.672724
0.489403 0.13164 0.663966
0.634089 0.138994 0.650996
0.784024 0.136629 0.650324
0.925032 0.138598 0.649439
1 0.134554 0.651164
0.00433356 0.247257 0.690974
0.0747539 0.251026 0.661662
0.180194 0.262608 0.61825
0.278767 0.263478 0.651026
0.452186 0.251804 0.671778
0.61593 0.253468 0.653742
0.77232 0.251408 0.647776
0.908721 0.259281 0.642527
1 0.260868 0.640879
0.00216678 0.374121 0.684474
0.0680705 0.373571 0.66627
0.189364 0.37229 0.644602
0.301549 0.379202 0.633219
0.432761 0.374243 0.667155
0.617182 0.364569 0.661875
0.773037 0.362158 0.654368
0.906889 0.369085 0.645014
1 0.370626 0.64065
0.00929274 0.488304 0.63798
0.0582589 0.492058 0.655711
0.190707 0.489464 0.668009
0.325185 0.490623 0.664668
0.457267 0.491447 0.654032
0.613352 0.48394 0.668696
0.769284 0.480552 0.660075
0.900755 0.486366 0.644373
1 0.484993 0.64416
0.0295415 0.581918 0.632975
0.0860304 0.588464 0.654063
0.226688 0.592508 0.686641
0.355261 0.597391 0.700252
0.484215 0.602457 0.683955
0.623545 0.602441 0.675517
0.756313 0.602655 0.672374
0.899794 0.603464 0.650034
1 0.602319 0.656138
0.0445411 0.676326 0.649027
0.130251 0.682429 0.66331
0.281758 0.689372 0.694041
0.411261 0.694728 0.714611
0.531838 0.701213 0.700389
0.641917 0.710506 0.679103
0.762264 0.719692 0.683207
0.900664 0.7187 0.671626
1 0.717662 0.672053
0.0539254 0.774426 0.670359
0.161196 0.779339 0.67985
0.268956 0.793469 0.711055
0.42182 0.79823 0.736996
0.583581 0.799969 0.736584
0.674739 0.810559 0.73225
0.779507 0.82121 0.719615
0.887007 0.833936 0.702617
1 0.833432 0.689403
0.0751354 0.869734 0.688991
0.178439 0.874907 0.694926
0.291646 0.891554 0.712779
0.38024 0.907179 0.717784
0.514153 0.914321 0.720119
0.647257 0.92108 0.724422
0.771176 0.927825 0.730007
0.879591 0.936706 0.73135
0.983124 0.94548 0.704814
0.0207065 0.0356451 0.725643
0.101793 0.0330205 0.785107
0.242161 0.0323033 0.814359
0.389197 0.0322423 0.816175
0.535866 0.0320287 0.808911
0.668986 0.0471656 0.793667
0.813275 0.0430762 0.792432
0.953201 0.0407874 0.792157
1 0.0428779 0.789273
0.00469978 0.12459 0.8112
0.0810101 0.126314 0.799481
0.205631 0.122774 0.799573
0.347555 0.125017 0.79353
0.504036 0.122728 0.785077
0.637125 0.13576 0.773571
0.785412 0.135683 0.768048
0.926452 0.137392 0.766949
1 0.13991 0.765225
0.00361639 0.246876 0.812604
0.0767529 0.247303 0.789853
0.18526 0.269047 0.715679
0.279057 0.268956 0.752987
0.435142 0.256443 0.792782
0.599451 0.257603 0.780423
0.755444 0.262608 0.760128
0.906203 0.262608 0.755032
1 0.269642 0.751858
0.00207523 0.373114 0.811505
0.0712444 0.371542 0.791272
0.188754 0.378836 0.738247
0.295399 0.387808 0.719951
0.405356 0.388357 0.752361
0.586816 0.372732 0.785489
0.754711 0.370962 0.766613
0.905821 0.370336 0.759289
1 0.372702 0.755734
0 0.501915 0.780865
0.0577859 0.500511 0.782834
0.184207 0.497337 0.761227
0.31281 0.498085 0.756344
0.437018 0.501656 0.740459
0.571832 0.495705 0.780499
0.751934 0.486839 0.772595
0.902876 0.484764 0.764157
1 0.486839 0.75761
0.0169985 0.602457 0.740581
0.0606394 0.607309 0.762997
0.19649 0.605966 0.789624
0.331258 0.608652 0.803861
0.470054 0.609567 0.784268
0.591546 0.612009 0.77847
0.748501 0.605356 0.782162
0.901061 0.601297 0.773434
1 0.603494 0.76405
0.0388952 0.694896 0.74136
0.0996872 0.700404 0.759686
0.241764 0.70486 0.801083
0.397818 0.707057 0.820768
0.522469 0.711437 0.808942
0.630655 0.719509 0.800305
0.751614 0.722454 0.791287
0.894591 0.719295 0.785
1 0.718486 0.775967
0.0521096 0.790265 0.752346
0.154177 0.793469 0.76379
0.283574 0.804028 0.800412
0.497368 0.800595 0.806012
0.610819 0.805097 0.802274
0.695689 0.815152 0.801114
0.781659 0.826764 0.79649
0.886427 0.837263 0.79321
1 0.835294 0.786084
0.0666972 0.886793 0.769635
0.162753 0.889235 0.7738
0.273533 0.902083 0.791302
0.360647 0.915343 0.800046
0.47509 0.926421 0.805371
0.615427 0.931563 0.807248
0.758053 0.934371 0.810315
0.88603 0.937682 0.818357
0.981262 0.946426 0.806745
0.0173037 0.0334936 0.873014
0.100877 0.0312505 0.927352
0.241581 0.0299687 0.952255
0.387381 0.0298924 0.9505
0.53402 0.0297398 0.942977
0.672755 0.0370336 0.933257
0.803372 0.0531319 0.919081
0.950545 0.0405127 0.926604
1 0.0415656 0.924956
0.00209049 0.12285 0.947036
0.0815137 0.119234 0.942718
0.215854 0.116869 0.934874
0.353536 0.119753 0.928191
0.506935 0.11809 0.92018
0.649653 0.122454 0.913039
0.781323 0.137026 0.902373
0.928054 0.132052 0.905303
1 0.134905 0.903578
0.00122072 0.245029 0.946685
0.0755474 0.241733 0.936172
0.190814 0.269917 0.849775
0.284749 0.267201 0.890669
0.43093 0.256138 0.925139
0.59585 0.255375 0.918608
0.739651 0.264958 0.909102
0.895766 0.267079 0.894621
1 0.268147 0.891432
0 0.371313 0.945602
0.0694285 0.367376 0.936568
0.190066 0.381567 0.861418
0.291463 0.39324 0.835401
0.397482 0.392142 0.875563
0.564263 0.378714 0.916716
0.731991 0.376455 0.908919
0.891371 0.37467 0.897932
1 0.370855 0.895659
0 0.500664 0.93814
0.0602731 0.497368 0.931975
0.183703 0.49926 0.885908
0.289189 0.501686 0.88983
0.410208 0.500603 0.905394
0.560922 0.496681 0.914885
0.727596 0.492287 0.908766
0.884047 0.489891 0.900725
1 0.486168 0.895567
0.00230411 0.618112 0.899748
0.0528115 0.618494 0.91873
0.179416 0.615564 0.915343
0.284077 0.61857 0.927443
0.426047 0.615228 0.92903
0.575082 0.61239 0.921187
0.726696 0.609293 0.915084
0.879423 0.606073 0.908171
1 0.601465 0.901823
0.0248722 0.713191 0.86659
0.0712444 0.718135 0.889097
0.237522 0.716915 0.915084
0.342687 0.721599 0.930388
0.466423 0.724193 0.935714
0.600534 0.725765 0.93254
0.733852 0.7243 0.924727
0.883146 0.719753 0.91809
1 0.715557 0.911742
0.0471199 0.806134 0.860533
0.124804 0.809293 0.872038
0.288746 0.814878 0.89601
0.401785 0.819287 0.904234
0.511894 0.824552 0.914488
0.62594 0.83061 0.924636
0.749783 0.835615 0.929564
0.877913 0.836881 0.921752
1 0.833448 0.915953
0.0615091 0.901137 0.865827
0.171481 0.901579 0.869337
0.276173 0.910643 0.880171
0.355489 0.921553 0.891234
0.446097 0.934325 0.904921
0.591974 0.937987 0.90631
0.741665 0.939208 0.906004
0.879255 0.940963 0.905867
0.977646 0.946654 0.91162
