code/data/lut/43温暖蓝调3.cube
TITLE "LD - Golden Age 3"
# Copyright (c) 2019 Lens Distortions, LLC. All Rights Reserved.
# LensDistortions.com
# ref-GDA17
LUT_3D_SIZE 33
0.030045 0.0302739 0.0337987
0.0323339 0.032578 0.0379492
0.0403449 0.0347448 0.0406348
0.0555428 0.0362554 0.0435798
0.079408 0.0369879 0.0457008
0.113069 0.0370642 0.0471504
0.155673 0.0372931 0.0480201
0.199176 0.0375525 0.0477913
0.24332 0.0378119 0.0467536
0.287755 0.0382086 0.0446021
0.333196 0.0387732 0.0416724
0.375952 0.041001 0.0400397
0.417395 0.0441444 0.0384222
0.458671 0.048249 0.0378119
0.498085 0.0532082 0.0370947
0.538308 0.0582132 0.036286
0.577157 0.0627909 0.0352941
0.614939 0.0679484 0.0345922
0.652689 0.0729686 0.0332494
0.689158 0.0776989 0.0317845
0.725353 0.0830243 0.0305943
0.761334 0.0880446 0.0307927
0.796567 0.0931106 0.0298619
0.831632 0.0977646 0.0291905
0.865705 0.102937 0.0284428
0.900252 0.107927 0.0278325
0.933989 0.112596 0.0273594
0.967544 0.117281 0.0266575
1 0.121294 0.0261234
1 0.124865 0.0257725
1 0.128161 0.0259098
1 0.13022 0.0256962
1 0.131319 0.0253605
0.0335088 0.0397345 0.0422675
0.0366827 0.0428016 0.0453956
0.0467079 0.0462654 0.0488136
0.0661173 0.0480049 0.0509041
0.0925307 0.0488899 0.0512551
0.126528 0.0493782 0.0510719
0.16672 0.050309 0.050248
0.207904 0.0514534 0.0495918
0.248386 0.052781 0.0487221
0.288411 0.0551308 0.0474098
0.330266 0.0572671 0.0459449
0.373495 0.0598154 0.0449073
0.415351 0.0631571 0.0428321
0.458213 0.066392 0.0412909
0.498848 0.0700389 0.0393378
0.539605 0.0743572 0.0375067
0.578363 0.0788891 0.0362097
0.616342 0.0829328 0.0344854
0.654078 0.0878462 0.0334325
0.690639 0.0932021 0.0319219
0.726802 0.098558 0.0310826
0.76231 0.103243 0.0305638
0.797604 0.108904 0.0301061
0.832715 0.114244 0.0296788
0.867277 0.119432 0.0289311
0.901381 0.1243 0.0286107
0.935042 0.128878 0.0275883
0.968124 0.133486 0.0270237
1 0.137972 0.0264286
1 0.141863 0.0261082
1 0.144747 0.0256352
1 0.146212 0.024918
1 0.147707 0.0247501
0.0339361 0.0552377 0.0529488
0.0368811 0.0588235 0.0536507
0.047364 0.0627146 0.055314
0.0698863 0.0650797 0.0551308
0.100969 0.065507 0.0540475
0.135073 0.0662852 0.0519722
0.172946 0.0675212 0.050309
0.212329 0.0699168 0.0500191
0.251698 0.0718242 0.049134
0.292699 0.0743267 0.0479133
0.334585 0.0769207 0.0462043
0.377493 0.078996 0.0448768
0.419944 0.0820478 0.0428473
0.461219 0.085069 0.0406806
0.501991 0.0889906 0.0393988
0.54107 0.0933089 0.0375677
0.580224 0.0975814 0.0365301
0.618219 0.102678 0.0348821
0.654994 0.107286 0.0335088
0.691707 0.112764 0.0324407
0.728161 0.118273 0.0314488
0.763821 0.12372 0.0307012
0.799161 0.128649 0.0307927
0.833738 0.13402 0.0300908
0.868315 0.139284 0.0296025
0.902876 0.144259 0.0294347
0.936706 0.149493 0.0289158
0.970138 0.154208 0.0283055
1 0.158312 0.0277409
1 0.161944 0.0270542
1 0.164981 0.0269322
1 0.166125 0.0259251
1 0.166644 0.024918
0.0315709 0.0753643 0.0611734
0.0349432 0.079469 0.0599527
0.0437324 0.0841993 0.0582589
0.0656291 0.0864576 0.0626535
0.103197 0.0879072 0.0573739
0.143694 0.0880751 0.0547646
0.180835 0.0900282 0.0523537
0.21796 0.0921187 0.0513313
0.25658 0.095201 0.0497597
0.296193 0.0979934 0.0482948
0.338048 0.10042 0.0468757
0.38024 0.102815 0.0446784
0.421195 0.105867 0.0426337
0.463172 0.109041 0.0413977
0.50312 0.113054 0.0394598
0.542428 0.117449 0.0379797
0.581613 0.121706 0.0368048
0.618601 0.126223 0.035523
0.65658 0.131243 0.0346532
0.693278 0.136477 0.0336309
0.72958 0.142 0.0328985
0.765667 0.147204 0.0321813
0.800366 0.152285 0.0312352
0.836072 0.157427 0.0316014
0.870375 0.162875 0.0312047
0.904845 0.167788 0.0307469
0.938933 0.172381 0.0306859
0.972534 0.176883 0.0302434
1 0.181125 0.0297398
1 0.184985 0.0292363
1 0.187121 0.0286412
1 0.187732 0.0276951
1 0.187945 0.0266423
0.0283818 0.0993515 0.0630655
0.0333257 0.103685 0.0629892
0.0427405 0.108904 0.0596475
0.0618601 0.112718 0.0626841
0.0920424 0.114931 0.0685893
0.146304 0.115038 0.0603647
0.18764 0.116762 0.0565957
0.224094 0.119188 0.0539559
0.261448 0.122011 0.0521096
0.299474 0.125216 0.049958
0.339239 0.12842 0.048188
0.37998 0.131792 0.0462043
0.421637 0.134813 0.0447547
0.46331 0.138048 0.0434577
0.503456 0.141772 0.041886
0.543343 0.145342 0.040177
0.582132 0.149462 0.0389715
0.620081 0.154406 0.0378119
0.658076 0.159106 0.0371099
0.694667 0.16437 0.0362097
0.731426 0.169528 0.0350805
0.767147 0.173892 0.0347143
0.802884 0.178897 0.0338598
0.837995 0.183749 0.0331579
0.873396 0.188281 0.0329442
0.907317 0.192889 0.0335088
0.941878 0.197192 0.03299
0.975296 0.201434 0.0326238
1 0.205264 0.0323186
1 0.20885 0.0323491
1 0.2103 0.0313573
1 0.210941 0.0303349
1 0.21149 0.0298466
0.0273289 0.126665 0.0620584
0.0330968 0.130861 0.061326
0.0428473 0.13666 0.057847
0.0633097 0.141161 0.0636759
0.0932326 0.143008 0.0751202
0.126925 0.147753 0.0755932
0.187091 0.149081 0.064271
0.230549 0.151522 0.0601663
0.267628 0.153689 0.0576638
0.30576 0.15642 0.0552071
0.34435 0.159457 0.0530556
0.383642 0.162982 0.0504005
0.422782 0.166552 0.0484779
0.46244 0.170306 0.0463722
0.503548 0.17351 0.0452888
0.543587 0.176959 0.0442206
0.582864 0.180804 0.0428931
0.621332 0.184939 0.0419318
0.659541 0.189014 0.0415351
0.696452 0.193301 0.0404059
0.73315 0.197436 0.0393378
0.769757 0.201801 0.0391241
0.805844 0.206332 0.0380255
0.840909 0.210742 0.0376745
0.876234 0.215 0.0366217
0.911101 0.21912 0.0365148
0.945037 0.223194 0.0356298
0.979019 0.226841 0.0362249
1 0.230243 0.0356146
1 0.234028 0.0355993
1 0.234928 0.0348974
1 0.235218 0.0340276
1 0.235157 0.0332036
0.028336 0.156664 0.0593118
0.0349889 0.160815 0.0601816
0.0449073 0.166598 0.0565652
0.066743 0.171481 0.0640879
0.101701 0.173266 0.0815442
0.127901 0.178714 0.0853437
0.165438 0.183902 0.0831159
0.227237 0.18526 0.0703136
0.273228 0.1879 0.0652781
0.31017 0.190112 0.0624704
0.34963 0.192096 0.0599527
0.38941 0.194186 0.0574044
0.429099 0.19736 0.0545968
0.467628 0.200992 0.05243
0.505806 0.204974 0.0506905
0.544335 0.20914 0.049424
0.583642 0.212512 0.0479744
0.621927 0.215579 0.0472877
0.66006 0.219181 0.0465858
0.697902 0.223117 0.045594
0.735424 0.22681 0.0447395
0.772137 0.230701 0.0444343
0.808438 0.234867 0.0434272
0.843915 0.238849 0.0431067
0.879332 0.242664 0.0424811
0.913924 0.245884 0.0414435
0.948013 0.249622 0.0408331
0.981903 0.253239 0.0398108
1 0.25658 0.0390173
1 0.259678 0.0395819
1 0.260731 0.0391241
1 0.260761 0.0384222
1 0.260731 0.0375677
0.030457 0.186786 0.0558633
0.0378729 0.191287 0.0572671
0.0507057 0.196139 0.059556
0.0736553 0.201511 0.0678569
0.11136 0.20238 0.0872511
0.137942 0.207813 0.0929427
0.165743 0.214252 0.0971237
0.205051 0.22063 0.0907607
0.267247 0.221332 0.0774395
0.315404 0.223911 0.0722057
0.352377 0.226413 0.0686656
0.392248 0.227649 0.0661479
0.432959 0.229419 0.0633249
0.473014 0.231632 0.0610208
0.511696 0.234806 0.0582284
0.548928 0.238575 0.0562448
0.586328 0.242786 0.0548104
0.623148 0.246937 0.0534066
0.660853 0.250675 0.0524453
0.699153 0.253956 0.0519722
0.736706 0.257053 0.0511788
0.773663 0.260502 0.0505684
0.80975 0.263798 0.0493477
0.845777 0.267155 0.0489509
0.881468 0.270573 0.0485542
0.916411 0.274052 0.0477913
0.950973 0.277394 0.0471962
0.985031 0.280751 0.0461585
1 0.283848 0.0454566
1 0.286488 0.0446326
1 0.286824 0.0433967
1 0.287205 0.0431067
1 0.287068 0.0423896
0.0328832 0.215885 0.0542763
0.0414435 0.221286 0.055787
0.055024 0.225834 0.0593118
0.0804913 0.230106 0.0717784
0.121706 0.231617 0.0938125
0.150332 0.237064 0.102358
0.175875 0.24361 0.107225
0.202579 0.250187 0.109895
0.242863 0.256626 0.097673
0.303044 0.258259 0.0851911
0.354711 0.260197 0.0799725
0.394827 0.262501 0.0760815
0.434165 0.263828 0.0733349
0.475425 0.265064 0.0700999
0.516136 0.266697 0.0680552
0.554818 0.269215 0.0653086
0.591974 0.272557 0.0633555
0.627878 0.276005 0.0607004
0.664179 0.280079 0.059556
0.700221 0.284108 0.0583352
0.737087 0.287724 0.0572671
0.774273 0.290791 0.0569924
0.81146 0.293721 0.0563058
0.847623 0.29662 0.0557565
0.883101 0.299748 0.0553292
0.918334 0.302876 0.0544747
0.953124 0.305852 0.0538033
0.987152 0.308934 0.0531777
1 0.311788 0.0521401
1 0.314137 0.0515755
1 0.314199 0.0500954
1 0.314031 0.0488136
1 0.314366 0.0475624
0.0364538 0.245396 0.052369
0.0464179 0.249805 0.0581521
0.0605631 0.254505 0.0618753
0.0875868 0.259464 0.0753033
0.129061 0.260792 0.0976272
0.162554 0.265064 0.112367
0.187152 0.271962 0.116793
0.211673 0.279042 0.121202
0.238666 0.286076 0.12314
0.278965 0.293385 0.105211
0.338689 0.294057 0.0918288
0.39324 0.294987 0.0874037
0.435248 0.297932 0.0833295
0.473793 0.299641 0.0806897
0.515221 0.30045 0.0773785
0.556023 0.301518 0.074815
0.595514 0.303288 0.0719921
0.632944 0.306127 0.0701915
0.669108 0.309606 0.0680247
0.70486 0.313451 0.0665293
0.74023 0.317372 0.0649424
0.77583 0.320912 0.0641337
0.811505 0.323827 0.0628824
0.847532 0.32668 0.0619059
0.883253 0.329427 0.0614176
0.918502 0.332219 0.0607462
0.953399 0.334905 0.0598611
0.987671 0.337514 0.0594186
1 0.340063 0.05832
1 0.342214 0.057847
1 0.342611 0.0569009
1 0.342214 0.0556191
1 0.340902 0.0494087
0.0389868 0.275013 0.050309
0.0508125 0.278935 0.0585794
0.0681315 0.283253 0.0665141
0.0946059 0.287938 0.0803845
0.136233 0.29012 0.102449
0.175128 0.29369 0.123552
0.198596 0.30074 0.128145
0.222339 0.30782 0.133333
0.24625 0.314397 0.135302
0.272694 0.321889 0.134829
0.314916 0.32903 0.112306
0.374777 0.330236 0.0979324
0.430289 0.330037 0.0944228
0.473915 0.333394 0.0902113
0.512428 0.334981 0.0874952
0.553277 0.33576 0.0843061
0.594446 0.336446 0.0816968
0.634089 0.337865 0.0787213
0.671855 0.340169 0.0767071
0.708247 0.343053 0.0745861
0.74377 0.346349 0.0732433
0.779187 0.349813 0.0712596
0.813581 0.353475 0.0701305
0.848203 0.356878 0.0689555
0.883345 0.35993 0.0680705
0.918593 0.362463 0.0677958
0.95375 0.364782 0.0668498
0.988205 0.367239 0.066392
1 0.369574 0.0655222
1 0.371359 0.064622
1 0.371313 0.0633402
1 0.37142 0.0620737
1 0.366995 0.0445411
0.0428779 0.304097 0.0524758
0.0532998 0.308263 0.0578927
0.0726482 0.312383 0.0690318
0.102129 0.316701 0.0847639
0.143297 0.3196 0.10695
0.183734 0.322026 0.130892
0.209277 0.328466 0.139574
0.23212 0.33576 0.14406
0.255421 0.343069 0.147738
0.278813 0.350408 0.148882
0.306691 0.358282 0.145296
0.352605 0.363821 0.117891
0.411582 0.365225 0.103639
0.467292 0.365591 0.10071
0.511421 0.368627 0.0968338
0.550744 0.370809 0.0940414
0.590753 0.371542 0.091249
0.631708 0.37203 0.0886397
0.671427 0.372992 0.0858625
0.709682 0.374823 0.0838178
0.746258 0.377157 0.0813611
0.781079 0.379705 0.0794232
0.815915 0.382605 0.0775921
0.850233 0.385672 0.0766918
0.884306 0.388968 0.0752728
0.918303 0.392096 0.0739757
0.952468 0.394965 0.073228
0.986801 0.397177 0.0721904
1 0.399237 0.0717632
1 0.400732 0.0710307
1 0.401038 0.0701457
1 0.400488 0.0690318
1 0.395377 0.0452735
0.0456703 0.332845 0.057023
0.0589151 0.336339 0.0634623
0.0782025 0.340642 0.0736095
0.108141 0.34612 0.0894484
0.148791 0.348486 0.111208
0.192309 0.351049 0.139681
0.219577 0.356939 0.152087
0.241886 0.364202 0.156222
0.263951 0.371115 0.160189
0.287343 0.378256 0.161929
0.311788 0.385824 0.160922
0.343236 0.393042 0.153964
0.391669 0.398917 0.123491
0.448371 0.400061 0.109316
0.502892 0.400549 0.106722
0.547768 0.403754 0.103044
0.587686 0.406195 0.100359
0.626291 0.407141 0.098024
0.667216 0.407416 0.0952621
0.707073 0.407874 0.0929122
0.745663 0.409033 0.0907912
0.782574 0.410773 0.0884413
0.817945 0.413214 0.0866102
0.852064 0.416007 0.0847334
0.886122 0.41886 0.0834821
0.91986 0.421775 0.0817884
0.953445 0.424567 0.0814679
0.987106 0.427176 0.0802014
1 0.429755 0.0790112
1 0.431098 0.0786603
1 0.431083 0.0766461
1 0.430442 0.0755322
1 0.424933 0.0472267
0.0463874 0.362097 0.0576028
0.0608072 0.365454 0.0658885
0.0842298 0.369833 0.0792248
0.112398 0.374807 0.0933242
0.154192 0.377829 0.115633
0.196475 0.380331 0.144121
0.22858 0.384894 0.163943
0.250919 0.391974 0.168414
0.272786 0.399435 0.172793
0.295979 0.406592 0.175296
0.31989 0.413947 0.174884
0.346166 0.42121 0.172992
0.381186 0.427405 0.161135
0.42977 0.433051 0.129488
0.485008 0.434958 0.115724
0.538476 0.435203 0.113069
0.582559 0.438361 0.108812
0.623545 0.44126 0.10695
0.661646 0.442145 0.104402
0.701091 0.442527 0.102449
0.741115 0.442771 0.099855
0.780316 0.44329 0.0977493
0.817548 0.444556 0.095964
0.852888 0.446387 0.0941787
0.886946 0.448753 0.0921798
0.920836 0.451255 0.0905165
0.953918 0.45388 0.0888991
0.987121 0.456367 0.087892
1 0.45893 0.0864729
1 0.460746 0.0855879
1 0.461326 0.0847791
1 0.460945 0.0830549
1 0.455558 0.0533303
0.0490425 0.391073 0.063447
0.0632029 0.394659 0.070634
0.0849928 0.398703 0.0810712
0.116655 0.404028 0.0975662
0.157778 0.406806 0.120256
0.20029 0.409812 0.148959
0.238483 0.41326 0.177584
0.26009 0.420157 0.182071
0.281422 0.427161 0.185107
0.304356 0.43415 0.188251
0.327779 0.441138 0.188907
0.353094 0.447974 0.186679
0.381582 0.455146 0.183551
0.419898 0.461692 0.167803
0.467384 0.466682 0.135546
0.520806 0.468849 0.122515
0.572976 0.46981 0.119738
0.617014 0.47277 0.116182
0.657679 0.475715 0.113878
0.695827 0.476753 0.111116
0.734524 0.477195 0.109529
0.77406 0.477424 0.106615
0.812757 0.477852 0.104906
0.850431 0.478828 0.103243
0.886397 0.479988 0.101503
0.920638 0.481773 0.0995041
0.953536 0.483955 0.0977646
0.987274 0.486534 0.0965591
1 0.488624 0.0952468
1 0.490517 0.0941024
1 0.490898 0.0921645
1 0.49073 0.0907759
1 0.486213 0.0613107
0.0505684 0.419318 0.0692302
0.0678721 0.423194 0.0789654
0.0899977 0.427741 0.0894026
0.118975 0.433051 0.102281
0.160372 0.435859 0.124941
0.203311 0.439094 0.154391
0.242939 0.441703 0.184131
0.268605 0.447593 0.195682
0.290318 0.454459 0.198413
0.31252 0.461601 0.201663
0.336477 0.468605 0.203357
0.36083 0.475486 0.202228
0.388067 0.482155 0.199619
0.417609 0.488716 0.194675
0.457511 0.495079 0.174044
0.504494 0.500618 0.142672
0.555993 0.502312 0.130083
0.606348 0.503578 0.12665
0.650156 0.506752 0.123369
0.690852 0.51046 0.121233
0.729641 0.51162 0.118914
0.76759 0.512123 0.116884
0.806439 0.512413 0.114092
0.84506 0.512383 0.112551
0.883024 0.512688 0.110765
0.919051 0.513527 0.109316
0.953323 0.514931 0.107515
0.986587 0.516823 0.105791
1 0.518883 0.104219
1 0.520439 0.102495
1 0.520562 0.100801
1 0.520806 0.0993973
1 0.516915 0.0738537
0.0538186 0.448173 0.0803693
0.0713817 0.452216 0.0885939
0.0928359 0.456626 0.0971237
0.122454 0.461173 0.109636
0.161303 0.465019 0.130434
0.205081 0.467597 0.159564
0.24625 0.470695 0.19205
0.276936 0.475517 0.209979
0.298726 0.482277 0.213214
0.320867 0.488899 0.215503
0.344106 0.495262 0.216861
0.368277 0.502098 0.216892
0.39469 0.508766 0.214862
0.423209 0.515282 0.21207
0.454917 0.52224 0.204898
0.494896 0.528222 0.180377
0.540978 0.533669 0.150057
0.590723 0.536004 0.138125
0.639414 0.537636 0.134188
0.682063 0.5402 0.130968
0.722591 0.543893 0.128679
0.761791 0.54548 0.126314
0.799435 0.545937 0.124285
0.837537 0.546044 0.121965
0.875776 0.546151 0.120027
0.913558 0.546166 0.11841
0.950164 0.546654 0.116899
0.984741 0.547601 0.11545
1 0.549126 0.11339
1 0.550698 0.1122
1 0.551171 0.110353
1 0.550958 0.108217
1 0.548348 0.0880293
0.0575418 0.476326 0.09308
0.0758679 0.480064 0.101091
0.0969863 0.484596 0.107393
0.124498 0.489799 0.117723
0.162921 0.493462 0.138048
0.205173 0.496513 0.165911
0.247593 0.499718 0.197391
0.283207 0.502876 0.222461
0.306188 0.509178 0.227192
0.328817 0.515724 0.229435
0.35201 0.522316 0.231144
0.376303 0.528939 0.231922
0.402243 0.53547 0.230823
0.429648 0.541924 0.22797
0.45861 0.547784 0.223377
0.4916 0.554757 0.213397
0.532036 0.56141 0.186145
0.576623 0.566033 0.157488
0.62414 0.568795 0.14548
0.671565 0.570703 0.141268
0.714229 0.573571 0.139132
0.754284 0.576608 0.136706
0.793667 0.578744 0.134966
0.8309 0.579065 0.132921
0.868269 0.579339 0.130602
0.906004 0.579339 0.128588
0.943282 0.579232 0.126619
0.979629 0.579446 0.125292
1 0.580163 0.123629
1 0.58143 0.121828
1 0.58143 0.119966
1 0.580362 0.112642
1 0.579263 0.102708
0.0621805 0.504799 0.10724
0.0809644 0.508415 0.114214
0.102632 0.51281 0.121233
0.128954 0.517723 0.130709
0.163653 0.521645 0.147448
0.20499 0.525139 0.173266
0.246662 0.528084 0.202747
0.287556 0.530938 0.232883
0.31368 0.536477 0.241886
0.336187 0.54287 0.24358
0.359228 0.548745 0.24477
0.383871 0.555047 0.245563
0.408881 0.561608 0.245365
0.435538 0.567987 0.24329
0.464118 0.574105 0.240497
0.494697 0.580652 0.234852
0.528557 0.586816 0.221195
0.568261 0.593545 0.192584
0.61297 0.598367 0.166217
0.658167 0.601053 0.153307
0.703349 0.603235 0.148898
0.746014 0.605936 0.147402
0.786404 0.60943 0.14583
0.825284 0.611414 0.144366
0.862409 0.611811 0.142458
0.899153 0.61207 0.140215
0.936217 0.612161 0.138109
0.972763 0.61236 0.136278
1 0.612528 0.134676
1 0.612909 0.133074
1 0.611933 0.130678
1 0.6103 0.120165
1 0.609903 0.117266
0.0664988 0.53257 0.122698
0.085771 0.535637 0.129458
0.108385 0.540017 0.137301
0.135103 0.545373 0.147295
0.168811 0.549294 0.162417
0.203876 0.553109 0.181155
0.24564 0.556405 0.209033
0.288167 0.558785 0.239582
0.319921 0.563119 0.255055
0.342977 0.569268 0.25771
0.366888 0.575341 0.259174
0.391455 0.581613 0.260166
0.416587 0.587823 0.260487
0.442817 0.594125 0.259113
0.470115 0.59971 0.255879
0.499306 0.60589 0.252506
0.530678 0.612314 0.245502
0.565972 0.619013 0.228672
0.605035 0.625071 0.198581
0.648692 0.629618 0.174258
0.692775 0.632883 0.162402
0.736004 0.635142 0.157809
0.777905 0.637644 0.155962
0.817761 0.640894 0.155093
0.857298 0.643809 0.155032
0.893996 0.644175 0.153399
0.930144 0.644373 0.150866
0.966278 0.644495 0.148653
1 0.644495 0.147005
1 0.644465 0.14464
1 0.643336 0.142977
1 0.641611 0.134966
1 0.640513 0.133013
0.0716411 0.560311 0.142809
0.0911421 0.563272 0.149371
0.114488 0.56759 0.157321
0.141527 0.572076 0.166888
0.174624 0.576043 0.180011
0.20795 0.580484 0.196094
0.243626 0.58468 0.216495
0.287251 0.586984 0.245655
0.325154 0.590173 0.268086
0.350072 0.595911 0.272923
0.374273 0.601862 0.274098
0.398596 0.60734 0.274495
0.423957 0.613336 0.274632
0.449592 0.619501 0.273899
0.476448 0.625605 0.272389
0.505333 0.631388 0.269306
0.535607 0.637201 0.265003
0.566796 0.643336 0.255818
0.602594 0.65008 0.234882
0.642115 0.656306 0.205844
0.684443 0.660487 0.182895
0.727092 0.663615 0.171542
0.769223 0.666377 0.166735
0.81004 0.669215 0.165194
0.849104 0.671839 0.164599
0.888182 0.674678 0.165438
0.924895 0.675654 0.164385
0.960555 0.675746 0.161822
0.996048 0.675914 0.159472
1 0.67599 0.157671
1 0.675639 0.15523
1 0.673609 0.150637
1 0.671565 0.149783
0.0769818 0.587045 0.165774
0.096849 0.590097 0.171801
0.121111 0.593835 0.17969
0.148074 0.598856 0.18822
0.181094 0.602899 0.200641
0.213779 0.607294 0.21384
0.245945 0.611276 0.22945
0.285603 0.614771 0.25243
0.330358 0.616373 0.281849
0.35642 0.621714 0.286809
0.380835 0.627649 0.288991
0.406241 0.633341 0.290074
0.431479 0.63917 0.290517
0.457282 0.64509 0.289891
0.48336 0.650675 0.287556
0.510552 0.656458 0.285054
0.540337 0.661982 0.282612
0.571542 0.667979 0.277302
0.60322 0.674617 0.265415
0.638849 0.68072 0.241489
0.678096 0.686732 0.212863
0.719631 0.691356 0.191638
0.761105 0.694163 0.181338
0.801938 0.697002 0.175509
0.841733 0.699733 0.174289
0.88072 0.702632 0.174823
0.918624 0.704952 0.175662
0.9552 0.706401 0.175586
0.990494 0.706584 0.172915
1 0.706676 0.171099
1 0.706844 0.168521
1 0.70547 0.165118
1 0.703273 0.163836
0.0831617 0.613855 0.190448
0.103716 0.616693 0.195758
0.128252 0.620508 0.203433
0.155261 0.625238 0.211353
0.187579 0.628794 0.221134
0.219272 0.633204 0.233463
0.250568 0.637812 0.246006
0.285573 0.641596 0.26305
0.328374 0.644144 0.287678
0.362936 0.647913 0.302373
0.388022 0.653605 0.304326
0.412909 0.658778 0.30486
0.438636 0.664256 0.30515
0.464302 0.669947 0.304906
0.490211 0.675807 0.303395
0.517205 0.681651 0.301335
0.54612 0.68719 0.298543
0.575723 0.692454 0.295537
0.606714 0.698238 0.288411
0.639063 0.704845 0.273991
0.675212 0.711452 0.248981
0.713741 0.716793 0.220966
0.753948 0.721263 0.201099
0.794919 0.724468 0.190387
0.834409 0.727108 0.184756
0.87306 0.729763 0.182727
0.91136 0.732525 0.183459
0.949203 0.735409 0.186114
0.984894 0.736553 0.186831
1 0.737163 0.184634
1 0.737423 0.182727
1 0.736309 0.180285
1 0.734539 0.177752
0.0891585 0.639521 0.215549
0.110002 0.642313 0.220661
0.134997 0.64593 0.22707
0.162112 0.650706 0.234195
0.194095 0.654887 0.243824
0.226276 0.658991 0.254688
0.256153 0.663249 0.264927
0.287098 0.667826 0.276081
0.327382 0.671153 0.296834
0.36817 0.673457 0.316289
0.394202 0.678737 0.319173
0.41976 0.684092 0.320333
0.445441 0.689601 0.320836
0.47129 0.695232 0.320806
0.497581 0.700755 0.319417
0.523659 0.705959 0.316457
0.550912 0.711604 0.314687
0.580728 0.716976 0.312001
0.611353 0.722499 0.30811
0.641825 0.728481 0.298528
0.674495 0.734737 0.281514
0.710353 0.741222 0.255329
0.748837 0.746822 0.228717
0.787701 0.750744 0.208682
0.827588 0.753994 0.19794
0.866438 0.757046 0.192554
0.904372 0.759594 0.190448
0.941314 0.762081 0.191348
0.978576 0.764614 0.194736
1 0.766751 0.198276
1 0.76701 0.196063
1 0.766293 0.194278
1 0.765255 0.193225
0.0956436 0.6654 0.241321
0.117662 0.66804 0.24625
0.142809 0.671611 0.251743
0.169589 0.676249 0.258366
0.200656 0.680095 0.265934
0.232013 0.684276 0.275608
0.26247 0.688899 0.284901
0.293187 0.693523 0.29453
0.327016 0.697154 0.307271
0.368704 0.699992 0.326802
0.399969 0.70428 0.334203
0.425757 0.709285 0.335027
0.45182 0.714443 0.33521
0.477714 0.719692 0.335164
0.503716 0.725109 0.334432
0.530129 0.730709 0.332708
0.557229 0.736385 0.330007
0.585855 0.74168 0.327382
0.615167 0.74667 0.324575
0.64567 0.7523 0.318639
0.676539 0.75845 0.307744
0.709285 0.764599 0.288014
0.74464 0.770794 0.261036
0.782376 0.776226 0.234913
0.821103 0.780468 0.216052
0.859403 0.783475 0.204837
0.897444 0.786297 0.199115
0.934707 0.788983 0.197635
0.97113 0.791653 0.199313
1 0.793683 0.202426
1 0.795682 0.20763
1 0.795773 0.208621
1 0.795148 0.207858
0.102403 0.690532 0.266545
0.124529 0.692973 0.270512
0.149844 0.696635 0.275914
0.177005 0.701137 0.281788
0.206989 0.705669 0.28838
0.238529 0.709819 0.296757
0.26891 0.713695 0.304616
0.298665 0.718547 0.312795
0.329656 0.722957 0.321324
0.368429 0.726101 0.336522
0.404654 0.729213 0.347631
0.431205 0.734157 0.349523
0.457664 0.739483 0.350179
0.483742 0.744808 0.350301
0.510277 0.749966 0.349432
0.536431 0.755032 0.347356
0.562844 0.760479 0.344671
0.590112 0.766049 0.34229
0.619333 0.771252 0.338903
0.649332 0.776486 0.33608
0.679347 0.781811 0.327611
0.710353 0.788037 0.314534
0.743313 0.794476 0.292882
0.778317 0.800763 0.265476
0.815152 0.805371 0.239506
0.853117 0.809537 0.221302
0.890806 0.812924 0.210315
0.928161 0.815412 0.204654
0.964431 0.817853 0.202655
1 0.82034 0.204868
1 0.822736 0.209827
1 0.824155 0.218036
1 0.824353 0.222538
0.109285 0.715694 0.291218
0.132143 0.717998 0.295125
0.157794 0.721523 0.299275
0.184848 0.725994 0.304707
0.213382 0.73051 0.30985
0.24445 0.734661 0.316915
0.274754 0.73901 0.324407
0.304616 0.743679 0.331884
0.335012 0.748196 0.338613
0.367651 0.751751 0.346716
0.409247 0.754513 0.361913
0.436439 0.759335 0.364034
0.463188 0.764035 0.364752
0.48925 0.769085 0.364309
0.51548 0.77435 0.363714
0.541772 0.779675 0.362127
0.56846 0.785016 0.35964
0.59527 0.790585 0.356252
0.623178 0.795514 0.352972
0.652262 0.800534 0.34931
0.682704 0.805722 0.345205
0.712688 0.811688 0.335653
0.743038 0.817411 0.319707
0.775891 0.823804 0.29572
0.810498 0.829969 0.267994
0.847501 0.835004 0.242939
0.884337 0.838422 0.224857
0.921019 0.841886 0.213718
0.957961 0.84445 0.208408
0.993881 0.846784 0.206821
1 0.848783 0.209461
1 0.850889 0.217166
1 0.851728 0.227436
0.115846 0.740078 0.314534
0.139101 0.742382 0.318379
0.164599 0.745937 0.321645
0.192096 0.750484 0.326863
0.220035 0.755459 0.331502
0.25008 0.75993 0.337011
0.280324 0.76408 0.343801
0.309865 0.768154 0.349371
0.339666 0.772854 0.355108
