code/data/lut/43温暖蓝调3.cube
TITLE "LD - Golden Age 3"
# Copyright (c) 2019 Lens Distortions, LLC. All Rights Reserved.
# LensDistortions.com
# ref-GDA17
LUT_3D_SIZE 5
0.030045 0.0302739 0.0337987
0.24332 0.0378119 0.0467536
0.577157 0.0627909 0.0352941
0.865705 0.102937 0.0284428
1 0.131319 0.0253605
0.0328832 0.215885 0.0542763
0.242863 0.256626 0.097673
0.591974 0.272557 0.0633555
0.883101 0.299748 0.0553292
1 0.314366 0.0475624
0.0538186 0.448173 0.0803693
0.298726 0.482277 0.213214
0.540978 0.533669 0.150057
0.875776 0.546151 0.120027
1 0.548348 0.0880293
0.0956436 0.6654 0.241321
0.327016 0.697154 0.307271
0.557229 0.736385 0.330007
0.821103 0.780468 0.216052
1 0.795148 0.207858
0.148119 0.858732 0.41387
0.356252 0.894087 0.428595
0.587671 0.930068 0.428534
0.803281 0.969924 0.372564
1 0.992645 0.207553
0.033463 0.0365301 0.166812
0.250523 0.0381476 0.261494
0.600397 0.0353552 0.269642
0.895247 0.0502785 0.253895
1 0.0704967 0.236973
0.0311894 0.251133 0.263615
0.243549 0.268788 0.285298
0.566644 0.275746 0.266835
0.845869 0.304356 0.270115
1 0.330648 0.273457
0.0542763 0.481712 0.317174
0.307622 0.506874 0.395026
0.552438 0.536248 0.358618
0.886351 0.538842 0.30576
1 0.55021 0.304463
0.0932326 0.693843 0.396811
0.384649 0.724453 0.485725
0.582284 0.744991 0.502052
0.82884 0.779187 0.433249
1 0.785641 0.43508
0.138659 0.885145 0.521691
0.407477 0.922972 0.57145
0.621363 0.943816 0.571618
0.822293 0.973465 0.540932
1 0.99324 0.383948
0.0327459 0.0388647 0.412985
0.26273 0.0355993 0.533974
0.601068 0.0369726 0.542779
0.896605 0.0478676 0.543709
1 0.0636759 0.549661
0.0199588 0.28159 0.543938
0.20766 0.286763 0.509544
0.566552 0.275624 0.525734
0.859571 0.294118 0.510277
1 0.315099 0.521355
0.0421149 0.518059 0.518547
0.281071 0.530205 0.563134
0.554879 0.546014 0.54374
0.833097 0.554864 0.519585
1 0.558373 0.525628
0.0647593 0.729778 0.580407
0.358572 0.744686 0.632578
0.609384 0.757961 0.640818
0.830427 0.7832 0.598611
1 0.786068 0.589578
0.117678 0.918257 0.652033
0.390005 0.945663 0.679393
0.625116 0.958618 0.678599
0.833982 0.979217 0.671046
1 0.994369 0.596872
0.0320897 0.0421759 0.671824
0.271962 0.0392462 0.755184
0.602945 0.04654 0.75613
0.901335 0.0527047 0.762814
1 0.0680247 0.773739
0.0229343 0.285954 0.763745
0.203891 0.30782 0.695857
0.522438 0.296025 0.748791
0.855802 0.302571 0.73286
1 0.323323 0.736385
0.0285801 0.564553 0.718471
0.218143 0.564858 0.74641
0.523323 0.56173 0.727642
0.843793 0.551965 0.735439
1 0.562142 0.72578
0.0598306 0.764446 0.736996
0.328725 0.770275 0.773251
0.603021 0.775647 0.77322
0.834623 0.792081 0.755337
1 0.79205 0.746487
0.09514 0.955932 0.783276
0.345876 0.966857 0.797162
0.588418 0.979446 0.796368
0.844327 0.986816 0.800855
1 0.997269 0.775906
0.0294804 0.0425269 0.928771
0.276631 0.0385138 0.951003
0.610422 0.0406958 0.947921
0.89395 0.0725719 0.947127
1 0.0700084 0.946731
0.0211948 0.288518 0.956024
0.220645 0.320119 0.917449
0.502678 0.304891 0.954696
0.826123 0.3205 0.951965
1 0.333593 0.948531
0.0234684 0.581857 0.958251
0.212116 0.578073 0.9505
0.474144 0.573983 0.954604
0.804364 0.565576 0.954635
1 0.564752 0.951522
0.0457771 0.804349 0.945144
0.278813 0.800961 0.966354
0.535164 0.800473 0.968673
0.807874 0.797192 0.967041
1 0.790311 0.964858
0.0822309 0.987045 0.951003
0.329412 0.98584 0.954559
0.517906 0.995163 0.95967
0.816236 0.994995 0.959594
1 0.995712 0.960937
