code/data/lut/43温暖蓝调3.cube
TITLE "LD - Golden Age 3"
# Copyright (c) 2019 Lens Distortions, LLC. All Rights Reserved.
# LensDistortions.com
# ref-GDA17
LUT_3D_SIZE 9
0.030045 0.0302739 0.0337987
0.079408 0.0369879 0.0457008
0.24332 0.0378119 0.0467536
0.417395 0.0441444 0.0384222
0.577157 0.0627909 0.0352941
0.725353 0.0830243 0.0305943
0.865705 0.102937 0.0284428
1 0.121294 0.0261234
1 0.131319 0.0253605
0.0283818 0.0993515 0.0630655
0.0920424 0.114931 0.0685893
0.261448 0.122011 0.0521096
0.421637 0.134813 0.0447547
0.582132 0.149462 0.0389715
0.731426 0.169528 0.0350805
0.873396 0.188281 0.0329442
1 0.205264 0.0323186
1 0.21149 0.0298466
0.0328832 0.215885 0.0542763
0.121706 0.231617 0.0938125
0.242863 0.256626 0.097673
0.434165 0.263828 0.0733349
0.591974 0.272557 0.0633555
0.737087 0.287724 0.0572671
0.883101 0.299748 0.0553292
1 0.311788 0.0521401
1 0.314366 0.0475624
0.0456703 0.332845 0.057023
0.148791 0.348486 0.111208
0.263951 0.371115 0.160189
0.391669 0.398917 0.123491
0.587686 0.406195 0.100359
0.745663 0.409033 0.0907912
0.886122 0.41886 0.0834821
1 0.429755 0.0790112
1 0.424933 0.0472267
0.0538186 0.448173 0.0803693
0.161303 0.465019 0.130434
0.298726 0.482277 0.213214
0.39469 0.508766 0.214862
0.540978 0.533669 0.150057
0.722591 0.543893 0.128679
0.875776 0.546151 0.120027
1 0.549126 0.11339
1 0.548348 0.0880293
0.0716411 0.560311 0.142809
0.174624 0.576043 0.180011
0.325154 0.590173 0.268086
0.423957 0.613336 0.274632
0.535607 0.637201 0.265003
0.684443 0.660487 0.182895
0.849104 0.671839 0.164599
0.996048 0.675914 0.159472
1 0.671565 0.149783
0.0956436 0.6654 0.241321
0.200656 0.680095 0.265934
0.327016 0.697154 0.307271
0.45182 0.714443 0.33521
0.557229 0.736385 0.330007
0.676539 0.75845 0.307744
0.821103 0.780468 0.216052
0.97113 0.791653 0.199313
1 0.795148 0.207858
0.12285 0.76492 0.337697
0.225849 0.779889 0.351583
0.344762 0.797681 0.371756
0.471412 0.813809 0.391165
0.577523 0.833814 0.38616
0.686671 0.854398 0.370382
0.806165 0.876768 0.322881
0.944595 0.896666 0.224033
1 0.904799 0.212375
0.148119 0.858732 0.41387
0.249775 0.873274 0.422049
0.356252 0.894087 0.428595
0.47863 0.910979 0.435477
0.587671 0.930068 0.428534
0.691173 0.950286 0.406287
0.803281 0.969924 0.372564
0.920958 0.989487 0.294316
1 0.992645 0.207553
0.0323644 0.033402 0.0705425
0.084062 0.0387884 0.1019
0.247623 0.0368963 0.122454
0.428092 0.0350805 0.125353
0.598932 0.0378576 0.110521
0.752789 0.0440681 0.0947433
0.895842 0.0531624 0.0778363
1 0.0694133 0.0693828
1 0.0879377 0.0717784
0.0258183 0.114763 0.123537
0.0849928 0.124361 0.13518
0.24593 0.126543 0.130739
0.408972 0.13341 0.12578
0.566369 0.147829 0.12166
0.714397 0.167498 0.117891
0.856641 0.188327 0.116472
0.99469 0.204608 0.113161
1 0.212711 0.109224
0.0320134 0.233753 0.164797
0.113039 0.246036 0.196353
0.246952 0.260288 0.185275
0.433433 0.264179 0.147692
0.580941 0.274983 0.140047
0.729549 0.286259 0.136187
0.872343 0.298177 0.131655
1 0.310307 0.127886
1 0.314412 0.123812
0.0494545 0.35079 0.168826
0.156832 0.367117 0.228061
0.262791 0.380331 0.236271
0.403891 0.399847 0.229877
0.619471 0.396094 0.174838
0.751522 0.406027 0.165301
0.886015 0.416999 0.156252
1 0.425971 0.150576
1 0.421469 0.12491
0.0592966 0.464942 0.181231
0.187213 0.48452 0.246693
0.282567 0.497124 0.268894
0.413352 0.512169 0.315541
0.554971 0.533013 0.264271
0.775219 0.528496 0.205402
0.894484 0.538033 0.196368
1 0.545602 0.188556
1 0.54551 0.170367
0.072221 0.575113 0.228534
0.206043 0.594293 0.288762
0.299351 0.606439 0.313619
0.439521 0.619547 0.359182
0.546212 0.639338 0.366155
0.694804 0.659648 0.295064
0.900954 0.659556 0.24448
1 0.667994 0.233783
1 0.670069 0.258534
0.0939498 0.678813 0.307897
0.224994 0.697292 0.354162
0.321111 0.709087 0.373999
0.459327 0.721569 0.406958
0.574899 0.739895 0.414923
0.678798 0.759762 0.405325
0.827344 0.779583 0.322744
1 0.783886 0.286412
1 0.790112 0.306661
0.120317 0.777462 0.392966
0.240803 0.79588 0.422248
0.34049 0.807935 0.43476
0.466987 0.822538 0.450233
0.590707 0.838361 0.458808
0.698741 0.857374 0.45301
0.804318 0.876951 0.42153
0.94728 0.895201 0.329122
1 0.900343 0.336736
0.144427 0.871153 0.463386
0.257328 0.887861 0.480827
0.353475 0.905241 0.486549
0.47837 0.92018 0.493355
0.596902 0.93611 0.49131
0.702815 0.954101 0.476509
0.809094 0.972 0.44773
0.922103 0.991897 0.37528
1 0.992844 0.275517
0.033463 0.0365301 0.166812
0.0878004 0.0391394 0.227008
0.250523 0.0381476 0.261494
0.431022 0.0349584 0.270665
0.600397 0.0353552 0.269642
0.75378 0.0398566 0.265812
0.895247 0.0502785 0.253895
1 0.062089 0.2439
1 0.0704967 0.236973
0.01738 0.127764 0.256794
0.072343 0.131716 0.262776
0.242695 0.127489 0.270344
0.412314 0.131945 0.257237
0.576043 0.137819 0.256687
0.729274 0.14696 0.253162
0.87425 0.158907 0.244572
1 0.172061 0.236927
1 0.18146 0.231769
0.0311894 0.251133 0.263615
0.0984512 0.260548 0.287755
0.243549 0.268788 0.285298
0.407172 0.271351 0.271504
0.566644 0.275746 0.266835
0.709392 0.288808 0.267063
0.845869 0.304356 0.270115
0.980362 0.319677 0.272984
1 0.330648 0.273457
0.0377661 0.367315 0.301091
0.129503 0.378714 0.342763
0.271687 0.389349 0.334813
0.406516 0.403281 0.32256
0.587915 0.404761 0.289586
0.728222 0.412222 0.282643
0.863645 0.42153 0.283513
0.995239 0.43125 0.285222
1 0.431327 0.269825
0.0542763 0.481712 0.317174
0.188708 0.494438 0.36434
0.307622 0.506874 0.395026
0.408057 0.51986 0.382101
0.552438 0.536248 0.358618
0.75993 0.531685 0.312612
0.886351 0.538842 0.30576
1 0.545586 0.303365
1 0.55021 0.304463
0.0734874 0.591089 0.344747
0.214801 0.605417 0.386862
0.346746 0.619104 0.434165
0.440406 0.630091 0.433402
0.553368 0.642786 0.447623
0.69366 0.661021 0.397192
0.913954 0.653635 0.340337
1 0.658259 0.332448
1 0.67126 0.373175
0.0932326 0.693843 0.396811
0.234257 0.709331 0.432441
0.384649 0.724453 0.485725
0.474479 0.733928 0.491646
0.582284 0.744991 0.502052
0.686458 0.760693 0.511452
0.82884 0.779187 0.433249
1 0.770916 0.405509
1 0.785641 0.43508
0.116884 0.79202 0.461524
0.244419 0.80856 0.487327
0.402152 0.825315 0.536736
0.493584 0.83447 0.543084
0.595422 0.845197 0.544884
0.711833 0.859358 0.553338
0.803708 0.876188 0.548302
0.950088 0.892378 0.459464
1 0.896819 0.461982
0.138659 0.885145 0.521691
0.256229 0.899657 0.537469
0.407477 0.922972 0.57145
0.513954 0.932525 0.57258
0.621363 0.943816 0.571618
0.725368 0.957626 0.56405
0.822293 0.973465 0.540932
0.925887 0.989929 0.489265
1 0.99324 0.383948
0.0332036 0.0371862 0.286229
0.0944533 0.0386358 0.359106
0.25594 0.0368353 0.399725
0.432059 0.0361181 0.40856
0.600793 0.0363012 0.409125
0.75378 0.0401312 0.407752
0.896239 0.0471046 0.40827
1 0.0563211 0.409842
1 0.0667124 0.405646
0.0172732 0.127947 0.404013
0.0646067 0.141802 0.376074
0.2177 0.134646 0.409598
0.406867 0.134798 0.396384
0.573709 0.140612 0.388373
0.731029 0.146426 0.388144
0.876814 0.154208 0.39382
1 0.16643 0.394598
1 0.177356 0.392325
0.0244907 0.27393 0.377401
0.0751965 0.277989 0.407691
0.22858 0.275486 0.405905
0.406439 0.271 0.405432
0.568475 0.275608 0.384985
0.718807 0.282139 0.385443
0.857328 0.293751 0.388846
0.990539 0.306584 0.390768
1 0.318532 0.392828
0.0378424 0.386252 0.393774
0.109865 0.394812 0.423545
0.260044 0.401801 0.422507
0.402747 0.411399 0.418738
0.564309 0.41146 0.404273
0.704738 0.418814 0.39646
0.848325 0.424262 0.399802
0.971695 0.438376 0.403616
1 0.44242 0.400946
0.0418555 0.499413 0.428122
0.13344 0.509041 0.460166
0.291295 0.516869 0.481071
0.427756 0.526741 0.456184
0.558419 0.540764 0.44271
0.726101 0.541665 0.418173
0.861814 0.545861 0.413535
0.988952 0.552636 0.415671
1 0.555718 0.415671
0.0551003 0.609216 0.449454
0.198962 0.618357 0.481346
0.338109 0.628077 0.521447
0.459785 0.636378 0.525856
0.556588 0.649348 0.514443
0.695628 0.66421 0.480385
0.888838 0.660014 0.441642
1 0.665156 0.435386
1 0.672511 0.458808
0.0843366 0.711131 0.486992
0.233234 0.722301 0.517159
0.383169 0.73344 0.562615
0.49807 0.741573 0.590295
0.589349 0.752102 0.58024
0.685328 0.764965 0.575723
0.825513 0.780941 0.522332
1 0.77557 0.500481
1 0.785336 0.51165
0.108949 0.808698 0.538201
0.24062 0.821683 0.559716
0.406394 0.834974 0.602579
0.532143 0.843961 0.63064
0.622904 0.852979 0.630396
0.720928 0.863584 0.626062
0.817395 0.876982 0.634653
0.944152 0.891798 0.574685
1 0.897093 0.539925
0.129641 0.900572 0.587015
0.251408 0.912413 0.599573
0.400076 0.932967 0.624063
0.514183 0.940703 0.624964
0.623011 0.950591 0.625299
0.729671 0.96228 0.622187
0.827314 0.975769 0.60708
0.928298 0.990036 0.574777
1 0.993774 0.489982
0.0327459 0.0388647 0.412985
0.0996262 0.0383154 0.495018
0.26273 0.0355993 0.533974
0.430838 0.0408789 0.540703
0.601068 0.0369726 0.542779
0.754284 0.0411841 0.542809
0.896605 0.0478676 0.543709
1 0.0565805 0.547143
1 0.0636759 0.549661
0.0176242 0.128161 0.539895
0.0663615 0.149386 0.496132
0.19617 0.14258 0.536889
0.387076 0.143771 0.532311
0.568261 0.146288 0.520348
0.725521 0.152987 0.519173
0.8757 0.157748 0.522667
1 0.166598 0.529778
1 0.174441 0.534722
0.0199588 0.28159 0.543938
0.0730449 0.284886 0.522789
0.20766 0.286763 0.509544
0.380728 0.279072 0.538628
0.566552 0.275624 0.525734
0.717266 0.284138 0.514519
0.859571 0.294118 0.510277
0.993515 0.304616 0.515648
1 0.315099 0.521355
0.0328527 0.408789 0.48983
0.0800183 0.416464 0.528359
0.23154 0.416953 0.54377
0.391638 0.415763 0.538521
0.560052 0.411704 0.534401
0.710613 0.41706 0.510399
0.85304 0.422965 0.505226
0.979858 0.43299 0.511482
1 0.439612 0.517494
0.0421149 0.518059 0.518547
0.119265 0.525414 0.544701
0.281071 0.530205 0.563134
0.418524 0.537209 0.546502
0.554879 0.546014 0.54374
0.70808 0.545769 0.533242
0.833097 0.554864 0.519585
0.965896 0.559579 0.523033
1 0.558373 0.525628
0.0467536 0.626261 0.55021
0.148028 0.634012 0.57322
0.303975 0.639796 0.599359
0.450919 0.645182 0.60209
0.580179 0.654414 0.578576
0.703349 0.667735 0.565332
0.856886 0.668528 0.546502
0.982269 0.672404 0.540673
1 0.674098 0.552316
0.0647593 0.729778 0.580407
0.19968 0.736751 0.598077
0.358572 0.744686 0.632578
0.491798 0.749615 0.651362
0.609384 0.757961 0.640818
0.702586 0.76965 0.6327
0.830427 0.7832 0.598611
0.991241 0.781537 0.592294
1 0.786068 0.589578
0.0962234 0.826642 0.616678
0.229648 0.835615 0.631754
0.395758 0.846784 0.6645
0.525429 0.852842 0.687877
0.642588 0.858854 0.696544
0.740337 0.868009 0.688853
0.82768 0.879973 0.68925
0.943633 0.893385 0.652873
1 0.898054 0.615763
0.117678 0.918257 0.652033
0.25008 0.927672 0.662303
0.390005 0.945663 0.679393
0.508293 0.950835 0.67805
0.625116 0.958618 0.678599
0.732998 0.967651 0.678248
0.833982 0.979217 0.671046
0.933059 0.991089 0.653117
1 0.994369 0.596872
0.0316167 0.0399786 0.55079
0.1037 0.0385595 0.621408
0.266957 0.0372473 0.648829
0.439628 0.0371405 0.655955
0.594842 0.0504616 0.650309
0.75639 0.0432593 0.657023
0.898436 0.0499733 0.659495
1 0.0582895 0.664897
1 0.0654459 0.669306
0.0189517 0.13106 0.65301
0.0734569 0.152361 0.620554
0.200168 0.146715 0.645258
0.387457 0.14519 0.648722
0.554803 0.158282 0.636255
0.723812 0.158785 0.635935
0.873121 0.164675 0.640864
1 0.169497 0.64892
1 0.17789 0.653147
0.0212406 0.282795 0.661982
0.0771344 0.29012 0.632013
0.200839 0.297108 0.606561
0.340719 0.294377 0.643412
0.546944 0.286122 0.640772
0.716396 0.286549 0.634928
0.856611 0.298161 0.631205
0.992691 0.308568 0.630472
1 0.316609 0.63476
0.0241245 0.430442 0.632807
0.068864 0.432502 0.638422
0.21857 0.426642 0.636469
0.364736 0.428473 0.628595
0.541314 0.418723 0.645945
0.711955 0.416556 0.638407
0.849683 0.42504 0.627268
0.980423 0.434943 0.619303
1 0.43949 0.629129
0.0367742 0.54023 0.611429
0.0885939 0.547143 0.636149
0.241352 0.549676 0.660868
0.392386 0.552224 0.655711
0.548699 0.549752 0.647044
0.698741 0.54876 0.644724
0.840604 0.552773 0.62446
0.970855 0.559121 0.613657
1 0.559579 0.632822
0.0478065 0.644099 0.633021
0.133501 0.649989 0.650019
0.306264 0.653132 0.673609
0.447837 0.657282 0.673579
0.572793 0.664515 0.652873
0.699046 0.673777 0.654582
0.843168 0.671931 0.648234
0.966705 0.677806 0.632258
1 0.678035 0.6448
0.0577707 0.746807 0.66244
0.159564 0.753765 0.676768
0.322499 0.757992 0.69836
0.474922 0.759915 0.712261
0.600916 0.766461 0.703914
0.725658 0.774578 0.68484
0.838422 0.786923 0.671489
0.976211 0.787457 0.663828
1 0.788144 0.665461
0.0810559 0.845472 0.68957
0.206943 0.850141 0.698131
0.35555 0.860227 0.724498
0.497475 0.863478 0.747021
0.639887 0.866011 0.749859
0.750484 0.873365 0.741009
0.840009 0.884184 0.736782
0.94754 0.896864 0.71043
1 0.899077 0.68632
0.105699 0.937301 0.715587
0.225681 0.941161 0.719158
0.368078 0.956237 0.733974
0.489708 0.963439 0.73402
0.617807 0.967514 0.733577
0.735714 0.974182 0.734981
0.840894 0.982818 0.734432
0.939116 0.99263 0.725902
1 0.995956 0.688365
0.0320897 0.0421759 0.671824
0.107408 0.0404669 0.731762
0.271962 0.0392462 0.755184
0.443915 0.0387427 0.760342
0.602945 0.04654 0.75613
0.753216 0.0555734 0.755215
0.901335 0.0527047 0.762814
1 0.0611582 0.768551
1 0.0680247 0.773739
0.0204318 0.134524 0.75819
0.083238 0.148592 0.737865
0.219867 0.144045 0.751141
0.4009 0.14342 0.750713
0.567834 0.151568 0.745663
0.722225 0.16556 0.737713
0.875395 0.168582 0.743542
1 0.177859 0.750011
1 0.178897 0.758083
0.0229343 0.285954 0.763745
0.082887 0.292821 0.737652
0.203891 0.30782 0.695857
0.324437 0.308141 0.727337
0.522438 0.296025 0.748791
0.697093 0.300679 0.734005
0.855802 0.302571 0.73286
0.987579 0.316381 0.73254
1 0.323323 0.736385
0.0246738 0.436103 0.760082
0.0767529 0.436423 0.743404
0.215076 0.43508 0.72192
0.349508 0.440589 0.708736
0.497551 0.434669 0.741192
0.694072 0.425544 0.737728
0.851316 0.426001 0.733898
0.979141 0.436957 0.727962
1 0.442832 0.72845
0.0285801 0.564553 0.718471
0.068513 0.568521 0.735821
0.218143 0.564858 0.74641
0.377066 0.562417 0.73959
0.523323 0.56173 0.727642
0.687922 0.55407 0.74197
0.843793 0.551965 0.735439
0.969024 0.560571 0.722805
1 0.562142 0.72578
0.0443885 0.665766 0.717128
0.0986801 0.671946 0.73724
0.262898 0.67303 0.765515
0.411566 0.674189 0.774792
0.552209 0.67718 0.756909
0.697215 0.676295 0.747921
0.829267 0.676875 0.745312
0.965469 0.679164 0.72517
1 0.680354 0.733593
0.0598306 0.764446 0.736996
0.148379 0.769024 0.749355
0.328725 0.770275 0.773251
0.474388 0.77174 0.789181
0.603021 0.775647 0.77322
0.715846 0.783505 0.751812
0.834623 0.792081 0.755337
0.965316 0.791577 0.744762
1 0.79205 0.746487
0.0707408 0.863218 0.761532
0.186892 0.865583 0.76846
0.316136 0.873869 0.793469
0.487572 0.872816 0.812329
0.657649 0.870756 0.808316
0.749722 0.879515 0.803006
0.851637 0.888685 0.790448
0.952422 0.900313 0.773938
1 0.900298 0.76173
0.09514 0.955932 0.783276
0.211658 0.957488 0.786068
0.345876 0.966857 0.797162
0.445487 0.977569 0.798444
0.588418 0.979446 0.796368
0.723827 0.982559 0.797406
0.844327 0.986816 0.800855
0.945556 0.993912 0.801434
1 0.997269 0.775906
0.0319371 0.0437476 0.795132
0.10927 0.0413672 0.85153
0.275135 0.0397955 0.87631
0.446097 0.0397345 0.878019
0.609461 0.0415503 0.8757
0.753384 0.0600137 0.869184
0.900267 0.0600443 0.874739
1 0.0627756 0.883162
1 0.0697642 0.887877
0.0203861 0.1364 0.877424
0.0913252 0.141054 0.869581
0.24123 0.138537 0.871046
0.410636 0.142336 0.866484
0.585779 0.142931 0.861799
0.727611 0.163302 0.855528
0.878614 0.169207 0.856504
1 0.178073 0.862669
1 0.18674 0.867094
0.0228885 0.287999 0.879774
0.0867933 0.290761 0.861112
0.211658 0.316915 0.79089
0.326177 0.316136 0.825757
0.505104 0.303136 0.863813
0.681498 0.306706 0.854795
0.840146 0.316213 0.839643
0.986572 0.321126 0.840391
1 0.333761 0.842252
0.0249027 0.437049 0.881193
0.0812238 0.436072 0.862882
0.215534 0.443748 0.812711
0.343175 0.451209 0.792859
0.468132 0.451392 0.822782
0.663661 0.435386 0.854932
0.833768 0.436072 0.84033
0.97911 0.439109 0.837354
1 0.445487 0.838315
0.0252232 0.581064 0.856275
0.0691844 0.579141 0.857801
0.211109 0.574533 0.835843
0.363729 0.571466 0.827634
0.501915 0.573434 0.810773
0.645747 0.567071 0.848051
0.82739 0.558999 0.842008
0.971878 0.559518 0.837186
1 0.564538 0.83418
0.0368658 0.688701 0.822416
0.0736706 0.692836 0.842527
0.227329 0.689342 0.864912
0.385382 0.687144 0.873137
0.537621 0.685222 0.852125
0.665125 0.686549 0.845716
0.821942 0.679805 0.849012
0.967163 0.677363 0.842618
1 0.681727 0.836118
0.0558022 0.784314 0.826856
0.116197 0.788067 0.842466
0.282399 0.788022 0.87631
0.460273 0.784817 0.889403
0.593561 0.786267 0.875639
0.704936 0.792782 0.86627
0.82446 0.79501 0.85713
0.95967 0.792248 0.85185
1 0.792844 0.844724
0.0697032 0.879499 0.841001
0.179171 0.879789 0.849119
0.333516 0.883787 0.876982
0.56849 0.873243 0.874968
0.685527 0.875074 0.869108
0.770336 0.883528 0.866987
0.853559 0.893675 0.862119
0.951705 0.903197 0.858808
1 0.901854 0.852689
0.0869459 0.972747 0.860609
0.193561 0.972045 0.861708
0.325536 0.977859 0.872297
0.424201 0.985992 0.876631
0.547875 0.991943 0.877363
0.692195 0.992737 0.875303
0.831861 0.992752 0.875914
0.951141 0.994568 0.882063
1 0.997116 0.871153
0.0294804 0.0425269 0.928771
0.109773 0.0405432 0.947524
0.276631 0.0385138 0.951003
0.446967 0.0387427 0.949783
0.610422 0.0406958 0.947921
0.759213 0.0510567 0.947875
0.89395 0.0725719 0.947127
1 0.0641031 0.947356
1 0.0700084 0.946731
0.0187839 0.136889 0.950179
0.0939345 0.135241 0.951751
0.256413 0.134234 0.950256
0.420081 0.138796 0.94873
0.591318 0.140017 0.946471
0.742855 0.14995 0.945312
0.876371 0.173114 0.943725
1 0.173754 0.944106
1 0.18294 0.94345
0.0211948 0.288518 0.956024
0.0872969 0.286961 0.956756
0.220645 0.320119 0.917449
0.33547 0.316579 0.950988
0.502678 0.304891 0.954696
0.679591 0.306249 0.952895
0.826123 0.3205 0.951965
0.977798 0.327657 0.949844
1 0.333593 0.948531
0.0230869 0.437278 0.958816
0.0809491 0.433631 0.960052
0.218875 0.448493 0.928023
0.340291 0.458839 0.902174
0.461158 0.457237 0.938384
0.641505 0.44332 0.954726
0.812619 0.443153 0.95349
0.966873 0.444862 0.95172
1 0.444694 0.950744
0.0234684 0.581857 0.958251
0.0726787 0.57763 0.959915
0.212116 0.578073 0.9505
0.338064 0.577264 0.952377
0.474144 0.573983 0.954604
0.635477 0.569375 0.955322
0.804364 0.565576 0.954635
0.954803 0.565423 0.95317
1 0.564752 0.951522
0.0301823 0.706981 0.955581
0.0669413 0.706065 0.962554
0.208103 0.700893 0.960708
0.332616 0.699733 0.963806
0.491325 0.692699 0.96286
0.648997 0.687999 0.960937
0.801282 0.684459 0.959564
0.947433 0.68246 0.95906
1 0.680201 0.957122
0.0457771 0.804349 0.945144
0.0874647 0.807507 0.960571
0.278813 0.800961 0.966354
0.399908 0.801358 0.968872
0.535164 0.800473 0.968673
0.675212 0.799649 0.968231
0.807874 0.797192 0.967041
0.949401 0.79295 0.966445
1 0.790311 0.964858
0.0657511 0.896071 0.942794
0.147036 0.896742 0.951263
0.34052 0.894347 0.963211
0.467033 0.894118 0.964416
0.584558 0.895903 0.966247
0.701396 0.899214 0.967178
0.823224 0.902342 0.968246
0.943877 0.902953 0.967208
1 0.900008 0.967071
0.0822309 0.987045 0.951003
0.205249 0.983566 0.9505
0.329412 0.98584 0.954559
0.419196 0.991974 0.957671
0.517906 0.995163 0.95967
0.668956 0.994812 0.959045
0.816236 0.994995 0.959594
0.944762 0.995529 0.95993
1 0.995712 0.960937
