code/data/lut/44中性色调1.cube
TITLE "LD - Tonal Sand 1"
# Copyright (c) 2019 Lens Distortions, LLC. All Rights Reserved.
# LensDistortions.com
# ref-TS3
LUT_3D_SIZE 33
0.0104982 0.011017 0.0117494
0.0214084 0.0150149 0.015671
0.0342718 0.0187839 0.0191348
0.0513008 0.0230716 0.0229496
0.0724804 0.0278477 0.0269627
0.0963455 0.0331579 0.03122
0.121141 0.0386969 0.0353552
0.147387 0.0442664 0.0391394
0.175631 0.0497292 0.0424964
0.206744 0.055436 0.0456397
0.240681 0.0614176 0.048661
0.276097 0.0674601 0.0514839
0.31136 0.0734874 0.0540475
0.346319 0.0794537 0.0563973
0.379934 0.0852674 0.0586099
0.412787 0.0911421 0.0607919
0.443626 0.0967269 0.0628367
0.471702 0.101869 0.0646372
0.499046 0.106691 0.0662242
0.526146 0.11133 0.0676432
0.55285 0.115663 0.0688182
0.579614 0.119844 0.0698253
0.606424 0.123949 0.0707561
0.633356 0.127947 0.0716259
0.660395 0.131914 0.0725109
0.687129 0.135836 0.0733959
0.713405 0.139773 0.0741741
0.73904 0.143557 0.0749676
0.764126 0.147295 0.0758068
0.787945 0.15082 0.0766308
0.808576 0.153231 0.0773632
0.823865 0.153704 0.078172
0.838911 0.154223 0.0789654
0.0218204 0.0271305 0.0233005
0.0314031 0.0303502 0.0253452
0.0471962 0.0341955 0.0278782
0.0664073 0.0382849 0.0310369
0.0889448 0.0426795 0.0340887
0.113024 0.0476234 0.0371557
0.138277 0.0531014 0.0402991
0.165194 0.0587778 0.0433051
0.194629 0.0647135 0.0461891
0.226535 0.0708782 0.0488136
0.260182 0.0771801 0.0512093
0.29424 0.08336 0.0533761
0.32755 0.0893416 0.0552682
0.360189 0.0952926 0.057145
0.391089 0.100969 0.0588693
0.420294 0.106264 0.0604562
0.447333 0.111391 0.0618753
0.474235 0.11632 0.0633097
0.500633 0.120989 0.0644388
0.527001 0.125277 0.0654154
0.553307 0.129503 0.0662699
0.57995 0.133684 0.067216
0.606622 0.137819 0.0681315
0.633585 0.14197 0.0690776
0.660731 0.145998 0.0700847
0.687785 0.150011 0.0710155
0.714382 0.153964 0.0719158
0.74023 0.157763 0.0728618
0.765545 0.161532 0.0738994
0.789853 0.165072 0.0748302
0.811154 0.167651 0.0756542
0.826612 0.168093 0.0764477
0.84181 0.168536 0.0772106
0.033402 0.0472877 0.0354162
0.0431525 0.0502174 0.0373388
0.0572976 0.0539712 0.0378576
0.0787366 0.0573892 0.0379339
0.104036 0.0610208 0.0396429
0.129976 0.0657816 0.0419776
0.156268 0.071397 0.0444953
0.184146 0.0775311 0.047013
0.213718 0.08365 0.0492561
0.244938 0.0898604 0.0511177
0.276951 0.0960098 0.052842
0.308675 0.10193 0.0543526
0.339315 0.107698 0.0556802
0.368429 0.113024 0.0569314
0.395834 0.118105 0.0579232
0.422354 0.122957 0.059205
0.448707 0.127718 0.0602884
0.474952 0.132189 0.061326
0.500832 0.136461 0.0621958
0.527062 0.140581 0.0630198
0.553689 0.144778 0.0639811
0.580468 0.148882 0.0649271
0.607523 0.152987 0.0659648
0.634699 0.157031 0.0671092
0.662013 0.161074 0.0682841
0.689479 0.165042 0.0694285
0.716518 0.168917 0.0705425
0.742855 0.172717 0.0717632
0.768521 0.176394 0.0729839
0.79321 0.179919 0.0740368
0.815091 0.182589 0.0750439
0.830655 0.183001 0.0758221
0.845853 0.183352 0.0765545
0.0438697 0.0708782 0.0466163
0.0549783 0.074052 0.0487526
0.0691844 0.0778973 0.049958
0.0885481 0.0820935 0.0485084
0.116152 0.0861677 0.0458076
0.144839 0.0902724 0.0463722
0.172274 0.0953689 0.0478523
0.19971 0.101137 0.049485
0.22797 0.106783 0.0508431
0.257603 0.112459 0.0521401
0.28751 0.117891 0.053315
0.316289 0.122911 0.0542611
0.343725 0.127504 0.0552377
0.370443 0.132067 0.0563973
0.396597 0.136614 0.057557
0.422766 0.140948 0.0586557
0.448829 0.145052 0.0596017
0.475044 0.149187 0.0605173
0.501534 0.153246 0.0614786
0.528191 0.157244 0.0623636
0.555047 0.161135 0.0632486
0.582254 0.165133 0.0643015
0.609583 0.169024 0.0653849
0.637278 0.172839 0.0666209
0.66511 0.176761 0.0679026
0.692943 0.180606 0.0691997
0.720485 0.184375 0.0705272
0.747265 0.188098 0.0719463
0.773251 0.191745 0.0733196
0.798444 0.195315 0.0745708
0.820523 0.197894 0.075639
0.836225 0.198413 0.0764172
0.851347 0.198718 0.0771344
0.0543069 0.100298 0.0578622
0.0673991 0.10338 0.0605631
0.0821088 0.107195 0.0616007
0.100771 0.111116 0.0616312
0.124102 0.115373 0.0577096
0.152132 0.119402 0.0522011
0.180606 0.123796 0.0513619
0.209247 0.127977 0.0521401
0.236439 0.132357 0.0528267
0.263645 0.136446 0.053315
0.29102 0.140337 0.0539254
0.318013 0.144396 0.0549477
0.344503 0.148409 0.0561532
0.370855 0.15227 0.0572824
0.39707 0.1561 0.0583963
0.423438 0.159823 0.0596017
0.450019 0.163546 0.0608225
0.476783 0.167254 0.0619974
0.503822 0.171038 0.0632029
0.531121 0.174807 0.0643931
0.558465 0.178531 0.065507
0.586114 0.182177 0.0667277
0.613703 0.185794 0.067689
0.641688 0.189487 0.0687114
0.669841 0.193286 0.0698711
0.698085 0.196979 0.0709697
0.725795 0.200641 0.0721294
0.752682 0.204273 0.0734417
0.778958 0.207965 0.0747845
0.80441 0.211505 0.0759899
0.826398 0.213947 0.0770123
0.842588 0.214542 0.0777752
0.857771 0.214817 0.0784466
0.0650645 0.132921 0.0701457
0.0793622 0.135302 0.0729534
0.094377 0.138399 0.0736095
0.112703 0.141619 0.0733806
0.134325 0.144945 0.0724041
0.158328 0.148608 0.0670481
0.184131 0.152071 0.0599985
0.210651 0.154788 0.0574807
0.238926 0.157244 0.0573587
0.266545 0.159899 0.0578775
0.293584 0.162875 0.0584573
0.320241 0.165988 0.0591592
0.3467 0.169299 0.06009
0.373297 0.17261 0.0611124
0.399924 0.175921 0.0621195
0.426703 0.179339 0.0632792
0.453605 0.182742 0.0645457
0.480674 0.186236 0.0657969
0.507912 0.189792 0.0669718
0.535378 0.193256 0.0681468
0.56286 0.196689 0.0693675
0.590631 0.200092 0.070573
0.618799 0.203723 0.0716716
0.647013 0.207309 0.0728008
0.675166 0.210864 0.0738842
0.703548 0.214481 0.0749676
0.731456 0.218051 0.0759442
0.758648 0.221637 0.0769055
0.785061 0.225269 0.0778821
0.810529 0.228702 0.0788434
0.832517 0.231052 0.0797436
0.849226 0.231693 0.0803845
0.864439 0.231998 0.0810559
0.0762341 0.165331 0.0835279
0.0909285 0.166629 0.0862898
0.105821 0.168475 0.0863203
0.123339 0.16994 0.0851301
0.143938 0.171435 0.083772
0.165011 0.173754 0.0821698
0.186969 0.176593 0.0770733
0.211841 0.179446 0.0690471
0.238331 0.181537 0.0658579
0.266636 0.183307 0.0652171
0.295766 0.185061 0.0655375
0.323583 0.187518 0.065919
0.350408 0.190539 0.0663462
0.377081 0.193561 0.0668803
0.403861 0.196597 0.067689
0.430915 0.199832 0.0688029
0.45803 0.203021 0.0699168
0.485237 0.206165 0.0709392
0.512703 0.209384 0.0719921
0.540307 0.212726 0.0731518
0.568032 0.216098 0.0742657
0.595926 0.21944 0.0753643
0.624247 0.222889 0.0766003
0.652522 0.226337 0.0776379
0.680858 0.229755 0.078706
0.70927 0.233341 0.0798352
0.737209 0.236805 0.0808423
0.764523 0.240314 0.0817121
0.790921 0.243763 0.0825513
0.816556 0.247242 0.08336
0.838621 0.249622 0.0840162
0.855741 0.25037 0.0846113
0.871 0.250629 0.0852674
0.0865034 0.194568 0.0962234
0.10071 0.194491 0.0983139
0.115618 0.194965 0.0977188
0.133349 0.195514 0.0964828
0.153201 0.196063 0.0946059
0.173617 0.197253 0.0938888
0.192905 0.199802 0.0921798
0.214588 0.202564 0.0868391
0.239689 0.205341 0.0787823
0.266972 0.207553 0.0749371
0.295842 0.209293 0.0738384
0.325597 0.210788 0.0742199
0.354208 0.212787 0.0744945
0.38143 0.215534 0.0745556
0.408255 0.218448 0.074815
0.435218 0.221408 0.0754253
0.462287 0.224475 0.0762341
0.489738 0.227497 0.0770275
0.517433 0.230579 0.0780041
0.545205 0.233783 0.0789807
0.573129 0.236988 0.0799878
0.60119 0.240162 0.0809339
0.629465 0.243305 0.0820325
0.657877 0.246708 0.0829023
0.686473 0.250065 0.0839857
0.715023 0.253483 0.0850843
0.743175 0.256931 0.0860761
0.770413 0.260304 0.0869154
0.796872 0.263661 0.0878004
0.822522 0.267155 0.0885939
0.844678 0.269505 0.0892042
0.862257 0.270298 0.0897536
0.877638 0.270497 0.0903334
0.0963455 0.221469 0.108537
0.109438 0.22063 0.109667
0.124453 0.220295 0.108858
0.142245 0.22002 0.107546
0.161608 0.220264 0.105119
0.181811 0.221286 0.104067
0.200717 0.223453 0.10396
0.219944 0.2262 0.102327
0.242359 0.228962 0.0966201
0.26804 0.231724 0.0887465
0.296162 0.234165 0.0844892
0.325322 0.236057 0.0828717
0.355062 0.237644 0.0830091
0.384649 0.239322 0.0836957
0.41268 0.241642 0.0836957
0.439719 0.244434 0.0835279
0.46685 0.247333 0.0837568
0.494316 0.250156 0.0842603
0.521965 0.253071 0.0848707
0.549798 0.256046 0.085481
0.577813 0.259144 0.0863355
0.606149 0.262226 0.0871901
0.634684 0.265293 0.0880903
0.663294 0.268574 0.0889906
0.691859 0.271748 0.0898909
0.720577 0.274998 0.0908675
0.748821 0.278355 0.091783
0.776349 0.281697 0.0926223
0.802915 0.284993 0.0933852
0.828519 0.288334 0.0941176
0.850919 0.290761 0.0948043
0.868803 0.291615 0.0953536
0.884291 0.291783 0.0958724
0.105135 0.247593 0.119997
0.117479 0.246555 0.120394
0.132845 0.245777 0.119753
0.150744 0.245212 0.118532
0.170001 0.245151 0.115908
0.1897 0.246006 0.114244
0.208591 0.247929 0.114702
0.227726 0.250629 0.114305
0.247959 0.253483 0.112413
0.27126 0.256428 0.106432
0.297444 0.259419 0.0989548
0.325444 0.261799 0.0945296
0.354437 0.263722 0.0925154
0.3841 0.265431 0.092195
0.414023 0.266773 0.0928206
0.443275 0.268513 0.0931868
0.47129 0.271031 0.0929885
0.498817 0.273976 0.0928206
0.526497 0.276829 0.0928511
0.554452 0.279698 0.0931411
0.582483 0.282719 0.0935988
0.610956 0.285695 0.094255
0.639582 0.288563 0.0949111
0.668254 0.291646 0.0955367
0.697124 0.294759 0.0963302
0.726101 0.297902 0.0973373
0.75433 0.301091 0.0981613
0.78201 0.304463 0.0988937
0.808743 0.307668 0.0996109
0.834562 0.310964 0.100359
0.857282 0.31339 0.100999
0.875288 0.31426 0.101549
0.890822 0.314351 0.102022
0.113451 0.273991 0.131136
0.125154 0.273152 0.130816
0.140658 0.272114 0.130098
0.158907 0.271153 0.128969
0.17847 0.270954 0.126787
0.197772 0.271855 0.124529
0.216526 0.273732 0.124559
0.235523 0.276127 0.125719
0.255543 0.278843 0.124117
0.276844 0.281697 0.122271
0.300954 0.284703 0.116075
0.327382 0.287861 0.109438
0.355245 0.290364 0.104936
0.384115 0.292348 0.102876
0.413718 0.294163 0.102266
0.443915 0.295491 0.102647
0.474037 0.296803 0.103319
0.503044 0.298939 0.103243
0.530968 0.301625 0.102647
0.558907 0.304448 0.10222
0.587152 0.307301 0.102144
0.615732 0.310231 0.102525
0.644327 0.3131 0.1028
0.673228 0.31603 0.103166
0.702327 0.319112 0.103822
0.73138 0.322026 0.104494
0.759884 0.325139 0.105257
0.787549 0.328328 0.105989
0.814435 0.331426 0.106615
0.84036 0.334569 0.107317
0.863523 0.33695 0.107927
0.881575 0.337774 0.10837
0.897154 0.337835 0.108751
0.122194 0.30042 0.142718
0.133364 0.29958 0.141802
0.148455 0.298589 0.140658
0.166888 0.297581 0.139666
0.186801 0.297154 0.137987
0.206012 0.297871 0.135714
0.224643 0.299657 0.135561
0.243336 0.302052 0.13608
0.263188 0.304784 0.1364
0.284062 0.307591 0.135393
0.306584 0.310552 0.132555
0.331044 0.313695 0.126879
0.356909 0.316609 0.120684
0.384558 0.319158 0.116014
0.413458 0.321263 0.113619
0.443259 0.323018 0.112657
0.473686 0.324498 0.11281
0.504601 0.325719 0.113741
0.534752 0.327352 0.114229
0.563638 0.329656 0.113649
0.591836 0.332448 0.112688
0.62031 0.335332 0.112184
0.649073 0.338109 0.112078
0.67808 0.340993 0.112062
0.707195 0.343954 0.112337
0.736584 0.346792 0.112764
0.765087 0.349767 0.113436
0.792859 0.352728 0.113878
0.819883 0.355749 0.114351
0.845792 0.358679 0.114824
0.869505 0.361135 0.115373
0.887678 0.362005 0.115785
0.903288 0.36199 0.116014
0.131136 0.326528 0.154559
0.142199 0.325689 0.153582
0.157031 0.324834 0.152346
0.175051 0.323735 0.150759
0.194858 0.323095 0.148943
0.214359 0.323827 0.147707
0.232792 0.325704 0.147601
0.251286 0.328038 0.147829
0.270848 0.330648 0.148165
0.291356 0.333318 0.148257
0.313313 0.336294 0.14728
0.336431 0.339452 0.143938
0.360967 0.342641 0.138643
0.387015 0.345632 0.132418
0.414633 0.34815 0.127352
0.44361 0.350362 0.124697
0.473365 0.352178 0.123507
0.503807 0.353658 0.123369
0.534997 0.35491 0.124239
0.566217 0.356115 0.125277
0.596063 0.357961 0.125124
0.624796 0.360479 0.123919
0.653574 0.363272 0.123064
0.682689 0.366049 0.122545
0.711894 0.368887 0.12224
0.741253 0.371878 0.122179
0.769802 0.374731 0.12253
0.797711 0.3776 0.122667
0.824933 0.380606 0.123033
0.851118 0.383536 0.123339
0.875471 0.386099 0.123674
0.8934 0.38674 0.123919
0.909224 0.386877 0.124193
0.140002 0.352605 0.166659
0.150835 0.351751 0.165698
0.165484 0.350805 0.164294
0.183536 0.349737 0.162493
0.203311 0.349142 0.160754
0.222553 0.349813 0.159777
0.240726 0.351598 0.159655
0.259068 0.353933 0.159884
0.278462 0.356512 0.160266
0.299123 0.359442 0.160739
0.320531 0.362295 0.160769
0.342824 0.365316 0.159426
0.366003 0.36849 0.155917
0.390723 0.371527 0.150439
0.416892 0.374456 0.144045
0.444694 0.377234 0.138781
0.473747 0.3794 0.13608
0.503838 0.381277 0.1346
0.534508 0.382879 0.134295
0.565774 0.384329 0.134997
0.597604 0.385428 0.136233
0.628901 0.386801 0.136934
0.658579 0.389105 0.136172
0.687556 0.391882 0.134752
0.716762 0.39469 0.133928
0.746059 0.397604 0.133242
0.774746 0.400381 0.132891
0.802686 0.403128 0.132799
0.829755 0.405921 0.13283
0.856016 0.408927 0.132937
0.881025 0.411597 0.132921
0.898863 0.412131 0.133074
0.914778 0.412268 0.133165
0.148699 0.378668 0.178897
0.159274 0.377798 0.17789
0.173877 0.376867 0.176455
0.191882 0.375723 0.174563
0.211521 0.375067 0.172717
0.230686 0.375708 0.171801
0.248875 0.377661 0.171847
0.267079 0.380041 0.172229
0.286336 0.38262 0.17258
0.3066 0.385428 0.173007
0.327855 0.388235 0.173404
0.349905 0.391196 0.173342
0.372564 0.394507 0.171862
0.395987 0.397635 0.168246
0.420722 0.400641 0.162921
0.447074 0.403677 0.156451
0.474845 0.406485 0.150774
0.504143 0.408713 0.14757
0.534295 0.41059 0.145998
0.565133 0.412375 0.145342
0.596536 0.413825 0.145647
0.628611 0.414984 0.146777
0.660807 0.416236 0.148013
0.691951 0.41796 0.148089
0.721492 0.420523 0.146792
0.750698 0.423301 0.145586
0.779339 0.42623 0.144732
0.80734 0.429053 0.143984
0.834485 0.431846 0.143587
0.860761 0.434699 0.143542
0.88629 0.437491 0.143282
0.904036 0.437934 0.143023
0.920073 0.438132 0.142931
0.157259 0.404776 0.190997
0.167514 0.403891 0.18999
0.182101 0.402838 0.188525
0.200076 0.401755 0.186618
0.219715 0.401175 0.184863
0.238804 0.401907 0.1841
0.256901 0.403845 0.184192
0.275074 0.406195 0.184543
0.294087 0.408759 0.184955
0.314061 0.411536 0.185473
0.335271 0.414603 0.186084
0.357229 0.417533 0.186496
0.379522 0.420523 0.186297
0.402243 0.423728 0.184527
0.425757 0.426841 0.180926
0.450828 0.429892 0.175296
0.477363 0.433066 0.16878
0.505486 0.435996 0.162844
0.534981 0.438361 0.159274
0.565484 0.440314 0.157412
0.596445 0.442145 0.156588
0.628061 0.443717 0.156603
0.660227 0.445075 0.157519
0.692943 0.446265 0.158999
0.725261 0.447578 0.15993
0.755596 0.449775 0.159243
0.784161 0.452644 0.157778
0.812146 0.45536 0.156512
0.83917 0.458122 0.155444
0.865354 0.460838 0.154788
0.890929 0.463706 0.154406
0.908934 0.464393 0.153887
0.925093 0.46453 0.153521
0.165774 0.431052 0.203052
0.17557 0.430091 0.20206
0.190234 0.429129 0.200626
0.208301 0.428061 0.198779
0.227939 0.427451 0.197116
0.24686 0.428153 0.196277
0.264881 0.429984 0.196307
0.28304 0.432517 0.196841
0.302007 0.435218 0.197498
0.321904 0.43798 0.198016
0.342901 0.441001 0.198627
0.364508 0.443946 0.199237
0.386587 0.446952 0.199557
0.409033 0.450126 0.199176
0.43212 0.453498 0.197375
0.45623 0.456764 0.193591
0.481544 0.459815 0.187854
0.508446 0.463035 0.181353
0.536568 0.465888 0.175174
0.566171 0.468315 0.171206
0.596857 0.470497 0.169116
0.628229 0.472313 0.168048
0.659846 0.47396 0.167773
0.692088 0.475563 0.168368
0.725002 0.476768 0.169711
0.757794 0.477852 0.171099
0.788678 0.479469 0.171252
0.816938 0.482109 0.169772
0.843778 0.484871 0.168505
0.8701 0.487648 0.1673
0.895644 0.490486 0.166369
0.913802 0.491234 0.165698
0.930037 0.491508 0.165057
0.174243 0.457374 0.21503
0.183627 0.456565 0.214099
0.198291 0.455573 0.21265
0.216403 0.454383 0.210849
0.236103 0.453849 0.209201
0.2551 0.454658 0.20856
0.273091 0.45655 0.208743
0.291051 0.459083 0.209293
0.309865 0.461738 0.209918
0.329686 0.464546 0.210529
0.3505 0.467521 0.2112
0.372168 0.470787 0.211933
0.394095 0.47393 0.212573
0.416419 0.476982 0.212955
0.439246 0.480262 0.21239
0.46247 0.483497 0.210178
0.486793 0.486686 0.206149
0.512444 0.489921 0.200504
0.539361 0.493065 0.193866
0.567758 0.495995 0.187411
0.597559 0.498512 0.183139
0.628458 0.500786 0.18085
0.660014 0.502739 0.179446
0.692012 0.504509 0.178912
0.724285 0.506203 0.179263
0.757015 0.507576 0.18027
0.789517 0.508675 0.181827
0.820539 0.509987 0.183032
0.848707 0.512047 0.1823
0.874907 0.514809 0.180636
0.899825 0.517388 0.179232
0.918654 0.518547 0.177966
0.934722 0.518837 0.177203
0.182666 0.48397 0.22707
0.191943 0.483192 0.226123
0.20647 0.48217 0.224704
0.224491 0.481117 0.222965
0.244205 0.480674 0.221378
0.263157 0.481453 0.220813
0.281086 0.48333 0.221012
0.299062 0.485725 0.221515
0.317861 0.488533 0.222232
0.337575 0.491463 0.223056
0.358358 0.494575 0.223865
0.379889 0.497887 0.224659
0.40177 0.501015 0.22536
0.423987 0.504112 0.225925
0.446479 0.507317 0.226215
0.469413 0.510506 0.225391
0.492958 0.513756 0.222904
0.517723 0.517128 0.218799
0.543648 0.520409 0.213077
0.570947 0.523613 0.206409
0.599405 0.526604 0.199741
0.629313 0.529412 0.195117
0.660426 0.531655 0.192599
0.69218 0.533639 0.191058
0.724376 0.535592 0.190173
0.756756 0.537301 0.190173
0.788663 0.538781 0.19089
0.820172 0.53994 0.192081
0.850645 0.541085 0.193484
0.879164 0.54255 0.193896
0.904265 0.544823 0.192554
0.923583 0.546258 0.191043
0.939498 0.546578 0.189975
0.191196 0.510842 0.238987
0.200366 0.510002 0.23801
0.214603 0.509239 0.236774
0.232547 0.508202 0.235019
0.252232 0.507591 0.233417
0.271122 0.508446 0.232837
0.289128 0.510277 0.233097
0.307164 0.512795 0.233738
0.325948 0.515724 0.234623
0.345647 0.518746 0.235492
0.366323 0.521904 0.236362
0.387671 0.52517 0.237247
0.409415 0.528313 0.23798
0.431464 0.531472 0.238636
0.453941 0.534661 0.239292
0.47686 0.537987 0.239536
0.500038 0.541238 0.238453
0.52398 0.54461 0.235874
0.548974 0.547997 0.231693
0.575143 0.551202 0.225818
0.60267 0.554437 0.219013
0.631434 0.557626 0.212284
0.661295 0.560372 0.207202
0.692515 0.562737 0.204257
0.724529 0.564858 0.202564
0.756802 0.566934 0.20145
0.788663 0.568719 0.201022
0.819715 0.570321 0.201419
0.850065 0.571771 0.202487
0.879789 0.572808 0.203784
0.907546 0.573541 0.204883
0.928389 0.574258 0.204273
0.943969 0.57499 0.20499
0.19971 0.537942 0.250813
0.209094 0.537148 0.249882
0.22266 0.536522 0.248798
0.240589 0.535424 0.247074
0.260288 0.534783 0.245411
0.279377 0.535683 0.244907
0.297444 0.537621 0.245365
0.315373 0.5402 0.246189
0.334096 0.543069 0.247089
0.35378 0.546212 0.24799
0.374334 0.549355 0.24889
0.395544 0.552575 0.249729
0.417121 0.555932 0.250584
0.439139 0.559213 0.251423
0.461509 0.562448 0.25214
0.484321 0.565789 0.252766
0.507469 0.568978 0.252842
0.53106 0.572305 0.251545
0.55523 0.575662 0.248753
0.580514 0.57911 0.244388
0.607019 0.582361 0.238544
0.634791 0.585672 0.231708
0.66363 0.588952 0.224857
0.693736 0.591775 0.219333
0.725032 0.594247 0.216052
0.757031 0.596567 0.214069
0.788724 0.59855 0.212665
0.819654 0.600397 0.211948
0.84979 0.60209 0.211963
0.87924 0.603677 0.21268
0.907134 0.604654 0.213809
0.93109 0.604562 0.21503
0.947799 0.60441 0.2206
0.208148 0.565286 0.262654
0.217838 0.564614 0.26186
0.231022 0.563912 0.260746
0.248631 0.562875 0.259007
0.268421 0.56231 0.257404
0.287617 0.563119 0.256962
0.305684 0.56524 0.257511
0.32369 0.567864 0.258473
0.342428 0.570748 0.259449
0.36199 0.573877 0.260456
0.382452 0.577066 0.261341
0.403601 0.580407 0.262287
0.425193 0.583932 0.26331
0.44712 0.587243 0.264118
0.469337 0.590494 0.264851
0.491981 0.593729 0.265568
0.515053 0.597055 0.266102
0.538552 0.600366 0.26598
0.562432 0.603738 0.264485
0.586999 0.607279 0.261616
0.612451 0.61062 0.257099
0.639185 0.613886 0.251057
0.667109 0.617334 0.244266
0.696101 0.620554 0.237232
0.726345 0.623484 0.231266
0.757687 0.626062 0.227756
0.789044 0.628443 0.22565
0.819913 0.630533 0.223987
0.849912 0.632471 0.222995
0.879149 0.634348 0.222782
0.907347 0.635843 0.223087
0.932189 0.636393 0.224063
0.949248 0.636332 0.233371
0.216739 0.59295 0.27454
0.22649 0.592279 0.273793
0.239292 0.59147 0.272557
0.256901 0.590707 0.270985
0.276692 0.590158 0.269459
0.295933 0.590936 0.268925
0.314015 0.593088 0.269551
0.332006 0.595728 0.270573
0.350713 0.598627 0.271672
0.370291 0.601755 0.27274
0.390814 0.605158 0.273777
0.411887 0.608545 0.2748
0.433356 0.611963 0.275746
0.455161 0.615442 0.276661
0.477363 0.618784 0.277501
0.499901 0.62208 0.278233
0.522774 0.625483 0.278889
0.546151 0.628748 0.279316
0.569894 0.632044 0.279011
0.594095 0.635447 0.277302
0.618921 0.639017 0.274296
0.644785 0.642405 0.269627
0.671672 0.645747 0.2636
0.699779 0.649226 0.256733
0.728939 0.652491 0.249638
0.759106 0.655467 0.243259
0.789822 0.658213 0.239551
0.820401 0.660548 0.237263
0.850187 0.662669 0.235447
0.879225 0.664668 0.234195
0.907423 0.666606 0.233646
0.932616 0.667597 0.233829
0.950332 0.668116 0.243885
0.225467 0.620859 0.286397
0.235126 0.620188 0.285618
0.247654 0.619486 0.284459
0.265232 0.618799 0.282979
0.284977 0.618235 0.281376
0.304479 0.618921 0.280797
0.322484 0.621057 0.281544
0.340368 0.62385 0.282658
0.35903 0.626795 0.283803
0.378637 0.63003 0.285008
0.399207 0.633494 0.286152
0.420325 0.636896 0.287144
0.441718 0.64033 0.288121
0.46334 0.64387 0.289143
0.48542 0.647303 0.290028
0.507881 0.650675 0.290806
0.530694 0.654017 0.291508
0.553948 0.657435 0.292149
0.577478 0.6607 0.29247
0.601572 0.664088 0.291981
0.626093 0.667613 0.290181
0.651209 0.671107 0.286915
0.677302 0.674525 0.282109
0.704585 0.678065 0.276204
0.732677 0.681514 0.269322
0.761898 0.684749 0.262043
0.79147 0.687694 0.255543
0.821195 0.690486 0.251545
0.850721 0.692912 0.249134
0.879667 0.695094 0.247166
0.907683 0.697215 0.245747
0.932708 0.698543 0.244892
0.951644 0.699611 0.255085
0.234134 0.648997 0.298039
0.243809 0.648371 0.297322
0.256168 0.647776 0.296284
0.273548 0.647013 0.294743
0.293309 0.646586 0.293202
0.312963 0.647211 0.292638
0.330922 0.649363 0.293355
0.348837 0.652277 0.294606
0.367544 0.655283 0.295827
0.387106 0.658549 0.297124
0.407645 0.662013 0.298299
0.428702 0.665492 0.299382
0.450065 0.668986 0.30045
0.471748 0.672465 0.301457
0.493675 0.676051 0.302434
0.515969 0.679484 0.303288
0.538674 0.682872 0.304006
0.561822 0.686351 0.304707
0.585367 0.689693 0.305272
0.609308 0.693019 0.305547
0.633646 0.696605 0.304906
0.658473 0.700084 0.302831
0.683848 0.703578 0.299519
0.710201 0.707042 0.294606
0.737591 0.710552 0.288518
0.765957 0.714046 0.281697
0.794583 0.717311 0.274601
0.823148 0.720439 0.268208
0.85182 0.723156 0.263966
0.880339 0.725567 0.261372
0.908232 0.727855 0.259266
0.93341 0.729458 0.257679
0.953124 0.730953 0.267781
0.242771 0.67715 0.30956
0.252384 0.676722 0.30898
0.264561 0.676219 0.307988
0.281987 0.675547 0.306493
0.301732 0.675181 0.305058
0.321355 0.675807 0.304433
0.339391 0.677928 0.305135
0.357366 0.680827 0.306447
0.376074 0.684001 0.30782
0.395666 0.687251 0.309102
0.416129 0.690669 0.310338
0.437095 0.694286 0.311589
0.458488 0.697826 0.312703
0.48014 0.701366 0.313771
0.502083 0.704982 0.314809
0.524285 0.708446 0.315648
0.546792 0.711894 0.316411
0.569818 0.715328 0.317128
0.593301 0.718853 0.317861
0.617151 0.72221 0.318395
0.641413 0.725628 0.318547
0.666072 0.729213 0.317678
0.691051 0.732754 0.315557
0.716762 0.736263 0.311986
0.743374 0.739849 0.307103
0.770809 0.743221 0.301015
0.798627 0.746624 0.294209
0.826444 0.749874 0.287297
0.853971 0.753048 0.281071
0.881605 0.755856 0.276631
0.909041 0.758267 0.273838
0.934295 0.76022 0.271824
0.954757 0.761913 0.281666
0.251392 0.705226 0.32108
0.260853 0.70486 0.320485
0.273014 0.704433 0.319509
0.290318 0.703883 0.31812
0.310033 0.703502 0.316655
0.329793 0.704311 0.316091
0.347921 0.706462 0.316884
0.365835 0.709346 0.318181
0.384527 0.712535 0.31957
0.404059 0.715816 0.320928
0.424536 0.71928 0.322332
0.44564 0.722911 0.323659
0.467018 0.726452 0.324804
0.488518 0.729976 0.325887
0.510353 0.733501 0.326833
0.53257 0.737118 0.327764
0.555093 0.740612 0.328618
0.578027 0.744091 0.329366
0.601312 0.747677 0.330144
0.625025 0.751095 0.3308
0.64918 0.754482 0.33135
