code/data/lut/44中性色调1.cube
TITLE "LD - Tonal Sand 1"
# Copyright (c) 2019 Lens Distortions, LLC. All Rights Reserved.
# LensDistortions.com
# ref-TS3
LUT_3D_SIZE 9
0.0104982 0.011017 0.0117494
0.0724804 0.0278477 0.0269627
0.175631 0.0497292 0.0424964
0.31136 0.0734874 0.0540475
0.443626 0.0967269 0.0628367
0.55285 0.115663 0.0688182
0.660395 0.131914 0.0725109
0.764126 0.147295 0.0758068
0.838911 0.154223 0.0789654
0.0543069 0.100298 0.0578622
0.124102 0.115373 0.0577096
0.236439 0.132357 0.0528267
0.344503 0.148409 0.0561532
0.450019 0.163546 0.0608225
0.558465 0.178531 0.065507
0.669841 0.193286 0.0698711
0.778958 0.207965 0.0747845
0.857771 0.214817 0.0784466
0.0963455 0.221469 0.108537
0.161608 0.220264 0.105119
0.242359 0.228962 0.0966201
0.355062 0.237644 0.0830091
0.46685 0.247333 0.0837568
0.577813 0.259144 0.0863355
0.691859 0.271748 0.0898909
0.802915 0.284993 0.0933852
0.884291 0.291783 0.0958724
0.131136 0.326528 0.154559
0.194858 0.323095 0.148943
0.270848 0.330648 0.148165
0.360967 0.342641 0.138643
0.473365 0.352178 0.123507
0.596063 0.357961 0.125124
0.711894 0.368887 0.12224
0.824933 0.380606 0.123033
0.909224 0.386877 0.124193
0.165774 0.431052 0.203052
0.227939 0.427451 0.197116
0.302007 0.435218 0.197498
0.386587 0.446952 0.199557
0.481544 0.459815 0.187854
0.596857 0.470497 0.169116
0.725002 0.476768 0.169711
0.843778 0.484871 0.168505
0.930037 0.491508 0.165057
0.19971 0.537942 0.250813
0.260288 0.534783 0.245411
0.334096 0.543069 0.247089
0.417121 0.555932 0.250584
0.507469 0.568978 0.252842
0.607019 0.582361 0.238544
0.725032 0.594247 0.216052
0.84979 0.60209 0.211963
0.947799 0.60441 0.2206
0.234134 0.648997 0.298039
0.293309 0.646586 0.293202
0.367544 0.655283 0.295827
0.450065 0.668986 0.30045
0.538674 0.682872 0.304006
0.633646 0.696605 0.304906
0.737591 0.710552 0.288518
0.85182 0.723156 0.263966
0.953124 0.730953 0.267781
0.267933 0.759289 0.343236
0.326162 0.758404 0.339147
0.40087 0.767636 0.342367
0.483192 0.781628 0.348013
0.570901 0.795895 0.352132
0.664485 0.809873 0.355291
0.763317 0.823392 0.353933
0.865751 0.836774 0.336324
0.960967 0.848066 0.319265
0.296208 0.851225 0.379568
0.353689 0.852659 0.376425
0.428717 0.862745 0.380224
0.511223 0.877333 0.386694
0.598718 0.892103 0.39202
0.691264 0.906477 0.396124
0.789181 0.920272 0.399451
0.887449 0.933837 0.396277
0.976028 0.945663 0.382055
0.0166934 0.017258 0.0385443
0.0765393 0.0338293 0.0626078
0.17261 0.0571908 0.0904707
0.30106 0.0817121 0.117174
0.424475 0.103975 0.132357
0.533028 0.121324 0.136751
0.642023 0.136751 0.137133
0.747875 0.151293 0.13576
0.824338 0.158083 0.135607
0.0604105 0.105058 0.099855
0.127535 0.118776 0.10576
0.225223 0.137438 0.115938
0.320684 0.157595 0.127031
0.425895 0.173877 0.135637
0.537423 0.18822 0.139101
0.652033 0.201144 0.139605
0.76524 0.213062 0.137911
0.846494 0.219821 0.137789
0.103441 0.220706 0.159426
0.182239 0.215366 0.164477
0.252415 0.225528 0.156252
0.358877 0.234455 0.149401
0.462562 0.246265 0.155108
0.570581 0.259068 0.158297
0.683757 0.271946 0.159503
0.794705 0.285084 0.160388
0.876173 0.291432 0.159747
0.135302 0.326375 0.205493
0.235416 0.315679 0.221118
0.291081 0.325872 0.222629
0.36492 0.34052 0.208682
0.479957 0.349187 0.183474
0.602243 0.354589 0.187106
0.715557 0.365454 0.187747
0.826581 0.376608 0.188052
0.907073 0.383291 0.189288
0.170047 0.43151 0.250751
0.267857 0.423331 0.26862
0.325383 0.432807 0.273991
0.394369 0.44622 0.275013
0.477958 0.461219 0.26154
0.601968 0.4701 0.220661
0.735454 0.473823 0.22266
0.852186 0.481483 0.222721
0.932494 0.489448 0.227207
0.203998 0.539223 0.295354
0.296818 0.533516 0.311604
0.358343 0.543191 0.32047
0.427344 0.556695 0.318471
0.507408 0.571038 0.322698
0.604013 0.585214 0.308141
0.729747 0.595636 0.263111
0.859083 0.60119 0.260884
0.949584 0.607248 0.294118
0.238666 0.651011 0.341146
0.31989 0.646983 0.349798
0.388678 0.657038 0.361425
0.462425 0.670741 0.36347
0.545266 0.685191 0.366934
0.634348 0.699718 0.368414
0.737362 0.713939 0.352193
0.856092 0.725429 0.310567
0.958373 0.732006 0.313054
0.272511 0.761608 0.386862
0.335805 0.760693 0.385916
0.415274 0.770306 0.398703
0.496345 0.784146 0.409461
0.577432 0.79855 0.40647
0.669291 0.812741 0.417166
0.765133 0.826703 0.412146
0.86772 0.840299 0.39469
0.96437 0.85069 0.36556
0.301091 0.853849 0.424369
0.359991 0.855192 0.421912
0.436545 0.865751 0.429206
0.520638 0.880583 0.441825
0.604059 0.895232 0.442176
0.695705 0.909651 0.446021
0.79295 0.923491 0.450507
0.890333 0.936965 0.44741
0.979248 0.948791 0.430854
0.0241398 0.0247196 0.0789807
0.0881208 0.0390021 0.117342
0.186755 0.0624094 0.154376
0.302937 0.0893263 0.188098
0.410864 0.112734 0.206928
0.512535 0.130434 0.214298
0.618402 0.146044 0.21796
0.722988 0.160464 0.219623
0.799084 0.167147 0.221164
0.0643931 0.11368 0.151293
0.121004 0.131029 0.15555
0.217716 0.144488 0.182971
0.311254 0.163592 0.188251
0.413611 0.17969 0.199878
0.52137 0.194064 0.209049
0.633997 0.207431 0.215183
0.745129 0.2206 0.219181
0.826368 0.2271 0.220935
0.105135 0.22446 0.210849
0.182223 0.217914 0.219745
0.246677 0.230594 0.20705
0.34345 0.242283 0.21117
0.442603 0.256977 0.221729
0.542168 0.275914 0.23122
0.651194 0.29337 0.240223
0.764736 0.309239 0.247654
0.859281 0.319188 0.25008
0.140261 0.328893 0.255222
0.236774 0.318013 0.267231
0.291966 0.329091 0.263798
0.375265 0.3411 0.254978
0.488121 0.348821 0.248814
0.591501 0.361364 0.254215
0.698863 0.375601 0.261845
0.809064 0.389471 0.268177
0.896773 0.39913 0.271077
0.175296 0.433875 0.300038
0.280491 0.42475 0.312078
0.350362 0.432349 0.325948
0.417945 0.444755 0.326909
0.5037 0.45803 0.312032
0.619074 0.467201 0.289464
0.741527 0.474311 0.289509
0.85008 0.485222 0.294133
0.925872 0.500557 0.314107
0.209659 0.541833 0.345388
0.305882 0.535485 0.355734
0.412848 0.540505 0.392279
0.470756 0.553063 0.395361
0.543114 0.567056 0.392416
0.624704 0.583581 0.371542
0.74226 0.595438 0.329885
0.869963 0.599893 0.327153
0.946761 0.613962 0.371725
0.244495 0.653498 0.391699
0.32813 0.649256 0.397101
0.458366 0.655787 0.451118
0.519753 0.667521 0.459861
0.584131 0.681987 0.458228
0.654765 0.698421 0.456031
0.744793 0.715251 0.430594
0.863691 0.727123 0.372137
0.960861 0.735897 0.395712
0.278584 0.764263 0.438056
0.346212 0.763226 0.438819
0.489799 0.772519 0.50309
0.550225 0.784298 0.510918
0.612299 0.79855 0.510033
0.690074 0.813169 0.512398
0.764416 0.829725 0.514824
0.864988 0.844175 0.490379
0.968139 0.853651 0.425772
0.307195 0.856687 0.476112
0.366522 0.857862 0.473869
0.502495 0.871244 0.528542
0.570733 0.882994 0.537835
0.639353 0.896696 0.538308
0.716396 0.911238 0.536187
0.804746 0.925475 0.539361
0.894789 0.939559 0.53782
0.982712 0.95227 0.491478
0.0319829 0.0326085 0.129015
0.0984665 0.0455787 0.178943
0.206394 0.0652323 0.236027
0.320424 0.0923171 0.269368
0.414008 0.117662 0.280659
0.50695 0.137011 0.287083
0.606073 0.154238 0.292424
0.705821 0.169741 0.296071
0.78024 0.176944 0.29868
0.0701152 0.122042 0.216495
0.125353 0.145373 0.204944
0.207706 0.152346 0.26154
0.308141 0.170336 0.260594
0.401633 0.189456 0.268269
0.505974 0.203311 0.280812
0.614588 0.216266 0.292454
0.723415 0.229969 0.299489
0.803998 0.237263 0.302647
0.107652 0.229236 0.272496
0.173449 0.226444 0.26862
0.23769 0.238483 0.267613
0.333501 0.248905 0.287892
0.432105 0.265324 0.284092
0.533455 0.281712 0.297246
0.640986 0.298604 0.30837
0.752163 0.3149 0.318013
0.843244 0.325338 0.324498
0.144884 0.332357 0.314321
0.228489 0.322728 0.325032
0.295308 0.331563 0.329946
0.368063 0.34699 0.316976
0.471168 0.357946 0.320317
0.571298 0.372778 0.327703
0.677226 0.388403 0.3393
0.781262 0.408057 0.348837
0.882704 0.413245 0.347692
0.180377 0.437034 0.357733
0.270619 0.428382 0.368551
0.348333 0.43447 0.389487
0.411765 0.450217 0.375875
0.500206 0.463096 0.366567
0.622492 0.469398 0.362356
0.728862 0.482277 0.366735
0.832502 0.497139 0.374655
0.921111 0.50811 0.382437
0.215274 0.544732 0.401968
0.312154 0.537987 0.409339
0.419455 0.543053 0.438148
0.469947 0.557046 0.438865
0.543694 0.570825 0.439567
0.639796 0.583581 0.424903
0.771954 0.588907 0.406683
0.875044 0.601022 0.404456
0.947326 0.617929 0.42797
0.250401 0.656458 0.44773
0.343343 0.651728 0.453361
0.470924 0.657694 0.496315
0.532876 0.669017 0.506554
0.599268 0.682643 0.509911
0.678279 0.697398 0.506142
0.774624 0.711711 0.487892
0.890333 0.721447 0.454871
0.964523 0.738094 0.461952
0.284627 0.766964 0.49366
0.357488 0.765637 0.495155
0.499718 0.774685 0.547158
0.599268 0.782956 0.577829
0.657618 0.796216 0.581827
0.734462 0.809369 0.581659
0.807996 0.825544 0.574578
0.891554 0.840528 0.572152
0.973007 0.85658 0.489143
0.313451 0.85977 0.531899
0.373816 0.860838 0.530419
0.508263 0.873381 0.575708
0.578088 0.885161 0.587106
0.649363 0.898695 0.593301
0.722438 0.913848 0.590723
0.809369 0.928573 0.592554
0.898375 0.942855 0.592065
0.986465 0.95584 0.552438
0.0396735 0.0404059 0.190585
0.108141 0.052491 0.248722
0.218189 0.0709392 0.321584
0.336858 0.0939803 0.361669
0.428244 0.118029 0.365057
0.512764 0.13991 0.364706
0.605295 0.159365 0.368261
0.698787 0.176455 0.37232
0.770016 0.184543 0.375921
0.0755016 0.130343 0.289418
0.136065 0.156405 0.270878
0.201495 0.160266 0.330098
0.307012 0.17525 0.35082
0.405417 0.195071 0.34641
0.502327 0.210971 0.356451
0.605432 0.225025 0.36733
0.709041 0.238758 0.378088
0.786862 0.246677 0.383413
0.11191 0.233463 0.339376
0.173465 0.235752 0.318349
0.232685 0.249485 0.314199
0.321019 0.255711 0.37258
0.426841 0.270451 0.370382
0.519707 0.291218 0.373068
0.626215 0.307897 0.380392
0.734874 0.323583 0.39321
0.822416 0.333333 0.403677
0.149126 0.336233 0.37966
0.21976 0.329274 0.381598
0.289403 0.337575 0.38703
0.359579 0.353857 0.388861
0.45745 0.365316 0.404898
0.561181 0.381476 0.39379
0.669078 0.395773 0.403388
0.772641 0.413642 0.418387
0.867048 0.420096 0.427405
0.184665 0.440497 0.420218
0.26862 0.432273 0.427115
0.348394 0.436973 0.455039
0.415137 0.452934 0.444404
0.494148 0.468833 0.434256
0.604013 0.478981 0.438087
0.704921 0.494881 0.44361
0.812207 0.509636 0.454047
0.912398 0.516228 0.456397
0.220218 0.548089 0.463462
0.305409 0.541115 0.471458
0.389853 0.5467 0.508522
0.468116 0.558602 0.515099
0.536263 0.576944 0.494285
0.629969 0.590555 0.48452
0.759655 0.59646 0.482643
0.861524 0.609979 0.48629
0.946578 0.622431 0.494118
0.25594 0.659586 0.508705
0.337499 0.654917 0.511589
0.465995 0.660365 0.555871
0.539132 0.67155 0.561639
0.595239 0.687694 0.559045
0.674205 0.702449 0.559625
0.775296 0.715434 0.545373
0.891768 0.722087 0.558999
0.968124 0.740169 0.537881
0.290455 0.769955 0.554208
0.369711 0.768368 0.556909
0.511498 0.777173 0.600244
0.606409 0.78558 0.625101
0.664408 0.798581 0.632776
0.735424 0.812512 0.638666
0.813657 0.827756 0.637049
0.896468 0.840742 0.659388
0.978027 0.859098 0.563043
0.319402 0.862867 0.592401
0.387091 0.864302 0.59353
0.517037 0.875776 0.63032
0.582269 0.887724 0.639597
0.653239 0.901457 0.646754
0.729854 0.916396 0.650767
0.814023 0.931777 0.651194
0.90248 0.946395 0.651637
0.990433 0.959442 0.620127
0.0470588 0.0478981 0.263157
0.118029 0.0594949 0.328252
0.227207 0.0773938 0.40972
0.342916 0.0981308 0.452476
0.440909 0.117525 0.459815
0.528267 0.138781 0.455314
0.613611 0.160845 0.451789
0.701656 0.179843 0.453254
0.769619 0.189303 0.456184
0.0804913 0.137881 0.368917
0.146136 0.15845 0.361547
0.211398 0.163195 0.406775
0.317037 0.174395 0.4383
0.418097 0.192905 0.445518
0.512795 0.213107 0.442496
0.60853 0.229175 0.449165
0.70724 0.24387 0.458381
0.781262 0.253147 0.46389
0.11606 0.237583 0.410819
0.179217 0.24062 0.390982
0.234974 0.260166 0.367941
0.293645 0.268391 0.435706
0.42298 0.276081 0.464958
0.524788 0.294438 0.458244
0.617914 0.317525 0.461387
0.723598 0.334173 0.46952
0.809552 0.342962 0.480232
0.152911 0.339925 0.449973
0.216693 0.336767 0.438819
0.283482 0.347204 0.434653
0.348653 0.36527 0.436164
0.447379 0.371252 0.494331
0.554513 0.385534 0.491096
0.650095 0.406195 0.489326
0.756848 0.423804 0.491951
0.84712 0.430396 0.508263
0.188815 0.44419 0.489616
0.261692 0.437354 0.492988
0.338552 0.442679 0.514092
0.411734 0.457908 0.510445
0.488365 0.474189 0.517037
0.5832 0.48835 0.529549
0.694926 0.50341 0.515496
0.805631 0.517479 0.515831
0.892836 0.52517 0.543633
0.224475 0.551507 0.530343
0.305623 0.545144 0.534173
0.396368 0.549783 0.571054
0.474662 0.560967 0.583337
0.538857 0.580377 0.565057
0.624964 0.596109 0.558297
0.741222 0.605905 0.56347
0.844602 0.620508 0.565286
0.938949 0.629664 0.574563
0.260731 0.662928 0.574716
0.338781 0.658183 0.579232
0.429725 0.664546 0.619364
0.516075 0.673655 0.650721
0.592599 0.68925 0.644388
0.665843 0.708797 0.619287
0.764324 0.723171 0.609873
0.880034 0.731289 0.620661
0.96994 0.743496 0.612329
0.295827 0.773312 0.619791
0.36434 0.771725 0.620737
0.493523 0.779904 0.664164
0.595087 0.787671 0.70132
0.672862 0.800671 0.694759
0.734585 0.816892 0.693141
0.811841 0.832197 0.695354
0.896925 0.84567 0.704372
0.983291 0.861234 0.644831
0.325154 0.866209 0.65771
0.386435 0.86714 0.657206
0.513695 0.878599 0.688136
0.587747 0.89044 0.699825
0.659983 0.904158 0.708171
0.736751 0.919097 0.715343
0.819562 0.93492 0.718044
0.907042 0.949996 0.718288
0.994415 0.963104 0.694987
0.0540932 0.0552377 0.347112
0.128054 0.0664988 0.417762
0.23508 0.0843366 0.500557
0.345159 0.103044 0.542153
0.444785 0.119829 0.554177
0.541375 0.137469 0.555703
0.630549 0.158572 0.549157
0.712612 0.179934 0.543389
0.776761 0.191196 0.543343
0.0853895 0.144732 0.453803
0.154513 0.15227 0.464546
0.227588 0.162478 0.493477
0.325002 0.174731 0.524468
0.42739 0.189517 0.541985
0.530144 0.206195 0.546914
0.62388 0.227558 0.543786
0.71426 0.247028 0.545556
0.785702 0.255772 0.549966
0.119615 0.241428 0.486763
0.183108 0.24155 0.478431
0.24242 0.270893 0.431647
0.289845 0.279835 0.492073
0.402731 0.285512 0.555215
0.523339 0.300954 0.558495
0.626886 0.32047 0.551553
0.720134 0.344747 0.554635
0.807492 0.352041 0.565164
0.156512 0.343511 0.524926
0.220005 0.34139 0.511315
0.284306 0.356847 0.490242
0.34493 0.376135 0.488472
0.412406 0.385885 0.560037
0.551431 0.390478 0.58999
0.656123 0.407828 0.583383
0.74818 0.431312 0.584222
0.837491 0.439948 0.591211
0.192599 0.447623 0.563668
0.256138 0.443183 0.558831
0.329885 0.451682 0.562097
0.40354 0.466758 0.564141
0.474144 0.486183 0.56669
0.579461 0.492393 0.62266
0.688304 0.507088 0.619669
0.782483 0.528267 0.614206
0.874067 0.536278 0.627482
0.228565 0.555032 0.603449
0.298711 0.549752 0.604761
0.386069 0.554482 0.63653
0.467185 0.566003 0.650034
0.538491 0.584634 0.639368
0.622095 0.600092 0.650477
0.712825 0.617136 0.661143
0.829374 0.630472 0.644984
0.917617 0.639353 0.667796
0.265034 0.666545 0.645548
0.340475 0.662074 0.647776
0.441474 0.66807 0.684276
0.528603 0.67599 0.717021
0.603342 0.691814 0.711604
0.667155 0.712871 0.691752
0.760327 0.728405 0.688975
0.871427 0.739239 0.692073
0.964492 0.749035 0.698894
0.300526 0.776715 0.689677
0.368505 0.774929 0.691112
0.473167 0.782818 0.729671
0.557809 0.791348 0.77142
0.674784 0.801129 0.782727
0.732036 0.818967 0.775921
0.805524 0.8383 0.75523
0.895262 0.85214 0.752422
0.987961 0.86305 0.735653
0.330434 0.869856 0.727306
0.392569 0.870771 0.727611
0.503243 0.881529 0.752163
0.579278 0.893996 0.763668
0.658259 0.907546 0.774258
0.742428 0.922042 0.783948
0.825986 0.937972 0.790616
0.911589 0.95346 0.791897
0.998306 0.966476 0.775464
0.0605783 0.062089 0.438148
0.137362 0.0733349 0.511681
0.241505 0.0907759 0.588983
0.345998 0.108125 0.627405
0.445777 0.123033 0.644663
0.545571 0.138979 0.651362
0.643442 0.156619 0.650935
0.730449 0.176883 0.644282
0.792111 0.189334 0.639597
0.0895857 0.150423 0.53875
0.159731 0.153704 0.551598
0.238575 0.163684 0.577478
0.328908 0.17731 0.608454
0.432197 0.189319 0.633051
0.534615 0.206058 0.645136
0.639445 0.221515 0.64889
0.732082 0.242618 0.646281
0.798825 0.255421 0.644358
0.122698 0.244907 0.564721
0.185824 0.242634 0.56492
0.251331 0.280003 0.507424
0.295918 0.286687 0.566522
0.396536 0.29099 0.635676
0.510842 0.307347 0.660273
0.630716 0.325628 0.656855
0.733532 0.345937 0.651499
0.813764 0.363729 0.654719
0.159854 0.346792 0.600717
0.222461 0.343038 0.595483
0.289631 0.365347 0.556985
0.346868 0.387167 0.547723
0.400275 0.401602 0.602106
0.522988 0.401923 0.683101
0.655161 0.413428 0.686336
0.759396 0.432013 0.680049
0.841321 0.445884 0.683604
0.195987 0.450828 0.638758
0.258549 0.447166 0.632761
0.329229 0.461219 0.615
0.39852 0.476738 0.618997
0.465736 0.497505 0.62031
0.540841 0.507073 0.694163
0.685847 0.511406 0.720043
0.789929 0.528435 0.714275
0.871778 0.543252 0.717693
0.232273 0.55848 0.677714
0.293919 0.554879 0.675227
0.375341 0.56199 0.687388
0.454063 0.574777 0.700038
0.530373 0.593057 0.697597
0.598718 0.612696 0.708553
0.713939 0.620142 0.751598
0.822339 0.634012 0.751629
0.904601 0.648234 0.755962
0.269001 0.669917 0.718257
0.332876 0.666743 0.718227
0.431266 0.671855 0.749325
0.534783 0.681208 0.768734
0.614649 0.696406 0.765072
0.67422 0.716045 0.765499
0.749218 0.734661 0.778256
0.85333 0.747585 0.789059
0.94316 0.758587 0.79469
0.304524 0.780118 0.759243
0.374166 0.778317 0.761135
0.483299 0.786328 0.79266
0.635081 0.793088 0.813794
0.713909 0.803632 0.817288
0.76437 0.820554 0.822492
0.815152 0.840497 0.825925
0.892012 0.857771 0.817945
0.988098 0.866087 0.822416
0.334554 0.873381 0.795727
0.394491 0.874281 0.796017
0.493538 0.88455 0.814664
0.571893 0.897566 0.827115
0.652094 0.911376 0.839094
0.737102 0.925902 0.851102
0.828016 0.941176 0.861753
0.914458 0.956924 0.86595
0.99942 0.969619 0.855299
0.0651713 0.0665141 0.506874
0.143832 0.0778821 0.581094
0.245624 0.0951095 0.651835
0.346532 0.111513 0.688472
0.445426 0.125734 0.709697
0.5467 0.140688 0.72134
0.647562 0.156893 0.725109
0.740902 0.174853 0.723262
0.806241 0.18677 0.719387
0.0924544 0.153613 0.600107
0.162646 0.156451 0.613474
0.242359 0.165988 0.639551
0.332311 0.178973 0.672267
0.432547 0.191485 0.700435
0.537545 0.205249 0.717922
0.643641 0.221408 0.72694
0.743587 0.239017 0.729
0.813703 0.252186 0.726894
0.124788 0.247257 0.624552
0.187564 0.244007 0.628656
0.25922 0.282261 0.602853
0.305211 0.281956 0.653849
0.402884 0.291981 0.700145
0.520867 0.304387 0.732937
0.627482 0.326146 0.747799
0.745815 0.342901 0.747753
0.830228 0.359854 0.745388
0.162188 0.34902 0.660212
0.224018 0.34461 0.659236
0.295476 0.369848 0.638376
0.347524 0.390997 0.637522
0.405081 0.400916 0.686122
0.5178 0.408331 0.744625
0.637613 0.422217 0.771221
0.765332 0.433463 0.775921
0.856352 0.443503 0.773571
0.198489 0.453178 0.698878
0.260288 0.449195 0.696513
0.332845 0.466377 0.683864
0.383825 0.480552 0.697292
0.452888 0.494423 0.725628
0.54934 0.509194 0.761395
0.666545 0.520928 0.796674
0.790753 0.532296 0.806119
0.88394 0.542107 0.804211
0.234989 0.560922 0.738598
0.296071 0.557702 0.737224
0.372152 0.568582 0.738643
0.416007 0.582177 0.752071
0.504326 0.597879 0.767819
0.598169 0.614023 0.786984
0.704677 0.626017 0.82298
0.823987 0.636759 0.837949
0.9131 0.64799 0.837568
0.272145 0.672633 0.779782
0.332311 0.670054 0.779263
0.441489 0.678447 0.791089
0.510552 0.691493 0.801907
0.580163 0.706416 0.813733
0.657526 0.723079 0.826413
0.744457 0.7393 0.845762
0.856535 0.749233 0.870466
0.942138 0.761639 0.872038
0.307073 0.783001 0.820859
0.367361 0.781842 0.821118
0.504814 0.791379 0.835798
0.574304 0.803235 0.846769
0.644877 0.816663 0.858457
0.721538 0.83125 0.870848
0.801694 0.84715 0.883421
0.886076 0.861555 0.90103
0.973022 0.872923 0.907713
0.337789 0.876402 0.855604
0.399115 0.877409 0.857145
0.500114 0.887572 0.868666
0.573144 0.900649 0.880888
0.652766 0.914809 0.893889
0.738582 0.929549 0.907286
0.82919 0.944823 0.920989
0.918242 0.959808 0.933776
1 0.971298 0.932448
