code/data/lut/44中性色调1.cube
TITLE "LD - Tonal Sand 1"
# Copyright (c) 2019 Lens Distortions, LLC. All Rights Reserved.
# LensDistortions.com
# ref-TS3
LUT_3D_SIZE 5
0.0104982 0.011017 0.0117494
0.175631 0.0497292 0.0424964
0.443626 0.0967269 0.0628367
0.660395 0.131914 0.0725109
0.838911 0.154223 0.0789654
0.0963455 0.221469 0.108537
0.242359 0.228962 0.0966201
0.46685 0.247333 0.0837568
0.691859 0.271748 0.0898909
0.884291 0.291783 0.0958724
0.165774 0.431052 0.203052
0.302007 0.435218 0.197498
0.481544 0.459815 0.187854
0.725002 0.476768 0.169711
0.930037 0.491508 0.165057
0.234134 0.648997 0.298039
0.367544 0.655283 0.295827
0.538674 0.682872 0.304006
0.737591 0.710552 0.288518
0.953124 0.730953 0.267781
0.296208 0.851225 0.379568
0.428717 0.862745 0.380224
0.598718 0.892103 0.39202
0.789181 0.920272 0.399451
0.976028 0.945663 0.382055
0.0241398 0.0247196 0.0789807
0.186755 0.0624094 0.154376
0.410864 0.112734 0.206928
0.618402 0.146044 0.21796
0.799084 0.167147 0.221164
0.105135 0.22446 0.210849
0.246677 0.230594 0.20705
0.442603 0.256977 0.221729
0.651194 0.29337 0.240223
0.859281 0.319188 0.25008
0.175296 0.433875 0.300038
0.350362 0.432349 0.325948
0.5037 0.45803 0.312032
0.741527 0.474311 0.289509
0.925872 0.500557 0.314107
0.244495 0.653498 0.391699
0.458366 0.655787 0.451118
0.584131 0.681987 0.458228
0.744793 0.715251 0.430594
0.960861 0.735897 0.395712
0.307195 0.856687 0.476112
0.502495 0.871244 0.528542
0.639353 0.896696 0.538308
0.804746 0.925475 0.539361
0.982712 0.95227 0.491478
0.0396735 0.0404059 0.190585
0.218189 0.0709392 0.321584
0.428244 0.118029 0.365057
0.605295 0.159365 0.368261
0.770016 0.184543 0.375921
0.11191 0.233463 0.339376
0.232685 0.249485 0.314199
0.426841 0.270451 0.370382
0.626215 0.307897 0.380392
0.822416 0.333333 0.403677
0.184665 0.440497 0.420218
0.348394 0.436973 0.455039
0.494148 0.468833 0.434256
0.704921 0.494881 0.44361
0.912398 0.516228 0.456397
0.25594 0.659586 0.508705
0.465995 0.660365 0.555871
0.595239 0.687694 0.559045
0.775296 0.715434 0.545373
0.968124 0.740169 0.537881
0.319402 0.862867 0.592401
0.517037 0.875776 0.63032
0.653239 0.901457 0.646754
0.814023 0.931777 0.651194
0.990433 0.959442 0.620127
0.0540932 0.0552377 0.347112
0.23508 0.0843366 0.500557
0.444785 0.119829 0.554177
0.630549 0.158572 0.549157
0.776761 0.191196 0.543343
0.119615 0.241428 0.486763
0.24242 0.270893 0.431647
0.402731 0.285512 0.555215
0.626886 0.32047 0.551553
0.807492 0.352041 0.565164
0.192599 0.447623 0.563668
0.329885 0.451682 0.562097
0.474144 0.486183 0.56669
0.688304 0.507088 0.619669
0.874067 0.536278 0.627482
0.265034 0.666545 0.645548
0.441474 0.66807 0.684276
0.603342 0.691814 0.711604
0.760327 0.728405 0.688975
0.964492 0.749035 0.698894
0.330434 0.869856 0.727306
0.503243 0.881529 0.752163
0.658259 0.907546 0.774258
0.825986 0.937972 0.790616
0.998306 0.966476 0.775464
0.0651713 0.0665141 0.506874
0.245624 0.0951095 0.651835
0.445426 0.125734 0.709697
0.647562 0.156893 0.725109
0.806241 0.18677 0.719387
0.124788 0.247257 0.624552
0.25922 0.282261 0.602853
0.402884 0.291981 0.700145
0.627482 0.326146 0.747799
0.830228 0.359854 0.745388
0.198489 0.453178 0.698878
0.332845 0.466377 0.683864
0.452888 0.494423 0.725628
0.666545 0.520928 0.796674
0.88394 0.542107 0.804211
0.272145 0.672633 0.779782
0.441489 0.678447 0.791089
0.580163 0.706416 0.813733
0.744457 0.7393 0.845762
0.942138 0.761639 0.872038
0.337789 0.876402 0.855604
0.500114 0.887572 0.868666
0.652766 0.914809 0.893889
0.82919 0.944823 0.920989
1 0.971298 0.932448
