code/data/lut/45中性色调2.cube
TITLE "LD - Tonal Sand 2"
# Copyright (c) 2019 Lens Distortions, LLC. All Rights Reserved.
# LensDistortions.com
# ref-TS3
LUT_3D_SIZE 9
0.0266575 0.0268559 0.0271916
0.062974 0.0367742 0.0363622
0.136492 0.0513313 0.0473487
0.252308 0.0689403 0.0573892
0.369085 0.0863966 0.0658732
0.472541 0.100298 0.0715496
0.577813 0.112459 0.0755627
0.673365 0.123003 0.078584
0.732006 0.12369 0.0804608
0.0539101 0.0826581 0.0565652
0.0986801 0.0939651 0.0579232
0.184909 0.108278 0.0582284
0.279042 0.12224 0.0637064
0.375692 0.13518 0.0692149
0.479515 0.147951 0.0742504
0.588754 0.160632 0.078645
0.693584 0.173251 0.0834669
0.753841 0.17615 0.0872816
0.0877089 0.178897 0.0960708
0.130907 0.178027 0.0936141
0.196841 0.186175 0.0900587
0.292958 0.196307 0.0848402
0.394522 0.206409 0.0877546
0.501106 0.217731 0.0918135
0.614252 0.229938 0.0963607
0.722179 0.242313 0.100938
0.786862 0.247761 0.11104
0.120424 0.274098 0.136187
0.163027 0.271321 0.132876
0.227131 0.278599 0.13402
0.305791 0.291386 0.130343
0.408301 0.302113 0.120119
0.524422 0.309819 0.122545
0.639887 0.321157 0.123903
0.752087 0.333028 0.127749
0.821927 0.340185 0.150423
0.153674 0.373541 0.179507
0.196185 0.370489 0.176287
0.260838 0.378119 0.17818
0.336431 0.39173 0.183368
0.424308 0.406058 0.177371
0.535195 0.418448 0.164446
0.662882 0.426688 0.169619
0.77966 0.437385 0.169024
0.854749 0.446326 0.204578
0.189654 0.480354 0.227192
0.230304 0.477607 0.224125
0.2963 0.485664 0.226825
0.37145 0.500877 0.233722
0.457115 0.516686 0.239796
0.554055 0.532326 0.231876
0.672221 0.546517 0.217105
0.797894 0.55671 0.22063
0.884642 0.566567 0.270176
0.228748 0.595804 0.277043
0.266712 0.593759 0.274708
0.334432 0.601541 0.278172
0.409751 0.618158 0.286488
0.495369 0.635843 0.294423
0.589319 0.652552 0.299763
0.693996 0.669444 0.290394
0.811124 0.684871 0.274952
0.906157 0.695735 0.309331
0.267613 0.711376 0.327001
0.303502 0.711238 0.325597
0.372747 0.719707 0.329274
0.448859 0.737102 0.338903
0.534493 0.75581 0.347692
0.627802 0.773632 0.355108
0.729015 0.791318 0.359197
0.835264 0.808164 0.348791
0.921813 0.821164 0.343648
0.297734 0.802411 0.362737
0.331792 0.804456 0.362493
0.402502 0.815152 0.367239
0.479652 0.834577 0.37847
0.566033 0.854795 0.38912
0.659648 0.87396 0.398138
0.760708 0.891203 0.406348
0.864088 0.907103 0.411185
0.940993 0.919448 0.4065
0.0300603 0.0303502 0.0419471
0.0656291 0.0402991 0.0573434
0.134585 0.0564889 0.0781567
0.243336 0.0751202 0.0990005
0.352819 0.0920577 0.111223
0.455863 0.105013 0.115496
0.563058 0.116457 0.116213
0.660777 0.126574 0.115343
0.719631 0.127092 0.115206
0.057435 0.086244 0.0817273
0.101869 0.0963302 0.0884108
0.17702 0.112123 0.0983139
0.260182 0.12987 0.108858
0.35697 0.144076 0.116381
0.463203 0.156313 0.119265
0.575998 0.166812 0.118883
0.683986 0.177081 0.117601
0.746273 0.178363 0.117617
0.0905013 0.178698 0.130602
0.147692 0.173999 0.136263
0.203906 0.183719 0.13196
0.297398 0.192706 0.128466
0.392828 0.204639 0.133791
0.497307 0.216373 0.136172
0.609476 0.228168 0.136751
0.716503 0.241489 0.138994
0.781094 0.249119 0.146563
0.123522 0.273793 0.174517
0.19588 0.265812 0.187716
0.24065 0.275807 0.190265
0.305272 0.290486 0.182589
0.414038 0.299474 0.16463
0.530175 0.305821 0.168521
0.643854 0.316991 0.170214
0.752377 0.329885 0.173175
0.819608 0.340887 0.186511
0.157549 0.373983 0.22005
0.225895 0.367864 0.231708
0.273594 0.377691 0.235981
0.338262 0.392004 0.240146
0.421286 0.407248 0.233539
0.540063 0.417609 0.208423
0.672648 0.423407 0.213046
0.785367 0.434272 0.21387
0.855924 0.447791 0.230564
0.193805 0.481636 0.266514
0.248585 0.477516 0.271061
0.3093 0.486946 0.280095
0.376516 0.502251 0.281315
0.458656 0.51838 0.288411
0.554665 0.534493 0.280293
0.676783 0.547723 0.258427
0.806043 0.555825 0.25951
0.886381 0.567864 0.291279
0.233097 0.59791 0.315694
0.271183 0.595636 0.312886
0.340017 0.603449 0.318502
0.413947 0.620371 0.326101
0.49839 0.638086 0.333379
0.592065 0.655085 0.339391
0.696742 0.672068 0.330266
0.815442 0.686946 0.313603
0.908568 0.697276 0.332967
0.272084 0.714244 0.364889
0.308354 0.713817 0.363256
0.377493 0.722148 0.36672
0.453834 0.740246 0.377615
0.538689 0.758892 0.386664
0.631434 0.776852 0.39411
0.732403 0.794583 0.398856
0.838621 0.811414 0.388571
0.924971 0.824262 0.377142
0.302708 0.805951 0.401419
0.336706 0.807919 0.400656
0.407843 0.818753 0.405493
0.48455 0.838117 0.417472
0.570871 0.858534 0.42884
0.663966 0.877516 0.438392
0.765011 0.894911 0.44744
0.867826 0.910307 0.450828
0.943877 0.922759 0.444022
0.0342718 0.0345617 0.0662547
0.0741131 0.0436866 0.09337
0.146624 0.0599832 0.123018
0.245594 0.0809644 0.151736
0.341604 0.099321 0.168307
0.437964 0.113039 0.175906
0.540856 0.125185 0.180133
0.637797 0.135592 0.182025
0.695949 0.136324 0.18349
0.0615549 0.0923934 0.119661
0.0983139 0.105669 0.122881
0.172229 0.117754 0.146761
0.253117 0.134646 0.154482
0.346395 0.148821 0.166369
0.448768 0.161135 0.174716
0.558495 0.17232 0.179904
0.664866 0.18468 0.184024
0.726436 0.186313 0.184588
0.0942702 0.181888 0.170977
0.14786 0.176333 0.178683
0.200076 0.187976 0.170687
0.283742 0.200504 0.177081
0.374075 0.215625 0.188495
0.469062 0.234928 0.199054
0.579095 0.251331 0.208942
0.692302 0.266163 0.216007
0.771054 0.254566 0.202823
0.127977 0.276692 0.215549
0.198169 0.268009 0.223438
0.245518 0.277882 0.224735
0.318441 0.290227 0.220096
0.421592 0.299123 0.216571
0.521767 0.312367 0.223911
0.632059 0.326314 0.232578
0.741863 0.340185 0.238102
0.817487 0.345068 0.234668
0.16228 0.376593 0.260899
0.232792 0.369955 0.266285
0.305089 0.377325 0.286824
0.36553 0.390585 0.290547
0.442435 0.405676 0.280598
0.552453 0.417288 0.261357
0.679728 0.423804 0.265354
0.787991 0.436713 0.270054
0.857694 0.451102 0.27393
0.199084 0.484474 0.308339
0.254246 0.480125 0.30901
0.369024 0.488029 0.355001
0.421256 0.501228 0.359976
0.487617 0.517128 0.360815
0.56434 0.5364 0.34374
0.685542 0.549386 0.307042
0.817914 0.555016 0.311299
0.889372 0.570535 0.327749
0.238926 0.601205 0.359045
0.276463 0.598947 0.355978
0.405447 0.608942 0.410452
0.460578 0.622965 0.418265
0.522179 0.639979 0.418936
0.596811 0.659159 0.425147
0.694682 0.677516 0.411948
0.821622 0.689998 0.360311
0.912444 0.700099 0.374289
0.278157 0.717815 0.410025
0.313787 0.717235 0.407843
0.437079 0.731243 0.458274
0.496101 0.746075 0.469108
0.563302 0.763149 0.471962
0.643778 0.781277 0.478004
0.731029 0.800351 0.484123
0.837613 0.817899 0.470451
0.929335 0.828351 0.42414
0.309346 0.810285 0.447898
0.343038 0.812238 0.447044
0.414389 0.822858 0.452201
0.491112 0.842176 0.465248
0.577081 0.862776 0.477607
0.669352 0.881559 0.487633
0.769833 0.898848 0.49659
0.871962 0.914137 0.501091
0.947127 0.926207 0.492226
0.038941 0.0393378 0.100465
0.0807965 0.048188 0.138903
0.162295 0.0628519 0.188632
0.261494 0.0838026 0.219486
0.345495 0.103502 0.230457
0.433845 0.118853 0.237888
0.530175 0.132662 0.244068
0.623133 0.144472 0.24799
0.680125 0.145586 0.250004
0.0659495 0.0990311 0.170062
0.104082 0.117327 0.163027
0.165606 0.124178 0.211933
0.251987 0.140841 0.213565
0.337423 0.157244 0.224552
0.434669 0.169818 0.236973
0.539956 0.18175 0.246891
0.64419 0.195071 0.253132
0.706432 0.197101 0.254276
0.0980697 0.186099 0.223072
0.141085 0.184253 0.219013
0.193423 0.195392 0.219486
0.27686 0.206653 0.240635
0.366125 0.223148 0.240787
0.462287 0.239887 0.255344
0.57026 0.255985 0.266545
0.680613 0.271244 0.276555
0.752834 0.264775 0.275776
0.132158 0.280385 0.266148
0.191058 0.272618 0.271397
0.249424 0.280354 0.281056
0.31281 0.295979 0.272267
0.406958 0.308431 0.278111
0.503883 0.324193 0.28838
0.608713 0.341802 0.301091
0.71368 0.364065 0.313558
0.808881 0.352316 0.301457
0.167269 0.380087 0.310918
0.229679 0.373449 0.314458
0.303716 0.379858 0.340139
0.360067 0.395758 0.331548
0.442512 0.410163 0.327001
0.560403 0.41854 0.325063
0.667994 0.433265 0.332265
0.772351 0.450401 0.34229
0.857114 0.455879 0.337194
0.204852 0.488182 0.358236
0.264103 0.483055 0.35877
0.377905 0.490654 0.394369
0.423255 0.504631 0.398428
0.49369 0.520134 0.402411
0.585916 0.535485 0.392096
0.712489 0.545113 0.377707
0.825101 0.556497 0.378073
0.892439 0.573922 0.381003
0.244831 0.604913 0.409354
0.287037 0.602075 0.407477
0.413275 0.611933 0.449836
0.494057 0.623896 0.473243
0.557168 0.639292 0.478981
0.635721 0.656107 0.478706
0.728023 0.674372 0.465217
0.841642 0.688777 0.431464
0.917144 0.703548 0.431434
0.284443 0.721675 0.46096
0.320119 0.720943 0.458991
0.443885 0.734371 0.499916
0.569741 0.74815 0.553277
0.624567 0.763424 0.559014
0.697475 0.779599 0.561334
0.770809 0.799115 0.557946
0.857359 0.818357 0.536004
0.933806 0.832486 0.480735
0.315938 0.814679 0.499641
0.34992 0.816556 0.499184
0.421286 0.827054 0.505089
0.498451 0.84654 0.51957
0.583841 0.86685 0.532952
0.675319 0.885649 0.54377
0.775036 0.902922 0.552834
0.876387 0.917983 0.558099
0.950408 0.92987 0.548699
0.0438697 0.0443885 0.147356
0.0877699 0.0529641 0.196048
0.172183 0.0673381 0.263172
0.27509 0.0855268 0.299977
0.358831 0.10399 0.304387
0.440253 0.121508 0.306447
0.530846 0.137377 0.311498
0.618524 0.151003 0.316014
0.673243 0.152804 0.318563
0.0700847 0.105333 0.23183
0.113161 0.125536 0.222263
0.165698 0.129152 0.273579
0.254124 0.144518 0.293355
0.34313 0.162219 0.29279
0.434546 0.175601 0.303853
0.532769 0.190127 0.314092
0.631281 0.203891 0.323064
0.691997 0.206806 0.325628
0.101778 0.190295 0.281498
0.143252 0.191867 0.265461
0.191348 0.205432 0.26006
0.266499 0.213214 0.315755
0.362982 0.228458 0.315297
0.45127 0.24921 0.321324
0.557122 0.265354 0.330709
0.66363 0.280278 0.345403
0.73225 0.276234 0.352331
0.136065 0.284413 0.323827
0.182681 0.279118 0.322621
0.243763 0.286198 0.330419
0.305409 0.303166 0.333135
0.396887 0.315465 0.3523
0.496086 0.333028 0.345113
0.601968 0.348943 0.359609
0.706752 0.368719 0.375463
0.788205 0.363241 0.38436
0.171572 0.384024 0.366888
0.229313 0.3776 0.368444
0.302495 0.38265 0.398352
0.364691 0.398581 0.393881
0.437705 0.41619 0.38735
0.543465 0.428885 0.39353
0.644968 0.447135 0.403342
0.754498 0.463951 0.417304
0.849119 0.46302 0.414023
0.210254 0.492241 0.414771
0.263447 0.487327 0.415778
0.348989 0.493706 0.452537
0.422065 0.506889 0.467582
0.486763 0.526589 0.451408
0.578103 0.542367 0.446143
0.708309 0.551263 0.446983
0.813657 0.566842 0.453849
0.893935 0.578256 0.45124
0.250751 0.608881 0.466072
0.28864 0.606409 0.463508
0.414237 0.615 0.502571
0.50132 0.626947 0.520882
0.554009 0.644266 0.523781
0.633051 0.661463 0.528023
0.734432 0.677714 0.517723
0.851484 0.688457 0.531899
0.92137 0.706905 0.503868
0.290745 0.72578 0.517968
0.326528 0.724895 0.516274
0.458747 0.738277 0.553536
0.576532 0.751232 0.596582
0.633448 0.766247 0.607004
0.703395 0.782727 0.614801
0.784131 0.800793 0.614786
0.869413 0.817685 0.640345
0.938598 0.836622 0.54641
0.322103 0.819226 0.557092
0.356893 0.821134 0.557015
0.428717 0.831418 0.56379
0.50634 0.850782 0.579858
0.591394 0.87071 0.594675
0.682292 0.889601 0.606836
0.780774 0.906981 0.616175
0.880888 0.921843 0.622797
0.953857 0.933577 0.613504
0.0487984 0.0495308 0.208698
0.09514 0.0578927 0.266484
0.179599 0.0721294 0.343145
0.27953 0.0888075 0.382589
0.370092 0.103868 0.391577
0.455451 0.120912 0.390127
0.539651 0.138796 0.3888
0.623072 0.154589 0.391104
0.675486 0.157137 0.393133
0.0741283 0.111315 0.303014
0.120272 0.125872 0.304707
0.175036 0.131289 0.343923
0.266407 0.142214 0.373053
0.357153 0.158694 0.382712
0.446265 0.17705 0.383261
0.538247 0.19205 0.389517
0.630762 0.208774 0.397253
0.689006 0.212985 0.399893
0.10515 0.194232 0.346105
0.147677 0.194965 0.335637
0.195712 0.21561 0.309377
0.244114 0.223438 0.374548
0.36022 0.234302 0.403189
0.457328 0.252842 0.398657
0.550286 0.276371 0.405066
0.655055 0.290776 0.416754
0.722759 0.284627 0.428885
0.139528 0.288365 0.388495
0.182605 0.285115 0.380697
0.24062 0.29543 0.373526
0.298039 0.313649 0.376898
0.38761 0.321782 0.43621
0.491188 0.337499 0.434852
0.585763 0.359991 0.437949
0.692775 0.378943 0.4448
0.768643 0.374487 0.466514
0.175937 0.388052 0.4318
0.222873 0.383291 0.430961
0.293111 0.387961 0.452094
0.360784 0.404074 0.454627
0.432059 0.422599 0.462287
0.525872 0.438453 0.478538
0.637278 0.456138 0.467994
0.748638 0.472114 0.476509
0.826276 0.474647 0.505882
0.214908 0.496406 0.477882
0.265278 0.491707 0.47718
0.353307 0.497551 0.511452
0.428199 0.509697 0.533242
0.491127 0.530205 0.518959
0.574228 0.548699 0.515526
0.691051 0.561868 0.523644
0.797879 0.579187 0.529534
0.888426 0.584863 0.537881
0.256168 0.613169 0.529213
0.297368 0.6103 0.527855
0.392386 0.617029 0.56376
0.473671 0.62916 0.602792
0.551644 0.646281 0.605676
0.624704 0.668467 0.583825
0.724224 0.686244 0.578973
0.843427 0.697612 0.592538
0.924666 0.710689 0.578241
0.296696 0.730175 0.581308
0.332479 0.729259 0.579721
0.446265 0.740536 0.611887
0.567605 0.754208 0.664073
0.644038 0.769162 0.66334
0.704341 0.787121 0.667826
0.784207 0.805585 0.674052
0.870924 0.823178 0.687648
0.943542 0.840467 0.623133
0.328649 0.824186 0.621012
0.36379 0.826154 0.621149
0.43563 0.835996 0.628412
0.513802 0.855039 0.645441
0.59968 0.874708 0.662593
0.69015 0.8934 0.677195
0.786923 0.910811 0.687709
0.885451 0.925689 0.695415
0.957259 0.937285 0.686397
0.053193 0.0541695 0.282948
0.102358 0.0628061 0.348424
0.186282 0.0772106 0.428794
0.281666 0.0924849 0.468025
0.373541 0.105913 0.481849
0.467475 0.120043 0.485939
0.556481 0.137011 0.481804
0.635401 0.154788 0.477684
0.684901 0.15848 0.477256
0.0779126 0.116747 0.382162
0.125002 0.120974 0.396948
0.188815 0.130922 0.423926
0.272526 0.142672 0.455146
0.364904 0.155779 0.473045
0.461112 0.170916 0.480323
0.553521 0.190204 0.47985
0.639597 0.210269 0.481285
0.695445 0.215747 0.482414
0.108125 0.197803 0.417166
0.149752 0.195422 0.416587
0.204318 0.22623 0.369314
0.244297 0.233265 0.430014
0.344961 0.242618 0.488334
0.45684 0.260471 0.49543
0.560311 0.280476 0.491508
0.656001 0.301503 0.499748
0.726116 0.288777 0.511025
0.143008 0.291936 0.459648
0.18529 0.288289 0.453544
0.243763 0.304356 0.427405
0.297414 0.324544 0.42649
0.356359 0.335607 0.496849
0.488899 0.343297 0.531075
0.593713 0.361898 0.527108
0.686839 0.387579 0.532006
0.765835 0.381109 0.548898
0.179706 0.39202 0.503044
0.221469 0.388525 0.499092
0.287877 0.396796 0.49836
0.354376 0.412924 0.504814
0.421042 0.434363 0.509438
0.522683 0.443259 0.570169
0.632517 0.460258 0.569268
0.727657 0.48423 0.568444
0.811078 0.484977 0.592294
0.219409 0.500755 0.549096
0.260807 0.497307 0.546746
0.343709 0.501625 0.575677
0.419272 0.515023 0.596551
0.49015 0.535348 0.590784
0.572122 0.553811 0.604166
0.663844 0.574182 0.618143
0.783764 0.590311 0.605035
0.865858 0.596735 0.636667
0.261021 0.617594 0.598642
0.302373 0.61471 0.597055
0.40032 0.62153 0.627466
0.488121 0.632654 0.669154
0.563531 0.6495 0.672358
0.627375 0.673106 0.65507
0.72137 0.692088 0.656199
0.835721 0.706706 0.662348
0.92253 0.716258 0.671397
0.302205 0.734768 0.650782
0.337591 0.733898 0.648981
0.437934 0.743282 0.679316
0.522072 0.756374 0.725689
0.638727 0.770825 0.751461
0.700191 0.790097 0.750286
0.777798 0.812741 0.732219
0.870237 0.830091 0.733913
0.948074 0.843824 0.713893
0.334905 0.829541 0.690776
0.370031 0.831296 0.690852
0.442329 0.841123 0.698711
0.521157 0.859907 0.716381
0.607858 0.878935 0.734997
0.699046 0.897047 0.752438
0.794507 0.914382 0.766384
0.890166 0.929488 0.774884
0.960769 0.940902 0.767285
0.057023 0.0582742 0.357671
0.108583 0.0670329 0.428428
0.191699 0.0816663 0.505882
0.282353 0.095964 0.543847
0.374289 0.108217 0.564111
0.470939 0.121248 0.574258
0.568002 0.135439 0.576654
0.652537 0.152193 0.572869
0.701503 0.156664 0.569497
0.0809491 0.120684 0.456413
0.128099 0.124315 0.470558
0.193057 0.133532 0.498833
0.273167 0.145892 0.532937
0.365011 0.158526 0.558434
0.463981 0.17261 0.572229
0.565789 0.188632 0.577813
0.656672 0.207813 0.577264
0.71014 0.214862 0.574136
0.110597 0.200778 0.489128
0.15172 0.198367 0.490623
0.212924 0.23299 0.44947
0.25095 0.235142 0.512398
0.348424 0.244739 0.5673
0.454017 0.262242 0.59324
0.569924 0.280659 0.595758
0.67155 0.301823 0.594903
0.73875 0.288945 0.601114
0.145922 0.294911 0.53051
0.187427 0.291051 0.527398
0.249989 0.311147 0.500328
0.301457 0.335546 0.485145
0.349477 0.350286 0.540795
0.463371 0.354025 0.62118
0.593118 0.369039 0.628489
0.699321 0.388952 0.625437
0.775647 0.383047 0.637369
0.183047 0.395422 0.574533
0.224674 0.39205 0.571603
0.289784 0.405005 0.555276
0.352193 0.423026 0.558953
0.41529 0.44567 0.562097
0.484749 0.457984 0.637201
0.630549 0.465614 0.669093
0.737041 0.484993 0.6663
0.815778 0.488884 0.678416
0.223484 0.504555 0.620935
0.262898 0.501656 0.618738
0.334905 0.508415 0.627695
0.408423 0.523812 0.643061
0.48307 0.54432 0.646418
0.546151 0.56669 0.66273
0.665782 0.57789 0.70927
0.778714 0.59411 0.712169
0.859342 0.604547 0.723156
0.265553 0.621805 0.670207
0.302708 0.619471 0.668513
0.390402 0.625101 0.692515
0.495079 0.638514 0.720958
0.577401 0.655161 0.723156
0.635096 0.677089 0.728237
0.708949 0.700069 0.743511
0.820279 0.715663 0.759793
0.904189 0.727245 0.771115
0.306798 0.739132 0.719768
0.342153 0.738231 0.71899
0.445563 0.747845 0.745251
0.597436 0.762875 0.77966
0.685405 0.774807 0.788754
0.737911 0.793179 0.796063
0.790219 0.815412 0.803281
0.868101 0.836774 0.799695
0.949523 0.847761 0.806851
0.339986 0.834562 0.760189
0.375418 0.836362 0.760861
0.447791 0.846128 0.769268
0.527031 0.864607 0.787533
0.614527 0.883299 0.806531
0.706508 0.900664 0.824948
0.803037 0.917494 0.842893
0.894636 0.932738 0.854826
0.96202 0.943847 0.849256
0.059617 0.0607767 0.41088
0.112306 0.0694896 0.482551
0.194156 0.0841382 0.555123
0.28249 0.0976577 0.592645
0.374014 0.109712 0.616114
0.471382 0.121904 0.629496
0.571023 0.135546 0.635447
0.66041 0.151095 0.635416
0.712581 0.155123 0.633234
0.0835431 0.123095 0.504234
0.129381 0.125338 0.518593
0.194263 0.134371 0.547097
0.273411 0.146929 0.582177
0.364111 0.15964 0.611521
0.46389 0.173373 0.630503
0.568017 0.188678 0.640818
0.66569 0.2065 0.645151
0.72256 0.21297 0.642847
0.11223 0.20206 0.535042
0.153002 0.199557 0.538674
0.215396 0.206638 0.559075
0.291127 0.218799 0.59324
0.381201 0.23061 0.62948
0.48278 0.24361 0.654215
0.589853 0.259281 0.667659
0.690394 0.27779 0.673854
0.752163 0.287022 0.672923
0.147723 0.296071 0.578088
0.188693 0.292363 0.577295
0.251652 0.298863 0.58996
0.323903 0.31165 0.61593
0.41001 0.324666 0.653376
0.511635 0.336858 0.686549
0.620951 0.351583 0.704021
0.72343 0.369787 0.711757
0.789242 0.381262 0.711406
0.185397 0.397269 0.625223
0.226322 0.393973 0.623941
0.292058 0.400748 0.632364
0.364797 0.415259 0.650675
0.44625 0.430365 0.678614
0.543297 0.443687 0.718456
0.654337 0.457237 0.743572
0.75903 0.474495 0.752773
0.828855 0.48806 0.753674
0.225925 0.506752 0.674418
0.264317 0.504005 0.673671
0.332937 0.510933 0.682124
0.408331 0.526619 0.69807
0.490547 0.543938 0.716747
0.579339 0.560265 0.745312
0.687846 0.574029 0.783154
0.795911 0.58996 0.796017
0.869001 0.605234 0.797864
0.26862 0.62446 0.726314
0.30399 0.622446 0.726406
0.375204 0.629328 0.73489
0.452277 0.646082 0.75169
0.537011 0.664179 0.769436
0.626581 0.68249 0.787213
0.722484 0.69987 0.815824
0.833143 0.714656 0.840986
0.905898 0.730907 0.844724
0.310277 0.742336 0.777905
0.343282 0.741588 0.778622
0.416632 0.749142 0.78735
0.495232 0.766629 0.804974
0.581506 0.78529 0.82356
0.672862 0.804227 0.841993
0.769192 0.823529 0.859983
0.867369 0.840284 0.882216
0.938994 0.855741 0.890501
0.344106 0.838605 0.818906
0.37966 0.840513 0.820996
0.452003 0.85037 0.830732
0.531106 0.868605 0.849485
0.61883 0.887098 0.868376
0.711315 0.904204 0.885893
0.808865 0.920577 0.902434
0.900221 0.935149 0.916823
0.962966 0.945678 0.919112
