code/data/lut/45中性色调2.cube
TITLE "LD - Tonal Sand 2"
# Copyright (c) 2019 Lens Distortions, LLC. All Rights Reserved.
# LensDistortions.com
# ref-TS3
LUT_3D_SIZE 33
0.0266575 0.0268559 0.0271916
0.0323796 0.0290837 0.0294041
0.0393378 0.0312352 0.0314488
0.0496071 0.0337835 0.0337835
0.062974 0.0367742 0.0363622
0.0787213 0.0402838 0.039292
0.0955062 0.0438849 0.0420996
0.114748 0.0476692 0.044831
0.136492 0.0513313 0.0473487
0.161959 0.0555581 0.0498512
0.191165 0.0599985 0.0525826
0.2215 0.0644846 0.0551919
0.252308 0.0689403 0.0573892
0.282719 0.0733806 0.0597391
0.313252 0.0780804 0.0618601
0.342657 0.0823987 0.0640269
0.369085 0.0863966 0.0658732
0.39498 0.0900587 0.0675975
0.420859 0.0936904 0.0691386
0.446799 0.0970932 0.0705577
0.472541 0.100298 0.0715496
0.498863 0.103334 0.0726635
0.525078 0.106401 0.0736248
0.551629 0.109407 0.0746624
0.577813 0.112459 0.0755627
0.603052 0.115434 0.0763561
0.628489 0.118273 0.0772869
0.652781 0.121157 0.0780194
0.673365 0.123003 0.078584
0.688563 0.123171 0.0790723
0.703593 0.123384 0.0795453
0.71783 0.123491 0.079942
0.732006 0.12369 0.0804608
0.0328222 0.0355383 0.0335851
0.038056 0.0375372 0.0348669
0.0471046 0.0398718 0.0365301
0.0590524 0.0425269 0.038819
0.0736553 0.0453346 0.0408789
0.0899672 0.0486915 0.043122
0.107698 0.0523537 0.0454261
0.127703 0.0562142 0.0478065
0.15108 0.0605325 0.0501564
0.177691 0.0652018 0.0525368
0.206806 0.0699321 0.0547799
0.235843 0.0746471 0.057023
0.265644 0.079469 0.0593576
0.294087 0.0840772 0.0613565
0.321736 0.0881971 0.0630655
0.346883 0.0922255 0.0646677
0.372213 0.0961929 0.0664683
0.39733 0.100023 0.0678416
0.422568 0.10341 0.0691844
0.447318 0.1066 0.0701457
0.473304 0.109865 0.0713359
0.499153 0.113191 0.0723583
0.525521 0.11635 0.0734264
0.552331 0.11957 0.0744182
0.578622 0.122805 0.0753338
0.604562 0.125658 0.0763256
0.629953 0.12871 0.0771801
0.654719 0.131685 0.0781109
0.676677 0.133822 0.0788434
0.69218 0.134096 0.0793927
0.706935 0.134234 0.0797284
0.721477 0.13434 0.0801556
0.735729 0.135393 0.0808881
0.0398718 0.0475624 0.041062
0.0450294 0.0493172 0.0421759
0.0535286 0.0519265 0.0428779
0.0666972 0.0543069 0.0432898
0.083711 0.0566567 0.04477
0.101625 0.0601511 0.0467231
0.120806 0.0642405 0.0489204
0.142153 0.0687419 0.0510567
0.166293 0.0733196 0.0532235
0.192889 0.0782025 0.0552682
0.220417 0.0828717 0.0572213
0.248295 0.0878767 0.059144
0.275044 0.0923171 0.0608072
0.300313 0.0963607 0.0621653
0.324697 0.100298 0.0637217
0.349111 0.104311 0.0651255
0.373754 0.107897 0.0664225
0.398077 0.111376 0.067628
0.422827 0.114824 0.0687877
0.448402 0.118151 0.0700389
0.473899 0.121431 0.071107
0.500221 0.124788 0.0723735
0.526513 0.128115 0.0734722
0.553506 0.131365 0.0746624
0.580316 0.134676 0.0757458
0.606668 0.137911 0.0767376
0.632334 0.140871 0.0776837
0.657404 0.143832 0.0785992
0.680507 0.146212 0.0794537
0.695888 0.146365 0.0798962
0.711192 0.146532 0.0803845
0.726223 0.146746 0.0809033
0.740612 0.148425 0.0820172
0.0466468 0.0625467 0.0484779
0.0523232 0.0646677 0.0495918
0.0611887 0.0673991 0.0508736
0.0734874 0.0704509 0.0505226
0.0920729 0.073518 0.049546
0.112428 0.0767224 0.050721
0.13286 0.0806592 0.0522469
0.15436 0.0851148 0.0539712
0.177615 0.0896162 0.0555581
0.203525 0.0943465 0.057435
0.229419 0.0988327 0.0591592
0.253925 0.102785 0.060502
0.278202 0.106554 0.0619974
0.301869 0.110353 0.0634775
0.325887 0.114046 0.0648661
0.349722 0.11751 0.0661784
0.374029 0.120882 0.0672923
0.398856 0.124346 0.0684367
0.423789 0.127687 0.069398
0.449668 0.130877 0.0705425
0.475593 0.134249 0.0716411
0.501961 0.137575 0.0728161
0.528908 0.140703 0.0741283
0.555901 0.143816 0.0752575
0.583612 0.147112 0.0766461
0.610452 0.150301 0.0778973
0.636667 0.153368 0.0789654
0.662257 0.15639 0.0800488
0.686625 0.159258 0.0811017
0.702327 0.159518 0.0816358
0.717357 0.159564 0.082063
0.732097 0.159686 0.082414
0.746731 0.161685 0.0842908
0.0539101 0.0826581 0.0565652
0.0601511 0.084947 0.0575875
0.0697337 0.0878614 0.0587625
0.0822919 0.0908522 0.0595102
0.0986801 0.0939651 0.0579232
0.119081 0.0971847 0.0556039
0.140124 0.101045 0.0559396
0.16286 0.10457 0.0571756
0.184909 0.108278 0.0582284
0.208026 0.111833 0.0593271
0.232013 0.115328 0.0606241
0.255283 0.118883 0.06215
0.279042 0.12224 0.0637064
0.302632 0.125505 0.0650034
0.32639 0.12871 0.0665293
0.350896 0.131975 0.0679637
0.375692 0.13518 0.0692149
0.400992 0.138308 0.0705119
0.426673 0.141619 0.0717784
0.452705 0.144823 0.0729534
0.479515 0.147951 0.0742504
0.505989 0.151019 0.0752575
0.533303 0.154131 0.0764172
0.560876 0.157427 0.0775464
0.588754 0.160632 0.078645
0.615991 0.163851 0.079881
0.642542 0.166964 0.0810101
0.668406 0.170184 0.0823072
0.693584 0.173251 0.0834669
0.709346 0.173297 0.0838026
0.724681 0.17351 0.0842908
0.739651 0.173602 0.0846876
0.753841 0.17615 0.0872816
0.0619211 0.1066 0.0656596
0.0685588 0.108553 0.0665293
0.0784009 0.110918 0.0672923
0.0911879 0.113481 0.067689
0.107454 0.116167 0.0679179
0.125597 0.119142 0.0655985
0.144747 0.122072 0.0629435
0.165209 0.12462 0.0619669
0.188296 0.127062 0.0624247
0.211597 0.129686 0.063447
0.234546 0.132692 0.0644541
0.257847 0.135531 0.0658274
0.281605 0.138552 0.0671397
0.305531 0.141741 0.0686046
0.330053 0.144717 0.0699474
0.354559 0.147662 0.071107
0.37966 0.150774 0.0724651
0.405463 0.153841 0.0738842
0.431296 0.156985 0.0751812
0.457633 0.160082 0.0767376
0.484092 0.162936 0.0779126
0.511299 0.166155 0.0791485
0.538705 0.169131 0.0802472
0.566369 0.172259 0.081178
0.594537 0.175479 0.0823072
0.621912 0.178515 0.08336
0.648768 0.181781 0.0843519
0.674968 0.184894 0.08542
0.700557 0.188037 0.0863355
0.717449 0.188525 0.0868544
0.732738 0.188556 0.0871901
0.747799 0.188556 0.087602
0.761852 0.191669 0.0909895
0.0706493 0.131762 0.0759136
0.0774243 0.133104 0.0764782
0.0876478 0.134691 0.0768139
0.100267 0.135973 0.0766766
0.115694 0.13695 0.0760815
0.132326 0.138705 0.075349
0.14934 0.141375 0.0730907
0.168093 0.144015 0.0704356
0.18938 0.146181 0.0689708
0.213046 0.148196 0.0690929
0.238178 0.15021 0.0698863
0.261982 0.153231 0.0709239
0.285588 0.156115 0.0719005
0.309773 0.158938 0.0731365
0.334356 0.161791 0.0742504
0.359258 0.164782 0.0755779
0.384604 0.16762 0.076936
0.410422 0.170535 0.0780804
0.436347 0.173373 0.0791943
0.46305 0.17644 0.0805371
0.489815 0.179431 0.081651
0.517235 0.182559 0.082948
0.5449 0.185672 0.0842298
0.572671 0.188769 0.0856489
0.600885 0.191943 0.0869764
0.628595 0.195117 0.0880598
0.655406 0.198245 0.0889906
0.681865 0.201602 0.0901656
0.707378 0.204654 0.0910506
0.725383 0.205417 0.0915541
0.740673 0.205295 0.0918288
0.755825 0.205402 0.0921187
0.769848 0.208835 0.0968643
0.0789807 0.155703 0.0858778
0.08542 0.155978 0.0859388
0.0958419 0.15639 0.0858473
0.108263 0.156741 0.0853437
0.123445 0.157259 0.0847334
0.13962 0.158282 0.0844434
0.155489 0.160693 0.0839551
0.172564 0.163226 0.0814374
0.192462 0.165881 0.0784619
0.215198 0.168215 0.0766155
0.23978 0.170459 0.0764019
0.265415 0.172427 0.0772717
0.290288 0.174807 0.0780499
0.314275 0.177584 0.0786908
0.338613 0.180423 0.0796216
0.36379 0.183169 0.0807355
0.389197 0.186023 0.0817426
0.415274 0.188968 0.0828717
0.441642 0.191806 0.0840925
0.468376 0.194888 0.0852216
0.495491 0.197864 0.0864118
0.523033 0.200763 0.0876326
0.550744 0.203815 0.0887465
0.579019 0.206943 0.0899519
0.607431 0.210208 0.0912642
0.63537 0.213321 0.0924849
0.662684 0.216495 0.0937972
0.688945 0.219638 0.0949721
0.714595 0.222782 0.0960403
0.733669 0.223606 0.0966201
0.749096 0.223713 0.0970626
0.764202 0.22359 0.0973373
0.778332 0.227604 0.103243
0.0877089 0.178897 0.0960708
0.0934005 0.178424 0.0956436
0.103456 0.17792 0.0949416
0.115801 0.177783 0.0942855
0.130907 0.178027 0.0936141
0.146899 0.178882 0.0932021
0.16231 0.180896 0.0934615
0.178408 0.183566 0.0927749
0.196841 0.186175 0.0900587
0.217975 0.189029 0.0868696
0.242008 0.191806 0.0848554
0.267033 0.194232 0.0843977
0.292958 0.196307 0.0848402
0.319097 0.198169 0.0856947
0.343816 0.200961 0.0861372
0.368627 0.2038 0.0867628
0.394522 0.206409 0.0877546
0.420554 0.209262 0.0887007
0.446891 0.212009 0.0895705
0.473884 0.214832 0.0907149
0.501106 0.217731 0.0918135
0.528893 0.220722 0.0928664
0.557122 0.223651 0.0940108
0.585519 0.22678 0.0950637
0.614252 0.229938 0.0963607
0.642191 0.232914 0.0976577
0.669596 0.236057 0.0986801
0.696574 0.239292 0.0998398
0.722179 0.242313 0.100938
0.742489 0.243687 0.101625
0.757809 0.243336 0.1019
0.773297 0.243473 0.102586
0.786862 0.247761 0.11104
0.095613 0.201862 0.105592
0.101152 0.20116 0.105058
0.111315 0.200763 0.104555
0.123659 0.200427 0.103899
0.138598 0.2 0.1028
0.154574 0.200778 0.102449
0.169741 0.20264 0.102708
0.185733 0.20531 0.103212
0.203326 0.20824 0.102342
0.222797 0.211185 0.0995651
0.244907 0.21416 0.0959182
0.269062 0.216831 0.0936294
0.294301 0.21912 0.0925612
0.320546 0.221317 0.0926986
0.347372 0.223117 0.0935531
0.373999 0.225269 0.0942245
0.399771 0.22826 0.0947433
0.425772 0.230976 0.0952926
0.452491 0.233707 0.0960098
0.479576 0.236576 0.0968948
0.507164 0.239384 0.0979629
0.53489 0.24213 0.0989395
0.563134 0.245136 0.100023
0.591775 0.248051 0.101061
0.620691 0.250996 0.102098
0.649012 0.253956 0.103426
0.676677 0.256947 0.104463
0.703761 0.260212 0.105409
0.729717 0.263249 0.106477
0.751354 0.265003 0.107454
0.767132 0.264851 0.107698
0.782391 0.264591 0.107942
0.795743 0.269429 0.119554
0.103883 0.225803 0.115587
0.109667 0.225238 0.115251
0.119173 0.224399 0.114473
0.131563 0.223896 0.11368
0.146746 0.223575 0.112703
0.162631 0.224048 0.112016
0.178012 0.226047 0.112367
0.193729 0.228397 0.112932
0.210727 0.231022 0.113436
0.229358 0.234195 0.112337
0.25005 0.237446 0.109407
0.272786 0.240482 0.10573
0.297185 0.243214 0.102968
0.322591 0.245609 0.101686
0.349096 0.247684 0.101472
0.376699 0.249378 0.101976
0.404623 0.250996 0.102922
0.431098 0.253605 0.103059
0.457511 0.256367 0.103319
0.484993 0.259068 0.10396
0.512474 0.261921 0.104723
0.54049 0.26479 0.105562
0.569039 0.267674 0.106508
0.598047 0.270573 0.10753
0.627375 0.273594 0.108629
0.655695 0.276524 0.109819
0.683818 0.279545 0.110918
0.711025 0.282628 0.111955
0.737652 0.28574 0.113039
0.759884 0.287541 0.113909
0.776089 0.287526 0.114305
0.791455 0.287175 0.114366
0.804898 0.292332 0.128939
0.112078 0.249943 0.125826
0.117952 0.249119 0.1252
0.127337 0.248447 0.124712
0.13991 0.248051 0.123903
0.154833 0.247288 0.122606
0.170947 0.247791 0.122026
0.186236 0.249516 0.122194
0.20235 0.252247 0.123186
0.219089 0.254871 0.123888
0.236927 0.257801 0.124071
0.256352 0.260975 0.122713
0.277653 0.264057 0.119524
0.300755 0.267399 0.115816
0.325307 0.270161 0.11281
0.351537 0.272587 0.11133
0.378683 0.274846 0.11078
0.406653 0.276585 0.111101
0.43563 0.278157 0.112123
0.463828 0.28011 0.112566
0.490913 0.282811 0.112657
0.518471 0.285588 0.112917
0.546593 0.288457 0.113481
0.575311 0.291325 0.114321
0.60444 0.294209 0.11516
0.633844 0.297124 0.116121
0.662654 0.300175 0.117205
0.691035 0.303166 0.118227
0.718547 0.306157 0.119112
0.74522 0.309133 0.120119
0.768734 0.311284 0.120912
0.784634 0.310872 0.121096
0.800549 0.310826 0.121477
0.81323 0.315602 0.139025
0.120424 0.274098 0.136187
0.126604 0.273396 0.135622
0.135561 0.272679 0.13489
0.147906 0.271916 0.134081
0.163027 0.271321 0.132876
0.179477 0.271672 0.132143
0.19498 0.273594 0.132647
0.210513 0.275944 0.133257
0.227131 0.278599 0.13402
0.244953 0.281682 0.135103
0.264286 0.284871 0.135241
0.284398 0.288258 0.13373
0.305791 0.291386 0.130343
0.329213 0.29453 0.126421
0.354314 0.297337 0.123018
0.380789 0.29984 0.120958
0.408301 0.302113 0.120119
0.436759 0.303914 0.120531
0.466529 0.305669 0.121614
0.496483 0.307256 0.122667
0.524422 0.309819 0.122545
0.55259 0.312627 0.122377
0.58143 0.315541 0.122942
0.610376 0.318273 0.123217
0.639887 0.321157 0.123903
0.669001 0.324102 0.124865
0.697337 0.327031 0.125887
0.72517 0.330007 0.126772
0.752087 0.333028 0.127749
0.776837 0.335454 0.128557
0.793332 0.335439 0.128939
0.809293 0.335241 0.129137
0.821927 0.340185 0.150423
0.128618 0.298268 0.146517
0.134874 0.297734 0.146029
0.143465 0.296986 0.145266
0.15613 0.296269 0.144366
0.171389 0.295567 0.143389
0.187945 0.295842 0.142779
0.203326 0.29749 0.142977
0.21886 0.30016 0.143847
0.235538 0.30312 0.144823
0.253269 0.305959 0.145769
0.271962 0.30901 0.146624
0.291569 0.312276 0.146334
0.312383 0.31574 0.144808
0.334569 0.319005 0.141283
0.358511 0.322484 0.137301
0.384115 0.325322 0.13373
0.411231 0.327916 0.131609
0.439277 0.33022 0.130419
0.468208 0.33225 0.130587
0.498146 0.33402 0.131533
0.529091 0.33547 0.133074
0.559121 0.337484 0.133867
0.587701 0.34052 0.13312
0.616938 0.34345 0.132982
0.646616 0.34641 0.133516
0.675868 0.349416 0.134005
0.704463 0.352346 0.134569
0.732387 0.355261 0.135485
0.759228 0.358175 0.136278
0.785077 0.361044 0.136965
0.801526 0.360723 0.136934
0.817731 0.360662 0.137255
0.83032 0.365286 0.162554
0.137163 0.323171 0.157671
0.143191 0.322255 0.156878
0.151598 0.321508 0.156039
0.164233 0.32079 0.155138
0.179553 0.320073 0.153994
0.196155 0.320165 0.153323
0.21207 0.322301 0.153918
0.227451 0.324773 0.15465
0.243778 0.327474 0.15555
0.261311 0.330404 0.156497
0.280064 0.333745 0.157656
0.29984 0.337209 0.15874
0.320058 0.340581 0.158221
0.341131 0.343999 0.156069
0.36379 0.347234 0.152697
0.387945 0.350607 0.148455
0.413962 0.353658 0.144427
0.44152 0.356283 0.142199
0.470268 0.358663 0.141054
0.499977 0.3608 0.140963
0.530327 0.362707 0.141985
0.561868 0.364279 0.143786
0.593332 0.365957 0.145357
0.623133 0.368719 0.144839
0.652827 0.371771 0.144228
0.682048 0.374838 0.144198
0.710781 0.377874 0.144381
0.738872 0.380804 0.144701
0.766064 0.383734 0.145434
0.792508 0.386725 0.146014
0.809857 0.387015 0.146136
0.826001 0.386679 0.146044
0.838605 0.391455 0.175814
0.145296 0.347951 0.168322
0.151812 0.347417 0.167895
0.159838 0.346441 0.167102
0.172198 0.345617 0.165896
0.1879 0.345159 0.164874
0.204837 0.345525 0.164355
0.220356 0.347143 0.164675
0.235843 0.349569 0.165545
0.252232 0.35256 0.166659
0.269718 0.35581 0.167788
0.288167 0.359014 0.168917
0.307866 0.362325 0.170092
0.327947 0.365637 0.170886
0.348623 0.369085 0.170382
0.37052 0.372976 0.168429
0.39382 0.376471 0.164904
0.41883 0.380011 0.160678
0.44535 0.3832 0.15639
0.473426 0.385962 0.153933
0.502663 0.388495 0.152728
0.532876 0.390646 0.152575
0.563592 0.392706 0.153323
0.59559 0.394461 0.155138
0.628122 0.395972 0.157534
0.659739 0.398154 0.15816
0.688731 0.401221 0.157031
0.717632 0.404334 0.156603
0.745586 0.407355 0.15613
0.772763 0.410346 0.156069
0.799329 0.413245 0.156435
0.817716 0.413657 0.156191
0.834043 0.413596 0.156039
0.846799 0.418433 0.18999
0.153674 0.373541 0.179507
0.160174 0.372702 0.178805
0.16791 0.371908 0.178058
0.180591 0.371313 0.177508
0.196185 0.370489 0.176287
0.213123 0.370687 0.175662
0.22884 0.372274 0.175906
0.244678 0.375235 0.177142
0.260838 0.378119 0.17818
0.278035 0.381216 0.17937
0.296468 0.384512 0.180529
0.316182 0.388128 0.181888
0.336431 0.39173 0.183368
0.357122 0.395499 0.184146
0.378241 0.3991 0.183322
0.400641 0.402625 0.181094
0.424308 0.406058 0.177371
0.449866 0.409613 0.172793
0.476814 0.412894 0.168383
0.505318 0.415793 0.165881
0.535195 0.418448 0.164446
0.566018 0.420813 0.164096
0.59736 0.423087 0.165072
0.629557 0.425071 0.166857
0.662882 0.426688 0.169619
0.695048 0.428489 0.17142
0.72433 0.431266 0.170687
0.752499 0.434379 0.169574
0.77966 0.437385 0.169024
0.80618 0.44036 0.168338
0.825299 0.441077 0.167773
0.841947 0.441199 0.167254
0.854749 0.446326 0.204578
0.162539 0.399466 0.191318
0.168826 0.398474 0.190448
0.176211 0.397696 0.1897
0.188846 0.397238 0.18883
0.204669 0.39646 0.187869
0.221744 0.396567 0.187121
0.237751 0.398459 0.187701
0.253117 0.401038 0.188678
0.269337 0.403952 0.18996
0.286549 0.407233 0.191287
0.30518 0.410819 0.192721
0.324926 0.414694 0.19443
0.344854 0.41828 0.195743
0.365362 0.421897 0.19704
0.386603 0.425437 0.197482
0.408301 0.42916 0.196445
0.431296 0.432761 0.19411
0.455512 0.436362 0.190158
0.481407 0.440055 0.185473
0.509071 0.443473 0.180972
0.538338 0.446723 0.178393
0.568673 0.449378 0.177096
0.59971 0.45185 0.176471
0.631586 0.454093 0.177279
0.664332 0.456382 0.179049
0.697078 0.458122 0.181735
0.729473 0.459632 0.184436
0.759258 0.46183 0.185077
0.786282 0.464973 0.183551
0.813107 0.468025 0.182422
0.83299 0.4692 0.181415
0.849454 0.469368 0.18024
0.862806 0.475288 0.219028
0.171206 0.425864 0.20293
0.177844 0.425208 0.202365
0.185336 0.424247 0.201511
0.197665 0.423667 0.200687
0.213169 0.423117 0.199756
0.230213 0.423102 0.199161
0.246357 0.424826 0.199619
0.261814 0.427405 0.200656
0.278035 0.430533 0.202014
0.295766 0.434241 0.203891
0.314107 0.437812 0.20528
0.333455 0.441535 0.206683
0.353475 0.445182 0.208148
0.374014 0.448844 0.209461
0.39501 0.452506 0.210697
0.416785 0.456275 0.211215
0.439277 0.460258 0.210178
0.462882 0.463966 0.207645
0.487846 0.467842 0.203998
0.514229 0.471534 0.199191
0.542168 0.474983 0.194354
0.571633 0.478157 0.191287
0.602564 0.480995 0.190097
0.634226 0.483696 0.189502
0.666636 0.486183 0.190143
0.699123 0.488472 0.192035
0.73135 0.49044 0.194369
0.762875 0.492103 0.197375
0.793042 0.493629 0.199054
0.820188 0.496452 0.19823
0.840757 0.497978 0.196536
0.857298 0.498085 0.194797
0.870344 0.504845 0.234653
0.180331 0.452888 0.215015
0.186984 0.452003 0.214221
0.194644 0.451316 0.213672
0.20621 0.450675 0.212863
0.221485 0.450111 0.211856
0.238682 0.450202 0.211246
0.254978 0.451667 0.211521
0.270832 0.454566 0.212787
0.287327 0.457969 0.214511
0.304524 0.461433 0.216052
0.322759 0.465019 0.217655
0.342199 0.468788 0.219226
0.362203 0.472633 0.220798
0.382834 0.476402 0.22237
0.404074 0.480385 0.223926
0.425757 0.484337 0.225284
0.448066 0.488197 0.225498
0.471015 0.492119 0.224292
0.495201 0.495933 0.221668
0.520668 0.499794 0.217868
0.547631 0.50367 0.213016
0.576089 0.507332 0.208164
0.605798 0.510491 0.204685
0.637125 0.513512 0.203571
0.669261 0.516213 0.20322
0.701686 0.5187 0.203387
0.733303 0.521096 0.205112
0.764889 0.523125 0.207187
0.795529 0.52491 0.210117
0.825696 0.526268 0.212711
0.848585 0.526955 0.212818
0.86482 0.527321 0.21091
0.877684 0.535256 0.25124
0.189654 0.480354 0.227192
0.196216 0.479423 0.226261
0.203967 0.478935 0.225757
0.215167 0.47837 0.225055
0.230304 0.477607 0.224125
0.247456 0.477699 0.223545
0.264179 0.479362 0.223987
0.280232 0.482429 0.225437
0.2963 0.485664 0.226825
0.313588 0.489113 0.228534
0.331807 0.492805 0.230137
0.35137 0.496803 0.232029
0.37145 0.500877 0.233722
0.391974 0.504845 0.235355
0.413214 0.508766 0.237018
0.434836 0.512673 0.238499
0.457115 0.516686 0.239796
0.479927 0.520668 0.239872
0.503395 0.524636 0.238407
0.528054 0.528542 0.235966
0.554055 0.532326 0.231876
0.581598 0.536248 0.226963
0.610315 0.540093 0.221912
0.64036 0.543465 0.218265
0.672221 0.546517 0.217105
0.704555 0.549355 0.216815
0.736355 0.552026 0.217136
0.767346 0.554528 0.218433
0.797894 0.55671 0.22063
0.827878 0.558526 0.223117
0.85417 0.559136 0.225513
0.872084 0.557687 0.227451
0.884642 0.566567 0.270176
0.199084 0.508385 0.239277
0.205921 0.5075 0.238621
0.213581 0.506981 0.238102
0.224201 0.506355 0.2374
0.239277 0.505928 0.236591
0.256321 0.506111 0.236133
0.273228 0.507469 0.236515
0.289448 0.510521 0.238102
0.30544 0.513802 0.239582
0.322805 0.517327 0.241108
0.341207 0.521279 0.243
0.360739 0.525368 0.244846
0.380697 0.529427 0.246738
0.401297 0.533684 0.248569
0.422522 0.537774 0.250233
0.444297 0.541756 0.251926
0.466438 0.545678 0.253391
0.489174 0.549599 0.25452
0.512352 0.553643 0.254261
0.536431 0.557733 0.252949
0.561669 0.561791 0.250278
0.58819 0.565866 0.246448
0.61622 0.569879 0.241535
0.645304 0.573785 0.236316
0.6757 0.577142 0.232212
0.707774 0.580407 0.23122
0.73933 0.583108 0.230518
0.770153 0.58587 0.231006
0.800641 0.588327 0.23209
0.830427 0.590555 0.234241
0.858686 0.592325 0.236408
0.87689 0.591287 0.238773
0.890944 0.598016 0.285832
0.208774 0.536858 0.251499
0.215641 0.536202 0.250919
0.223194 0.535515 0.25034
0.233402 0.535149 0.249958
0.248295 0.534813 0.249104
0.265522 0.534844 0.248508
0.282429 0.536217 0.248844
0.298756 0.539117 0.250462
0.314961 0.542428 0.252186
0.332341 0.546319 0.254093
0.350744 0.550149 0.25597
0.370169 0.554314 0.257877
0.390249 0.558511 0.259815
0.410819 0.562753 0.261769
0.431998 0.567071 0.263661
0.453635 0.571099 0.2654
0.475761 0.575174 0.266957
0.498451 0.579141 0.268452
0.52195 0.583429 0.269596
0.545815 0.587564 0.269139
0.570321 0.591745 0.267628
0.596048 0.595819 0.264927
0.623041 0.599741 0.260945
0.651301 0.603845 0.255863
0.680629 0.607691 0.250507
0.711421 0.611368 0.246128
0.742657 0.614649 0.24538
0.773632 0.617639 0.245182
0.803769 0.620218 0.245365
0.833432 0.622644 0.246281
0.861967 0.624994 0.247929
0.881163 0.62504 0.249668
0.896208 0.629969 0.291676
0.218647 0.566079 0.264149
0.225681 0.56527 0.263478
0.233066 0.564599 0.262898
0.242634 0.564401 0.262455
0.257298 0.563882 0.261692
0.274739 0.564019 0.261326
0.291966 0.565347 0.261677
0.308186 0.568231 0.263111
0.324788 0.571878 0.265232
0.341924 0.575601 0.26714
0.36025 0.579538 0.26891
0.379919 0.583795 0.270893
0.400031 0.588205 0.272999
0.42063 0.592493 0.275044
0.441566 0.59675 0.276905
0.463294 0.601053 0.278798
0.485512 0.605341 0.280552
0.508263 0.609552 0.282185
0.531563 0.613581 0.283772
0.555245 0.617716 0.284443
0.579782 0.621866 0.283955
0.604685 0.626154 0.282414
0.630793 0.630213 0.279606
0.658244 0.634379 0.275486
0.686732 0.63856 0.270497
0.716793 0.642573 0.265217
0.746914 0.646281 0.260578
0.777157 0.649577 0.259983
0.807416 0.652613 0.260258
0.836881 0.655329 0.260212
0.864927 0.657618 0.260716
0.885222 0.658412 0.261769
0.901152 0.66247 0.299321
0.228748 0.595804 0.277043
0.235599 0.594873 0.276432
0.243107 0.594507 0.275898
0.252064 0.594049 0.275334
0.266712 0.593759 0.274708
0.284047 0.593744 0.274128
0.301381 0.594888 0.274449
0.318013 0.598123 0.276188
0.334432 0.601541 0.278172
0.351644 0.605371 0.280217
0.370077 0.609369 0.282261
0.389715 0.613764 0.284413
0.409751 0.618158 0.286488
0.430411 0.622522 0.28864
0.451453 0.626871 0.290532
0.472908 0.631266 0.292332
0.495369 0.635843 0.294423
0.517906 0.64004 0.295995
0.541192 0.644114 0.297627
0.564736 0.648219 0.299001
0.589319 0.652552 0.299763
0.614099 0.65684 0.299062
0.639704 0.661097 0.297398
0.666255 0.665339 0.294484
0.693996 0.669444 0.290394
0.723033 0.673686 0.285695
0.752377 0.677714 0.2804
0.781567 0.681453 0.275944
0.811124 0.684871 0.274952
0.840391 0.687984 0.274998
0.868681 0.690852 0.27509
0.889509 0.691951 0.275273
0.906157 0.695735 0.309331
0.238727 0.625513 0.289845
0.245716 0.624796 0.289113
0.253178 0.624399 0.288609
0.261692 0.624018 0.288151
0.276081 0.623804 0.287663
0.29337 0.62388 0.28716
0.311192 0.625193 0.287495
0.327794 0.62826 0.289204
0.34432 0.631724 0.291203
0.361624 0.635645 0.293477
0.380087 0.639841 0.295735
0.399649 0.644175 0.29807
0.41976 0.648646 0.299947
0.440482 0.653071 0.302174
0.461585 0.657664 0.30428
0.483177 0.66215 0.306233
0.50518 0.666468 0.30811
0.527703 0.670787 0.309819
0.551125 0.675181 0.311727
0.574716 0.679454 0.313375
0.599069 0.683619 0.314855
0.62385 0.687922 0.31516
0.649149 0.692195 0.314519
0.67509 0.696559 0.312795
0.702144 0.700923 0.309743
0.730266 0.704982 0.305669
0.758694 0.709224 0.300725
0.78735 0.713176 0.295689
0.815625 0.716976 0.291081
0.844266 0.720409 0.289799
0.872023 0.723491 0.290181
0.893935 0.725292 0.290013
0.910506 0.728771 0.320653
0.248463 0.654673 0.30248
0.255451 0.654032 0.301839
0.262989 0.653773 0.301442
0.271519 0.653574 0.30106
0.285451 0.653483 0.300496
0.302876 0.653864 0.300267
0.320836 0.654994 0.300511
0.337469 0.658045 0.30222
0.353964 0.661646 0.304158
0.371466 0.665629 0.306477
0.389868 0.669886 0.308705
0.409415 0.67422 0.311162
0.429664 0.678737 0.313405
0.450401 0.683177 0.315572
0.471656 0.687968 0.317845
0.493095 0.692439 0.319783
0.515282 0.69691 0.321828
0.537865 0.701442 0.32369
0.561028 0.70573 0.32549
0.584543 0.710048 0.327123
0.608774 0.714321 0.328878
