code/data/lut/45中性色调2.cube
TITLE "LD - Tonal Sand 2"
# Copyright (c) 2019 Lens Distortions, LLC. All Rights Reserved.
# LensDistortions.com
# ref-TS3
LUT_3D_SIZE 5
0.0266575 0.0268559 0.0271916
0.136492 0.0513313 0.0473487
0.369085 0.0863966 0.0658732
0.577813 0.112459 0.0755627
0.732006 0.12369 0.0804608
0.0877089 0.178897 0.0960708
0.196841 0.186175 0.0900587
0.394522 0.206409 0.0877546
0.614252 0.229938 0.0963607
0.786862 0.247761 0.11104
0.153674 0.373541 0.179507
0.260838 0.378119 0.17818
0.424308 0.406058 0.177371
0.662882 0.426688 0.169619
0.854749 0.446326 0.204578
0.228748 0.595804 0.277043
0.334432 0.601541 0.278172
0.495369 0.635843 0.294423
0.693996 0.669444 0.290394
0.906157 0.695735 0.309331
0.297734 0.802411 0.362737
0.402502 0.815152 0.367239
0.566033 0.854795 0.38912
0.760708 0.891203 0.406348
0.940993 0.919448 0.4065
0.0342718 0.0345617 0.0662547
0.146624 0.0599832 0.123018
0.341604 0.099321 0.168307
0.540856 0.125185 0.180133
0.695949 0.136324 0.18349
0.0942702 0.181888 0.170977
0.200076 0.187976 0.170687
0.374075 0.215625 0.188495
0.579095 0.251331 0.208942
0.771054 0.254566 0.202823
0.16228 0.376593 0.260899
0.305089 0.377325 0.286824
0.442435 0.405676 0.280598
0.679728 0.423804 0.265354
0.857694 0.451102 0.27393
0.238926 0.601205 0.359045
0.405447 0.608942 0.410452
0.522179 0.639979 0.418936
0.694682 0.677516 0.411948
0.912444 0.700099 0.374289
0.309346 0.810285 0.447898
0.414389 0.822858 0.452201
0.577081 0.862776 0.477607
0.769833 0.898848 0.49659
0.947127 0.926207 0.492226
0.0438697 0.0443885 0.147356
0.172183 0.0673381 0.263172
0.358831 0.10399 0.304387
0.530846 0.137377 0.311498
0.673243 0.152804 0.318563
0.101778 0.190295 0.281498
0.191348 0.205432 0.26006
0.362982 0.228458 0.315297
0.557122 0.265354 0.330709
0.73225 0.276234 0.352331
0.171572 0.384024 0.366888
0.302495 0.38265 0.398352
0.437705 0.41619 0.38735
0.644968 0.447135 0.403342
0.849119 0.46302 0.414023
0.250751 0.608881 0.466072
0.414237 0.615 0.502571
0.554009 0.644266 0.523781
0.734432 0.677714 0.517723
0.92137 0.706905 0.503868
0.322103 0.819226 0.557092
0.428717 0.831418 0.56379
0.591394 0.87071 0.594675
0.780774 0.906981 0.616175
0.953857 0.933577 0.613504
0.053193 0.0541695 0.282948
0.186282 0.0772106 0.428794
0.373541 0.105913 0.481849
0.556481 0.137011 0.481804
0.684901 0.15848 0.477256
0.108125 0.197803 0.417166
0.204318 0.22623 0.369314
0.344961 0.242618 0.488334
0.560311 0.280476 0.491508
0.726116 0.288777 0.511025
0.179706 0.39202 0.503044
0.287877 0.396796 0.49836
0.421042 0.434363 0.509438
0.632517 0.460258 0.569268
0.811078 0.484977 0.592294
0.261021 0.617594 0.598642
0.40032 0.62153 0.627466
0.563531 0.6495 0.672358
0.72137 0.692088 0.656199
0.92253 0.716258 0.671397
0.334905 0.829541 0.690776
0.442329 0.841123 0.698711
0.607858 0.878935 0.734997
0.794507 0.914382 0.766384
0.960769 0.940902 0.767285
0.059617 0.0607767 0.41088
0.194156 0.0841382 0.555123
0.374014 0.109712 0.616114
0.571023 0.135546 0.635447
0.712581 0.155123 0.633234
0.11223 0.20206 0.535042
0.215396 0.206638 0.559075
0.381201 0.23061 0.62948
0.589853 0.259281 0.667659
0.752163 0.287022 0.672923
0.185397 0.397269 0.625223
0.292058 0.400748 0.632364
0.44625 0.430365 0.678614
0.654337 0.457237 0.743572
0.828855 0.48806 0.753674
0.26862 0.62446 0.726314
0.375204 0.629328 0.73489
0.537011 0.664179 0.769436
0.722484 0.69987 0.815824
0.905898 0.730907 0.844724
0.344106 0.838605 0.818906
0.452003 0.85037 0.830732
0.61883 0.887098 0.868376
0.808865 0.920577 0.902434
0.962966 0.945678 0.919112
