code/data/lut/46中性色调3.cube
TITLE "LD - Tonal Sand 3"
# Copyright (c) 2019 Lens Distortions, LLC. All Rights Reserved.
# LensDistortions.com
# ref-TS3
LUT_3D_SIZE 33
0.00262455 0.00280766 0.00306706
0.0075227 0.00416571 0.00447089
0.0178225 0.00622568 0.00642405
0.0324712 0.00923171 0.00914015
0.0510262 0.0133364 0.0126497
0.0722972 0.0183566 0.0166934
0.094728 0.0236057 0.0208438
0.118807 0.0288853 0.0246281
0.144961 0.0340887 0.0280308
0.174777 0.0393683 0.0310521
0.207401 0.0446784 0.0337377
0.242969 0.0500343 0.0364996
0.279088 0.0553445 0.0387427
0.315389 0.0602579 0.0405585
0.350652 0.0653697 0.0425116
0.385534 0.0705119 0.0445563
0.417899 0.0754253 0.0460365
0.447608 0.0801862 0.0479896
0.4766 0.0847028 0.0497902
0.505348 0.0891737 0.0513313
0.533562 0.093431 0.0529183
0.561517 0.0977188 0.0542916
0.58967 0.101976 0.0557107
0.617304 0.10634 0.0570993
0.64477 0.110582 0.0586099
0.67155 0.115267 0.0605631
0.697597 0.120104 0.0624857
0.722713 0.12491 0.0646982
0.746578 0.129915 0.0669871
0.769146 0.134707 0.0694591
0.788403 0.138415 0.0715801
0.802197 0.139788 0.0732128
0.815732 0.141329 0.0749218
0.00840772 0.0121614 0.00943008
0.0159304 0.0150149 0.0110933
0.0294347 0.0186618 0.0132448
0.04654 0.0226902 0.0166781
0.0664225 0.0270085 0.0198215
0.0882124 0.0317388 0.0229038
0.111101 0.0370031 0.0261082
0.135897 0.0421302 0.029099
0.163714 0.047776 0.0320287
0.194598 0.0535439 0.0347906
0.227802 0.0591745 0.0370184
0.262394 0.0646067 0.0390478
0.296864 0.0699474 0.0407721
0.330846 0.0750134 0.0421454
0.363607 0.0800488 0.0438087
0.394644 0.0848249 0.0454719
0.423133 0.0896468 0.0468452
0.45185 0.0942702 0.0483101
0.479683 0.0988174 0.0496071
0.507774 0.102968 0.0509346
0.535348 0.107118 0.051957
0.563424 0.111467 0.0535286
0.591165 0.11574 0.0547951
0.619074 0.120333 0.0566262
0.646845 0.125002 0.0584421
0.674128 0.129854 0.0604562
0.700511 0.134829 0.0624857
0.725658 0.139803 0.0648661
0.749996 0.1449 0.0674449
0.772885 0.149874 0.0699016
0.792844 0.153689 0.0722515
0.806928 0.155215 0.074052
0.820386 0.156512 0.0756237
0.0187686 0.0303044 0.0203861
0.0271 0.0330053 0.0220798
0.0395666 0.0366979 0.0231174
0.0585031 0.0401465 0.0236973
0.0809186 0.0438087 0.0256352
0.104463 0.0484321 0.0283207
0.128801 0.0538491 0.0309758
0.154559 0.0595712 0.0334478
0.183169 0.0653391 0.0359503
0.213901 0.0711223 0.0380865
0.245991 0.0768597 0.0397955
0.278431 0.0819867 0.0409247
0.310475 0.0871748 0.0423133
0.341054 0.0920424 0.0434577
0.370123 0.0966506 0.0445716
0.398093 0.101076 0.0457008
0.426139 0.105577 0.047013
0.453849 0.109712 0.0481727
0.4813 0.113924 0.049134
0.509255 0.118029 0.050248
0.537392 0.122377 0.0515908
0.565637 0.126726 0.0531777
0.593973 0.131212 0.0547799
0.621988 0.135882 0.0566567
0.649989 0.140658 0.0589151
0.677684 0.145602 0.0611124
0.704494 0.150576 0.0635843
0.73022 0.155718 0.066041
0.754818 0.160586 0.0687419
0.777996 0.165606 0.0713207
0.798474 0.169848 0.0741283
0.812497 0.171206 0.0757916
0.826154 0.172686 0.0775921
0.028809 0.0517281 0.0310521
0.0386664 0.0549783 0.033463
0.0511788 0.0586404 0.0347753
0.0684062 0.0626993 0.0340887
0.0929427 0.0669108 0.0323033
0.119265 0.0710155 0.0334783
0.144778 0.0760662 0.0352331
0.17084 0.0816815 0.0373236
0.198505 0.0870527 0.0390173
0.227802 0.0925154 0.0404822
0.257939 0.0973068 0.0415808
0.287709 0.101961 0.0422827
0.316411 0.106157 0.0433661
0.344564 0.110353 0.0445716
0.372396 0.114595 0.0457008
0.400214 0.118685 0.0469978
0.427863 0.122683 0.0480201
0.455741 0.126741 0.0492866
0.483879 0.130846 0.0504616
0.512093 0.135042 0.0515297
0.540749 0.139101 0.0528572
0.569314 0.143511 0.0544289
0.597955 0.14789 0.0563211
0.626444 0.152148 0.0580453
0.654948 0.156924 0.0604715
0.682841 0.161898 0.0629282
0.710338 0.166888 0.0656291
0.7364 0.172076 0.0683299
0.761318 0.177249 0.0714733
0.785016 0.182528 0.0743877
0.805264 0.186664 0.0769513
0.819577 0.188174 0.078645
0.833036 0.189532 0.0803693
0.0395361 0.0791638 0.042649
0.0510567 0.0821851 0.0452735
0.0641184 0.0859083 0.0467079
0.0809644 0.090074 0.0473487
0.102129 0.0944076 0.0446174
0.127749 0.0985275 0.0404822
0.154543 0.102968 0.0403601
0.181781 0.107179 0.0414893
0.208362 0.111254 0.042359
0.235492 0.115373 0.043122
0.263279 0.118944 0.0436408
0.291066 0.122728 0.0445869
0.318883 0.126467 0.0457771
0.346624 0.130144 0.046952
0.374487 0.133791 0.0480201
0.402533 0.137407 0.0494392
0.430777 0.141131 0.050721
0.45922 0.1449 0.0522011
0.48806 0.148852 0.0534524
0.517159 0.15285 0.0551614
0.546029 0.15697 0.0567178
0.575372 0.161059 0.0585336
0.604166 0.165316 0.0602884
0.633005 0.169879 0.0621805
0.661814 0.174685 0.0645762
0.690166 0.179522 0.0666361
0.717403 0.18439 0.0691386
0.743526 0.189563 0.0719463
0.768795 0.194919 0.0751049
0.792523 0.20029 0.0780804
0.812757 0.204288 0.0805829
0.827466 0.206165 0.082536
0.840848 0.20737 0.084123
0.0506294 0.109758 0.0551003
0.0632944 0.112367 0.0577707
0.0766613 0.115526 0.0586404
0.0935531 0.119097 0.0592813
0.113069 0.122652 0.0588846
0.135195 0.126436 0.0549477
0.15938 0.130007 0.0493935
0.184726 0.132845 0.0474861
0.212406 0.135393 0.0476539
0.239963 0.138048 0.0484779
0.267521 0.140948 0.0490883
0.295201 0.144121 0.0500954
0.323033 0.14728 0.0510414
0.350973 0.150515 0.052018
0.379309 0.153689 0.0530861
0.407996 0.157321 0.0543221
0.436484 0.160708 0.0558328
0.465217 0.164309 0.0571756
0.494133 0.168185 0.0586709
0.523415 0.172 0.0604105
0.552636 0.175891 0.0620584
0.581994 0.179889 0.0639658
0.611353 0.18436 0.0657054
0.640604 0.188891 0.0678721
0.669337 0.193576 0.0701152
0.697673 0.198596 0.0725261
0.725246 0.203647 0.0751659
0.751339 0.208728 0.0775464
0.776562 0.214023 0.0803388
0.80032 0.219348 0.0830701
0.820508 0.223514 0.0854658
0.835584 0.225345 0.0873426
0.849042 0.226658 0.0890211
0.0619211 0.140887 0.0681621
0.075227 0.142565 0.0713054
0.0885023 0.144579 0.0715953
0.10454 0.146532 0.071107
0.123247 0.148333 0.0702678
0.14316 0.151141 0.0695201
0.163821 0.154147 0.0657054
0.187579 0.157122 0.0591287
0.213474 0.15938 0.0565652
0.241779 0.161242 0.0564126
0.271351 0.163104 0.0568704
0.300282 0.16556 0.0572976
0.328328 0.168627 0.0578317
0.357092 0.171847 0.058854
0.385428 0.17499 0.0597543
0.414221 0.178256 0.0611124
0.443 0.181598 0.0623026
0.472023 0.18526 0.0636454
0.501228 0.188708 0.0650187
0.530709 0.192523 0.0666056
0.56022 0.19649 0.0684672
0.589517 0.20061 0.0702525
0.619043 0.20502 0.072343
0.648447 0.209491 0.0745251
0.677134 0.214221 0.0767834
0.705623 0.219287 0.0792706
0.73312 0.224384 0.0817731
0.759197 0.229374 0.0842603
0.784176 0.234714 0.0868544
0.808103 0.240146 0.0896162
0.828244 0.244251 0.0919966
0.843671 0.246387 0.093904
0.857008 0.247639 0.095491
0.0727092 0.169772 0.081178
0.0852522 0.16997 0.0831006
0.0987869 0.170962 0.0831006
0.114809 0.171786 0.0824903
0.133318 0.1729 0.0813916
0.152377 0.17438 0.0810864
0.170993 0.177432 0.0803845
0.191943 0.180407 0.076112
0.216403 0.183444 0.0694743
0.24387 0.185809 0.0665141
0.273259 0.187747 0.0657969
0.304112 0.18938 0.0663005
0.33434 0.191485 0.0666819
0.363302 0.194354 0.0671244
0.391791 0.197498 0.067628
0.420645 0.200748 0.0684825
0.449531 0.204181 0.0698253
0.478737 0.207675 0.0710155
0.508385 0.211276 0.0724041
0.538079 0.215091 0.074052
0.567651 0.219104 0.0755627
0.597391 0.223102 0.0774395
0.626886 0.227283 0.0794232
0.656046 0.231937 0.0814069
0.685115 0.236652 0.0839399
0.713588 0.241627 0.0863966
0.741085 0.246708 0.0890822
0.767117 0.251774 0.0914473
0.791989 0.257099 0.0942855
0.815778 0.262654 0.0969406
0.835935 0.266743 0.0990158
0.851667 0.269093 0.100999
0.865202 0.270253 0.10248
0.0826276 0.196765 0.0931411
0.0944381 0.196429 0.094667
0.107897 0.196368 0.0941939
0.124392 0.196689 0.0935988
0.142351 0.197299 0.0920272
0.161578 0.198917 0.0916609
0.179583 0.201465 0.0919814
0.198489 0.204471 0.0910201
0.220798 0.207828 0.0867018
0.246693 0.210849 0.0801556
0.275456 0.213581 0.0768597
0.305821 0.215732 0.0756847
0.337224 0.217533 0.0760204
0.36875 0.219455 0.0769513
0.398703 0.222095 0.0773938
0.427482 0.22533 0.0776532
0.456611 0.228672 0.0784314
0.485954 0.23209 0.0795148
0.515419 0.235691 0.0806897
0.545159 0.239399 0.082063
0.575051 0.24332 0.0836652
0.604807 0.24744 0.085359
0.634623 0.251606 0.0874342
0.663874 0.256199 0.0892958
0.692927 0.260731 0.0915084
0.721157 0.265553 0.0938277
0.748577 0.270756 0.0964218
0.775051 0.27599 0.0991226
0.799954 0.281315 0.101686
0.823529 0.286748 0.104509
0.843839 0.290974 0.106798
0.859648 0.293111 0.108553
0.87332 0.294591 0.110323
0.091722 0.223468 0.104707
0.10277 0.222965 0.105425
0.11693 0.222766 0.105409
0.133394 0.222538 0.104662
0.151644 0.223117 0.102907
0.170367 0.224384 0.101869
0.188937 0.226993 0.103105
0.207782 0.230137 0.103212
0.227832 0.233448 0.102083
0.251591 0.236728 0.0971847
0.278584 0.240223 0.0911116
0.307836 0.243076 0.0877699
0.338781 0.24535 0.0864424
0.370413 0.247456 0.0865644
0.40235 0.249195 0.0874952
0.43357 0.251469 0.0882887
0.463493 0.254597 0.0887465
0.492973 0.258244 0.0893263
0.522698 0.26183 0.0899825
0.552636 0.265522 0.0911879
0.582071 0.269306 0.0922408
0.611902 0.273365 0.0937667
0.641733 0.277409 0.0956436
0.671199 0.28188 0.0974441
0.700282 0.286549 0.0997024
0.728862 0.291478 0.102159
0.756268 0.296544 0.104509
0.78262 0.301915 0.107225
0.807553 0.307195 0.109743
0.831357 0.312581 0.112551
0.851698 0.316899 0.114839
0.867536 0.319066 0.116594
0.881209 0.32047 0.118318
0.100542 0.251347 0.116213
0.111177 0.250935 0.116381
0.125399 0.250278 0.116121
0.142519 0.250004 0.115694
0.160937 0.250217 0.114092
0.179843 0.251804 0.112825
0.197986 0.254246 0.113329
0.216892 0.257176 0.114839
0.237461 0.260639 0.114199
0.259205 0.264012 0.113222
0.284138 0.267536 0.107958
0.311894 0.271168 0.102754
0.341451 0.274159 0.0992752
0.372335 0.276646 0.0978256
0.404044 0.279011 0.0977646
0.4365 0.280888 0.0988022
0.468635 0.282856 0.0999924
0.499641 0.285771 0.100587
0.529473 0.289311 0.100771
0.559365 0.293034 0.101335
0.589227 0.296925 0.102159
0.619516 0.300938 0.103639
0.649073 0.30515 0.105013
0.678492 0.309545 0.106645
0.707698 0.314168 0.108812
0.736019 0.318685 0.110826
0.763592 0.323705 0.113298
0.789746 0.328954 0.115724
0.814603 0.334157 0.118135
0.838376 0.339391 0.120851
0.859007 0.343679 0.12314
0.875044 0.34609 0.125063
0.888426 0.347189 0.126421
0.109575 0.279606 0.127718
0.119844 0.279255 0.127398
0.134081 0.278828 0.12697
0.151247 0.278248 0.126757
0.170504 0.278553 0.125978
0.18912 0.279774 0.124346
0.207324 0.282185 0.124727
0.226429 0.28542 0.12604
0.246738 0.288777 0.126925
0.268193 0.292256 0.126497
0.291844 0.295796 0.124529
0.317632 0.29955 0.119951
0.344991 0.30309 0.114961
0.374868 0.306142 0.111299
0.405844 0.308904 0.10985
0.437766 0.311376 0.109575
0.470314 0.313634 0.110384
0.503532 0.315587 0.112078
0.535668 0.318105 0.113176
0.566522 0.321324 0.113542
0.596368 0.325185 0.113664
0.6262 0.329259 0.114321
0.655863 0.333394 0.115358
0.68545 0.337728 0.116808
0.714611 0.342351 0.118471
0.743267 0.347021 0.120485
0.770672 0.351904 0.123003
0.796796 0.356878 0.125109
0.82179 0.361959 0.127474
0.845075 0.366995 0.129717
0.86627 0.371374 0.13193
0.881926 0.373617 0.133593
0.895582 0.374792 0.135012
0.119081 0.308003 0.140063
0.129351 0.307637 0.139696
0.14342 0.307408 0.139025
0.16022 0.306783 0.138048
0.179538 0.306889 0.137148
0.198642 0.308202 0.136767
0.217258 0.310979 0.137682
0.235996 0.314015 0.138415
0.256062 0.317342 0.139208
0.277501 0.320668 0.139986
0.300664 0.324544 0.139818
0.325338 0.328557 0.137362
0.35172 0.332387 0.133318
0.379538 0.33611 0.128069
0.40943 0.339239 0.124224
0.440543 0.342245 0.122469
0.472389 0.344884 0.122194
0.504997 0.347189 0.122805
0.538216 0.349371 0.124285
0.571588 0.351446 0.126238
0.603037 0.354345 0.127001
0.632868 0.357977 0.126818
0.662806 0.36202 0.127489
0.692012 0.36611 0.12813
0.720928 0.370642 0.12929
0.749615 0.375418 0.131014
0.776898 0.380163 0.132967
0.802823 0.385061 0.13489
0.827909 0.390097 0.137194
0.851469 0.395178 0.1393
0.873182 0.39971 0.141527
0.888731 0.401633 0.142916
0.90251 0.403128 0.144488
0.128771 0.337194 0.152804
0.138689 0.336522 0.152316
0.152819 0.336156 0.15172
0.170123 0.335836 0.150851
0.189334 0.33576 0.149783
0.208621 0.337301 0.149676
0.226703 0.339834 0.150164
0.245426 0.342916 0.150942
0.265629 0.346197 0.152041
0.287434 0.350164 0.153262
0.31014 0.353887 0.153979
0.334035 0.357641 0.153399
0.358892 0.361593 0.150835
0.385687 0.365301 0.14638
0.413718 0.369024 0.141192
0.443641 0.372595 0.137148
0.474922 0.37557 0.1355
0.507164 0.378317 0.134859
0.539879 0.380865 0.135378
0.573068 0.383307 0.136873
0.606744 0.385367 0.139071
0.639368 0.387854 0.140795
0.669749 0.391516 0.141207
0.698848 0.395773 0.141146
0.727794 0.400153 0.14197
0.756024 0.404608 0.142611
0.783246 0.409201 0.144106
0.809262 0.413947 0.145754
0.833814 0.41886 0.147677
0.857542 0.423957 0.149844
0.879591 0.428748 0.151736
0.895277 0.430823 0.153353
0.908797 0.432059 0.154528
0.138415 0.366415 0.16611
0.148394 0.366033 0.16553
0.162219 0.365454 0.164508
0.179675 0.365042 0.163561
0.198886 0.364889 0.1626
0.21828 0.36643 0.162585
0.236545 0.369177 0.163287
0.255436 0.372274 0.164355
0.275792 0.375921 0.165545
0.297169 0.379538 0.16669
0.319768 0.383185 0.167712
0.343359 0.386984 0.168246
0.367971 0.391089 0.167575
0.393225 0.39501 0.16466
0.420081 0.398718 0.160555
0.448218 0.402625 0.155322
0.478004 0.406302 0.150622
0.509606 0.409308 0.14873
0.541756 0.412116 0.148028
0.574426 0.414893 0.148257
0.607523 0.417334 0.149416
0.640955 0.419593 0.151537
0.673991 0.422049 0.153918
0.70518 0.425193 0.15523
0.734173 0.429389 0.155489
0.762417 0.433906 0.156115
0.789532 0.438773 0.157
0.815396 0.443641 0.158114
0.840269 0.448463 0.159792
0.863737 0.453468 0.161669
0.886122 0.458366 0.163348
0.901457 0.46009 0.164492
0.91519 0.461479 0.165621
0.148211 0.395987 0.179278
0.157946 0.395529 0.178912
0.171878 0.394797 0.177905
0.189456 0.394461 0.176898
0.20911 0.39469 0.176059
0.228305 0.396078 0.175937
0.246601 0.398856 0.176684
0.265644 0.402197 0.177813
0.285863 0.405539 0.179019
0.306905 0.409186 0.180133
0.329503 0.413153 0.181353
0.353262 0.416861 0.182513
0.377325 0.420691 0.182925
0.402045 0.424674 0.181949
0.427405 0.42858 0.179278
0.45449 0.43238 0.174594
0.482826 0.436423 0.169314
0.512856 0.440238 0.164584
0.544518 0.443412 0.162097
0.576867 0.446281 0.161273
0.609445 0.449088 0.161395
0.642313 0.451774 0.162387
0.675334 0.454353 0.164416
0.708064 0.457008 0.167132
0.739773 0.459953 0.169528
0.768902 0.463951 0.17052
0.795987 0.468666 0.171084
0.821759 0.473396 0.171847
0.846189 0.478248 0.172717
0.869673 0.482994 0.174166
0.892088 0.488029 0.175738
0.90753 0.489998 0.176471
0.921462 0.491493 0.177493
0.158251 0.425879 0.19292
0.16762 0.42533 0.192447
0.181918 0.42501 0.191531
0.199359 0.42443 0.190509
0.21915 0.424598 0.189761
0.23827 0.425971 0.189548
0.256916 0.428641 0.190494
0.27602 0.432135 0.191791
0.295979 0.43566 0.193027
0.317281 0.439216 0.194263
0.339757 0.443076 0.195514
0.363043 0.446876 0.196597
0.387076 0.450645 0.197589
0.411322 0.454627 0.197894
0.436423 0.458778 0.197009
0.46247 0.46305 0.19408
0.489769 0.466835 0.189471
0.518395 0.470802 0.183993
0.548226 0.474434 0.178668
0.579873 0.477821 0.17615
0.612024 0.480873 0.174868
0.644633 0.483818 0.174838
0.676982 0.486732 0.175708
0.709468 0.489723 0.177783
0.74165 0.492622 0.180636
0.773083 0.495491 0.183658
0.801953 0.499046 0.185611
0.828031 0.503655 0.186084
0.852323 0.5084 0.18677
0.875578 0.513283 0.187503
0.897948 0.518196 0.188708
0.913451 0.520226 0.189456
0.927367 0.521828 0.190249
0.168322 0.455955 0.206683
0.177401 0.455543 0.206332
0.191989 0.4551 0.205554
0.209567 0.454383 0.204334
0.229541 0.454643 0.203555
0.248905 0.456092 0.203494
0.267475 0.45893 0.204486
0.286442 0.462364 0.205722
0.306401 0.465782 0.207126
0.327611 0.469352 0.208255
0.349966 0.473136 0.209583
0.373434 0.477211 0.211002
0.397147 0.481193 0.212222
0.4215 0.485054 0.213397
0.446113 0.489189 0.213443
0.471244 0.493233 0.212039
0.497383 0.497261 0.208927
0.52488 0.501305 0.204211
0.553674 0.505272 0.19855
0.583688 0.509117 0.193256
0.615167 0.512612 0.190143
0.647074 0.515831 0.188968
0.679255 0.518944 0.188663
0.71136 0.522148 0.189517
0.742992 0.52546 0.191501
0.774334 0.528603 0.194125
0.804746 0.53164 0.197406
0.833051 0.534997 0.20032
0.858427 0.538994 0.201617
0.881559 0.54374 0.202045
0.903166 0.548302 0.202487
0.919188 0.55082 0.202564
0.932967 0.552407 0.203143
0.178653 0.48632 0.220859
0.187762 0.485893 0.22034
0.202197 0.485451 0.219455
0.219806 0.484993 0.218524
0.239811 0.485191 0.217639
0.259174 0.48661 0.217639
0.27808 0.489403 0.218875
0.297002 0.492546 0.219913
0.316884 0.496132 0.221164
0.338155 0.499763 0.22269
0.360433 0.503685 0.223941
0.383795 0.507729 0.225315
0.407416 0.51165 0.226566
0.431647 0.515801 0.227939
0.456001 0.519753 0.228977
0.480629 0.523796 0.228748
0.506081 0.527794 0.227253
0.532662 0.532006 0.223758
0.560342 0.53611 0.219165
0.589334 0.5402 0.213504
0.61915 0.544198 0.207767
0.650324 0.548043 0.204593
0.681895 0.551354 0.203067
0.713527 0.55465 0.202884
0.745098 0.55816 0.203769
0.776074 0.561593 0.205371
0.805859 0.564935 0.207767
0.834623 0.568063 0.21059
0.861875 0.571206 0.213886
0.8869 0.574624 0.216358
0.908522 0.578775 0.216785
0.925139 0.581811 0.216968
0.938415 0.583154 0.217029
0.18909 0.516976 0.234943
0.198062 0.516487 0.234379
0.212345 0.516258 0.233722
0.230045 0.515679 0.232517
0.250156 0.51574 0.231617
0.269505 0.51722 0.231586
0.288411 0.519951 0.232609
0.307622 0.523064 0.233921
0.327474 0.526787 0.235355
0.348684 0.530541 0.236728
0.371054 0.534401 0.2383
0.394141 0.538537 0.239811
0.417884 0.542504 0.241367
0.441749 0.546532 0.242664
0.466087 0.550546 0.244038
0.490745 0.554711 0.244877
0.515648 0.55877 0.244511
0.541512 0.562921 0.242679
0.568063 0.567193 0.239246
0.595941 0.571191 0.234302
0.624674 0.575387 0.228534
0.654612 0.579568 0.223163
0.685084 0.583459 0.219242
0.715938 0.586954 0.217487
0.747295 0.590494 0.21735
0.778119 0.594263 0.217823
0.807767 0.597833 0.219074
0.836103 0.601282 0.22121
0.863264 0.604608 0.224277
0.889128 0.607614 0.227451
0.912947 0.610162 0.23032
0.930663 0.612528 0.231312
0.943725 0.614221 0.232929
0.199619 0.547768 0.249042
0.208881 0.54725 0.248432
0.222568 0.547127 0.247883
0.240482 0.546624 0.246952
0.260487 0.546395 0.245808
0.280049 0.547875 0.245838
0.299245 0.550729 0.247059
0.318288 0.553979 0.248386
0.338323 0.557534 0.249928
0.359579 0.56141 0.251225
0.381888 0.565255 0.252857
0.404974 0.569451 0.254459
0.428305 0.573663 0.25594
0.452262 0.577707 0.257588
0.476295 0.581765 0.25893
0.501015 0.585855 0.260365
0.525856 0.589837 0.261021
0.551308 0.593881 0.260471
0.577066 0.598062 0.258244
0.603815 0.602319 0.254917
0.631571 0.606424 0.249928
0.660151 0.610742 0.244007
0.689433 0.614969 0.2383
0.719387 0.619058 0.23415
0.749828 0.62269 0.232166
0.780301 0.626566 0.231937
0.809735 0.630243 0.232151
0.837873 0.633829 0.233097
0.864729 0.637263 0.235019
0.890272 0.640726 0.237537
0.914137 0.643458 0.240345
0.934462 0.64509 0.243153
0.948257 0.645945 0.249546
0.210361 0.578744 0.263661
0.219867 0.578241 0.26305
0.233112 0.578027 0.262272
0.250767 0.57763 0.261128
0.270985 0.577447 0.259907
0.290791 0.578882 0.260014
0.310246 0.581765 0.261448
0.329442 0.585061 0.262928
0.349401 0.588663 0.2645
0.370748 0.592416 0.266194
0.392813 0.596353 0.267674
0.415824 0.600412 0.269383
0.439353 0.604913 0.271153
0.463157 0.608972 0.272618
0.487037 0.613001 0.273991
0.511421 0.616983 0.27538
0.536324 0.621012 0.276661
0.561456 0.625071 0.277134
0.586999 0.629129 0.276356
0.612772 0.633494 0.274327
0.63949 0.637583 0.270527
0.66685 0.641749 0.265385
0.695308 0.646036 0.259693
0.723781 0.650187 0.253666
0.753109 0.654414 0.249088
0.782956 0.65832 0.247089
0.811994 0.662287 0.246494
0.839918 0.665995 0.246494
0.86659 0.66952 0.24744
0.891814 0.673136 0.24889
0.915862 0.676295 0.250843
0.936614 0.678294 0.253086
0.950927 0.6795 0.263325
0.221103 0.609781 0.277974
0.2309 0.60943 0.277562
0.24387 0.609033 0.276738
0.261753 0.608881 0.275898
0.282048 0.608682 0.274784
0.301991 0.61004 0.274784
0.321386 0.613001 0.276143
0.34081 0.616205 0.277852
0.360815 0.619791 0.279316
0.38204 0.62356 0.281147
0.404379 0.627634 0.282734
0.427237 0.631708 0.284474
0.450477 0.635813 0.286122
0.474037 0.640162 0.287785
0.498039 0.644144 0.289433
0.522255 0.648127 0.290745
0.546899 0.65211 0.291981
0.571969 0.656199 0.293095
0.597284 0.660075 0.293523
0.622568 0.664179 0.292592
0.648402 0.66836 0.290196
0.675029 0.672618 0.286427
0.70193 0.676783 0.281086
0.729686 0.68101 0.27512
0.757839 0.685374 0.269169
0.786435 0.689525 0.264347
0.814694 0.693645 0.262058
0.842161 0.697459 0.261357
0.868605 0.701015 0.261189
0.893538 0.70457 0.261494
0.917464 0.708019 0.262455
0.93846 0.71043 0.264042
0.953201 0.712108 0.27509
0.232624 0.641016 0.293187
0.242374 0.640665 0.292714
0.255009 0.640391 0.291966
0.272862 0.64007 0.290791
0.293416 0.640024 0.289662
0.313695 0.641184 0.289509
0.333104 0.644114 0.291005
0.352178 0.647501 0.292775
0.372473 0.65098 0.294575
0.393576 0.654887 0.296391
0.416175 0.658885 0.298283
0.438956 0.662928 0.299748
0.46215 0.666957 0.301411
0.485359 0.671168 0.303075
0.509224 0.675151 0.304753
0.533288 0.679103 0.306096
0.557687 0.682979 0.307408
0.582528 0.686915 0.308751
0.607569 0.690944 0.309819
0.632685 0.694835 0.310018
0.657923 0.698894 0.30869
0.683665 0.702937 0.306203
0.709911 0.70724 0.302174
0.736645 0.711421 0.297154
0.763546 0.715801 0.291279
0.79115 0.720058 0.285161
0.81828 0.724117 0.280003
0.844816 0.728191 0.277317
0.870909 0.731868 0.276387
0.895644 0.735439 0.275959
0.919295 0.738903 0.276036
0.940215 0.741665 0.276631
0.955764 0.743664 0.287755
0.24445 0.672267 0.308354
0.254246 0.671946 0.307897
0.266804 0.671763 0.307225
0.284382 0.671275 0.305882
0.304997 0.671412 0.304906
0.325597 0.672419 0.304814
0.345052 0.675288 0.30631
0.364172 0.678782 0.308034
0.384588 0.682231 0.30985
0.405676 0.686061 0.311757
0.428138 0.689998 0.31368
0.450889 0.694011 0.315358
0.473884 0.698024 0.317113
0.497215 0.702007 0.318822
0.520729 0.706111 0.32018
0.544732 0.709941 0.321752
0.568887 0.713771 0.322988
0.593576 0.717632 0.324407
0.618311 0.721416 0.325521
0.643198 0.7252 0.326558
0.668162 0.729244 0.326436
0.693416 0.733211 0.324987
0.7187 0.73727 0.322454
0.744244 0.741436 0.318196
0.770581 0.745602 0.312947
0.796963 0.749996 0.307088
0.823285 0.754131 0.301198
0.8486 0.758312 0.29604
0.873655 0.762112 0.292897
0.898024 0.765637 0.29192
0.921462 0.769116 0.291066
0.942443 0.77203 0.290837
0.95845 0.77435 0.30193
0.256443 0.703273 0.323705
0.266194 0.703136 0.323461
0.278569 0.703029 0.322789
0.296345 0.702556 0.321401
0.317067 0.702708 0.320394
0.337606 0.70367 0.320073
0.357046 0.706111 0.321401
0.376516 0.709743 0.323552
0.396811 0.713329 0.32549
0.418067 0.71696 0.327489
0.440131 0.720851 0.329137
0.46305 0.724819 0.331121
0.485939 0.728801 0.33283
0.509255 0.732662 0.334615
0.532708 0.736645 0.336217
0.556481 0.740414 0.337652
0.580392 0.744121 0.338979
0.604639 0.74786 0.340185
0.629343 0.751614 0.341451
0.653803 0.755352 0.342458
0.678691 0.75903 0.343267
0.70341 0.762966 0.343023
0.728191 0.766857 0.341634
0.752895 0.770916 0.338598
0.77821 0.775036 0.334524
0.803723 0.779019 0.329259
0.828794 0.7832 0.323323
0.85362 0.787228 0.317403
0.877333 0.791302 0.312215
0.900984 0.794949 0.309117
0.923995 0.798444 0.307485
0.944854 0.80148 0.306615
0.961273 0.803922 0.317494
0.268788 0.733715 0.339483
0.278477 0.733608 0.339101
0.290883 0.733547 0.338415
0.308598 0.73315 0.337102
0.329152 0.733242 0.336202
0.350042 0.734279 0.335866
0.369375 0.736751 0.337087
0.389013 0.740169 0.339147
0.409293 0.743694 0.341054
0.430365 0.74728 0.343038
0.452461 0.751019 0.345129
0.47509 0.754986 0.347066
0.498283 0.758724 0.348837
0.521218 0.762493 0.350225
0.54461 0.766155 0.351812
0.568185 0.769955 0.353216
0.592126 0.773526 0.35465
0.616129 0.777127 0.355825
0.640269 0.780835 0.357183
0.664546 0.78439 0.358358
0.688975 0.787961 0.359365
