code/data/lut/46中性色调3.cube
TITLE "LD - Tonal Sand 3"
# Copyright (c) 2019 Lens Distortions, LLC. All Rights Reserved.
# LensDistortions.com
# ref-TS3
LUT_3D_SIZE 5
0.00262455 0.00280766 0.00306706
0.144961 0.0340887 0.0280308
0.417899 0.0754253 0.0460365
0.64477 0.110582 0.0586099
0.815732 0.141329 0.0749218
0.0826276 0.196765 0.0931411
0.220798 0.207828 0.0867018
0.456611 0.228672 0.0784314
0.692927 0.260731 0.0915084
0.87332 0.294591 0.110323
0.158251 0.425879 0.19292
0.295979 0.43566 0.193027
0.489769 0.466835 0.189471
0.74165 0.492622 0.180636
0.927367 0.521828 0.190249
0.24445 0.672267 0.308354
0.384588 0.682231 0.30985
0.568887 0.713771 0.322988
0.770581 0.745602 0.312947
0.95845 0.77435 0.30193
0.335821 0.883452 0.422736
0.475227 0.893233 0.423972
0.652674 0.91754 0.437247
0.833631 0.940719 0.44625
0.988235 0.965103 0.432685
0.0099794 0.0104067 0.0560616
0.157046 0.0465095 0.127321
0.386526 0.0925612 0.17847
0.606241 0.126436 0.193179
0.784207 0.15494 0.205814
0.0919051 0.201083 0.188113
0.226444 0.210727 0.188037
0.434073 0.241077 0.20676
0.656657 0.285817 0.232486
0.856687 0.326146 0.256123
0.168902 0.430961 0.290761
0.348974 0.435355 0.32343
0.514809 0.466926 0.313603
0.759045 0.4925 0.299016
0.926238 0.533364 0.337758
0.256306 0.678477 0.40795
0.482521 0.685039 0.474922
0.617075 0.714153 0.486046
0.777646 0.750668 0.462058
0.964614 0.779049 0.434852
0.347875 0.888533 0.524895
0.551965 0.89955 0.579065
0.692134 0.919905 0.589349
0.845975 0.943877 0.591882
0.992248 0.969345 0.546624
0.0242618 0.0249027 0.157702
0.187472 0.0545052 0.291066
0.405875 0.098085 0.339147
0.595728 0.141024 0.348547
0.761517 0.17348 0.365896
0.0987564 0.210834 0.318303
0.214481 0.230961 0.296513
0.419455 0.256672 0.359792
0.633799 0.302647 0.378347
0.8262 0.340856 0.414939
0.17966 0.439933 0.418677
0.348104 0.441596 0.460395
0.506386 0.479759 0.443641
0.726162 0.514763 0.461097
0.916182 0.550332 0.487678
0.269474 0.686305 0.532616
0.491478 0.690593 0.585321
0.629236 0.7205 0.592157
0.805692 0.751766 0.583139
0.970001 0.782757 0.583795
0.361181 0.894286 0.646571
0.566888 0.903029 0.683024
0.705409 0.923201 0.699001
0.853422 0.948272 0.704875
0.997024 0.97377 0.67834
0.0370489 0.0380407 0.314733
0.204227 0.0664836 0.479347
0.423636 0.100145 0.537926
0.622522 0.141649 0.539483
0.769894 0.182254 0.543862
0.106508 0.219593 0.474128
0.22623 0.254551 0.421927
0.39646 0.274342 0.556207
0.637186 0.318242 0.560418
0.815274 0.362173 0.585351
0.189136 0.449439 0.570718
0.33048 0.458595 0.5738
0.487343 0.49987 0.583658
0.712261 0.529259 0.645136
0.885573 0.570809 0.664073
0.280507 0.695079 0.674632
0.467338 0.699687 0.715267
0.638804 0.725841 0.74435
0.793072 0.764233 0.727413
0.967071 0.790631 0.74464
0.373907 0.901213 0.778759
0.553674 0.908736 0.799588
0.710719 0.928405 0.818204
0.863737 0.95314 0.833631
0.999008 0.978653 0.824201
0.0463569 0.0475471 0.482292
0.215335 0.076585 0.634684
0.425956 0.107118 0.69369
0.641154 0.14229 0.714992
0.798642 0.181506 0.721614
0.112139 0.22649 0.617166
0.245319 0.268437 0.60235
0.398993 0.283238 0.70248
0.641215 0.327489 0.755535
0.838865 0.374884 0.765469
0.197314 0.457649 0.707286
0.335912 0.476448 0.697826
0.467201 0.510857 0.741894
0.694041 0.546304 0.812833
0.896605 0.579919 0.83093
0.290471 0.703777 0.802136
0.469932 0.712108 0.814786
0.617334 0.741741 0.837064
0.780468 0.775906 0.867521
0.950591 0.802533 0.895552
0.38352 0.908415 0.891508
0.551995 0.91519 0.900221
0.706798 0.935409 0.919097
0.867262 0.959457 0.940978
0.999008 0.98291 0.953384
