code/data/lut/46中性色调3.cube
TITLE "LD - Tonal Sand 3"
# Copyright (c) 2019 Lens Distortions, LLC. All Rights Reserved.
# LensDistortions.com
# ref-TS3
LUT_3D_SIZE 9
0.00262455 0.00280766 0.00306706
0.0510262 0.0133364 0.0126497
0.144961 0.0340887 0.0280308
0.279088 0.0553445 0.0387427
0.417899 0.0754253 0.0460365
0.533562 0.093431 0.0529183
0.64477 0.110582 0.0586099
0.746578 0.129915 0.0669871
0.815732 0.141329 0.0749218
0.0395361 0.0791638 0.042649
0.102129 0.0944076 0.0446174
0.208362 0.111254 0.042359
0.318883 0.126467 0.0457771
0.430777 0.141131 0.050721
0.546029 0.15697 0.0567178
0.661814 0.174685 0.0645762
0.768795 0.194919 0.0751049
0.840848 0.20737 0.084123
0.0826276 0.196765 0.0931411
0.142351 0.197299 0.0920272
0.220798 0.207828 0.0867018
0.337224 0.217533 0.0760204
0.456611 0.228672 0.0784314
0.575051 0.24332 0.0836652
0.692927 0.260731 0.0915084
0.799954 0.281315 0.101686
0.87332 0.294591 0.110323
0.119081 0.308003 0.140063
0.179538 0.306889 0.137148
0.256062 0.317342 0.139208
0.35172 0.332387 0.133318
0.472389 0.344884 0.122194
0.603037 0.354345 0.127001
0.720928 0.370642 0.12929
0.827909 0.390097 0.137194
0.90251 0.403128 0.144488
0.158251 0.425879 0.19292
0.21915 0.424598 0.189761
0.295979 0.43566 0.193027
0.387076 0.450645 0.197589
0.489769 0.466835 0.189471
0.612024 0.480873 0.174868
0.74165 0.492622 0.180636
0.852323 0.5084 0.18677
0.927367 0.521828 0.190249
0.199619 0.547768 0.249042
0.260487 0.546395 0.245808
0.338323 0.557534 0.249928
0.428305 0.573663 0.25594
0.525856 0.589837 0.261021
0.631571 0.606424 0.249928
0.749828 0.62269 0.232166
0.864729 0.637263 0.235019
0.948257 0.645945 0.249546
0.24445 0.672267 0.308354
0.304997 0.671412 0.304906
0.384588 0.682231 0.30985
0.473884 0.698024 0.317113
0.568887 0.713771 0.322988
0.668162 0.729244 0.326436
0.770581 0.745602 0.312947
0.873655 0.762112 0.292897
0.95845 0.77435 0.30193
0.293111 0.79089 0.370398
0.353353 0.79089 0.367056
0.433387 0.800671 0.371847
0.521538 0.814588 0.379522
0.614389 0.828229 0.385199
0.709407 0.841642 0.389838
0.80325 0.855039 0.390555
0.892973 0.869322 0.375113
0.971115 0.882261 0.361028
0.335821 0.883452 0.422736
0.395499 0.884489 0.419425
0.475227 0.893233 0.423972
0.562066 0.905516 0.431144
0.652674 0.91754 0.437247
0.743984 0.928985 0.441642
0.833631 0.940719 0.44625
0.917098 0.953506 0.445029
0.988235 0.965103 0.432685
0.00494392 0.00523384 0.0208133
0.0551003 0.0189364 0.043061
0.14313 0.0411994 0.0697032
0.269947 0.0637217 0.094667
0.399374 0.0834211 0.108309
0.514351 0.0998703 0.113558
0.628046 0.116335 0.116701
0.733181 0.134524 0.120607
0.80441 0.14548 0.125292
0.0454261 0.0839857 0.0793011
0.105776 0.0980087 0.0865492
0.198383 0.116945 0.0977188
0.295918 0.136751 0.109255
0.407477 0.152636 0.117906
0.526253 0.168017 0.123156
0.646296 0.183719 0.127291
0.757763 0.201099 0.131655
0.832868 0.213474 0.137484
0.0895094 0.19675 0.1393
0.162417 0.193622 0.146181
0.231434 0.205066 0.140337
0.342214 0.215366 0.135546
0.453147 0.228916 0.142748
0.568765 0.244388 0.148409
0.686259 0.261982 0.15436
0.793912 0.282399 0.162158
0.867628 0.295003 0.167758
0.123735 0.308888 0.188388
0.22034 0.301198 0.206546
0.277897 0.313634 0.210071
0.356863 0.331212 0.198856
0.480278 0.342657 0.177493
0.610162 0.351827 0.184283
0.72578 0.368277 0.190051
0.830396 0.387045 0.197253
0.901549 0.400244 0.204623
0.163027 0.427253 0.239902
0.260563 0.422217 0.261357
0.321721 0.434714 0.269108
0.396445 0.451011 0.27245
0.487007 0.469413 0.261738
0.618265 0.481575 0.224506
0.752453 0.490837 0.231708
0.860304 0.506065 0.238972
0.930159 0.520546 0.249439
0.204685 0.550011 0.294606
0.299031 0.54699 0.314199
0.365194 0.559091 0.325612
0.44007 0.57528 0.325551
0.526619 0.592798 0.332799
0.629206 0.610208 0.320623
0.755245 0.62504 0.279316
0.873213 0.637324 0.283635
0.950347 0.649561 0.323262
0.249882 0.675196 0.353811
0.333501 0.672999 0.364706
0.407736 0.684901 0.37911
0.487602 0.700511 0.383429
0.576394 0.716548 0.389364
0.669367 0.732692 0.393256
0.770657 0.749126 0.379278
0.877668 0.764691 0.340856
0.962722 0.775433 0.348257
0.298375 0.79379 0.417029
0.363958 0.7935 0.416556
0.449104 0.803571 0.431739
0.53576 0.81709 0.444434
0.621286 0.830777 0.442756
0.714199 0.844083 0.455177
0.80473 0.857755 0.451743
0.894469 0.872023 0.436301
0.973373 0.88423 0.409232
0.34136 0.885832 0.470375
0.40235 0.886717 0.467704
0.483528 0.895796 0.475792
0.571817 0.908064 0.489387
0.658015 0.91986 0.489967
0.74786 0.931304 0.493843
0.836652 0.942931 0.499611
0.919112 0.95552 0.498421
0.990158 0.967193 0.483665
0.0099794 0.0104067 0.0560616
0.0660105 0.0240024 0.0913863
0.157046 0.0465095 0.127321
0.272602 0.0711833 0.159945
0.386526 0.0925612 0.17847
0.494591 0.109789 0.187076
0.606241 0.126436 0.193179
0.712062 0.144259 0.199649
0.784207 0.15494 0.205814
0.0494698 0.0923018 0.125734
0.100969 0.109895 0.131914
0.192172 0.124224 0.159289
0.287144 0.143282 0.166033
0.396094 0.159487 0.178225
0.510918 0.174823 0.188968
0.629786 0.191073 0.198489
0.741238 0.209659 0.20824
0.817319 0.221439 0.215549
0.0919051 0.201083 0.188113
0.162936 0.196612 0.198444
0.226444 0.210727 0.188037
0.327245 0.224262 0.194186
0.434073 0.241077 0.20676
0.54139 0.263462 0.219333
0.656657 0.285817 0.232486
0.769314 0.308797 0.246494
0.856687 0.326146 0.256123
0.128954 0.312383 0.237461
0.2224 0.304173 0.252445
0.279667 0.317922 0.251133
0.368612 0.332601 0.244785
0.489982 0.343374 0.241199
0.600565 0.360098 0.250095
0.711162 0.380041 0.262638
0.816373 0.401297 0.275578
0.894759 0.418341 0.285237
0.168902 0.430961 0.290761
0.274128 0.424704 0.306447
0.348974 0.435355 0.32343
0.422141 0.450416 0.32639
0.514809 0.466926 0.313603
0.636606 0.479728 0.293599
0.759045 0.4925 0.299016
0.85948 0.510826 0.310872
0.926238 0.533364 0.337758
0.21091 0.553567 0.347539
0.309224 0.549722 0.361028
0.424033 0.557748 0.402319
0.486839 0.572793 0.407599
0.56463 0.589441 0.40676
0.650904 0.609415 0.38761
0.76759 0.625895 0.348531
0.883101 0.637156 0.352209
0.948562 0.656748 0.404288
0.256306 0.678477 0.40795
0.342794 0.675914 0.41529
0.482521 0.685039 0.474922
0.548348 0.698314 0.485664
0.617075 0.714153 0.486046
0.68983 0.731914 0.485817
0.777646 0.750668 0.462058
0.884153 0.766613 0.405539
0.964614 0.779049 0.434852
0.305333 0.796765 0.471733
0.37554 0.796262 0.472923
0.527459 0.8056 0.541558
0.591623 0.81709 0.550866
0.656352 0.830488 0.551034
0.733776 0.844053 0.554543
0.803861 0.859922 0.559136
0.891615 0.874739 0.536187
0.976059 0.886244 0.47248
0.347875 0.888533 0.524895
0.409354 0.889143 0.522347
0.551965 0.89955 0.579065
0.622766 0.908888 0.588632
0.692134 0.919905 0.589349
0.766461 0.931868 0.587518
0.845975 0.943877 0.591882
0.921843 0.956741 0.592279
0.992248 0.969345 0.546624
0.0170443 0.0175937 0.100694
0.0757458 0.0303807 0.148013
0.175891 0.0491951 0.204334
0.291035 0.0741588 0.239002
0.390814 0.0976577 0.251575
0.490059 0.116838 0.26009
0.595376 0.135302 0.268513
0.69752 0.154208 0.276905
0.769116 0.165255 0.284123
0.055314 0.100481 0.187152
0.105867 0.123842 0.178882
0.183383 0.132113 0.235966
0.28513 0.150469 0.236912
0.384543 0.169848 0.246143
0.49633 0.185122 0.260975
0.611887 0.200855 0.276432
0.722316 0.219638 0.288991
0.799176 0.23212 0.29752
0.0945144 0.206439 0.249012
0.155459 0.205356 0.246952
0.218448 0.219242 0.247974
0.317952 0.231891 0.270939
0.424079 0.250523 0.269505
0.533623 0.270359 0.286198
0.647471 0.292058 0.302144
0.758816 0.315251 0.318395
0.843687 0.332647 0.33193
0.134005 0.316884 0.298146
0.21471 0.309545 0.311925
0.283772 0.321401 0.319661
0.361837 0.339742 0.308476
0.473243 0.354116 0.314809
0.581079 0.373236 0.325994
0.691157 0.39408 0.34255
0.79266 0.421134 0.358694
0.884138 0.433707 0.36466
0.17467 0.435309 0.351583
0.264881 0.429175 0.366079
0.347387 0.438224 0.390799
0.416587 0.457023 0.378775
0.511833 0.472969 0.371405
0.641169 0.482872 0.370382
0.748302 0.501427 0.379965
0.845121 0.523568 0.394781
0.922835 0.541665 0.40972
0.217136 0.557504 0.407904
0.316335 0.553094 0.418265
0.431739 0.561013 0.451301
0.486549 0.577478 0.453956
0.566003 0.594202 0.45713
0.666621 0.610147 0.444648
0.795377 0.620584 0.43064
0.887816 0.638926 0.43418
0.949325 0.660929 0.464057
0.263081 0.682261 0.467826
0.359319 0.679057 0.474998
0.496147 0.687526 0.522881
0.562692 0.700175 0.535088
0.632868 0.71519 0.540551
0.713069 0.731365 0.538689
0.804807 0.747951 0.522927
0.906065 0.761975 0.493187
0.967239 0.781048 0.504372
0.312093 0.799817 0.530648
0.387808 0.798962 0.532616
0.538216 0.807858 0.587777
0.641672 0.815457 0.619837
0.700816 0.827939 0.624903
0.774762 0.840681 0.626108
0.841688 0.856504 0.621073
0.912764 0.871504 0.621103
0.979278 0.888365 0.538628
0.354574 0.891402 0.583658
0.417243 0.891783 0.581613
0.557809 0.901183 0.627817
0.630091 0.91043 0.639139
0.701686 0.921141 0.64567
0.771939 0.933532 0.643549
0.849775 0.945907 0.646433
0.924285 0.958892 0.647807
0.994629 0.971527 0.609827
0.0242618 0.0249027 0.157702
0.0847639 0.0369421 0.215137
0.187472 0.0545052 0.291066
0.30811 0.0755779 0.334188
0.405875 0.098085 0.339147
0.496712 0.120104 0.341207
0.595728 0.141024 0.348547
0.692195 0.161608 0.357595
0.761517 0.17348 0.365896
0.0605631 0.108583 0.26006
0.116396 0.134798 0.244175
0.178088 0.139849 0.306508
0.284459 0.155428 0.329992
0.389685 0.176074 0.327565
0.49398 0.193729 0.340536
0.604059 0.210773 0.355718
0.709941 0.229267 0.371984
0.785168 0.242054 0.382727
0.0987564 0.210834 0.318303
0.156252 0.215213 0.298329
0.214481 0.230961 0.296513
0.305837 0.239521 0.359792
0.419455 0.256672 0.359792
0.520394 0.281376 0.366476
0.633799 0.302647 0.378347
0.743587 0.324697 0.397604
0.8262 0.340856 0.414939
0.138598 0.321782 0.367361
0.206806 0.316854 0.371756
0.278508 0.328328 0.380224
0.353857 0.347906 0.384695
0.459922 0.36286 0.404685
0.571618 0.383383 0.396292
0.683955 0.402579 0.41062
0.785458 0.427497 0.43241
0.871565 0.440848 0.448539
0.17966 0.439933 0.418677
0.263615 0.433936 0.428595
0.348104 0.441596 0.460395
0.421057 0.460639 0.451926
0.506386 0.479759 0.443641
0.623194 0.493721 0.450797
0.726162 0.514763 0.461097
0.828244 0.536751 0.478416
0.916182 0.550332 0.487678
0.222843 0.561975 0.473442
0.309865 0.556893 0.484001
0.400809 0.565194 0.525368
0.485252 0.579721 0.534524
0.558968 0.601144 0.515221
0.657572 0.617792 0.507668
0.784787 0.628504 0.510414
0.876646 0.647715 0.519921
0.948837 0.66569 0.533455
0.269474 0.686305 0.532616
0.354177 0.682948 0.537057
0.491478 0.690593 0.585321
0.569726 0.703151 0.593057
0.629236 0.7205 0.592157
0.709636 0.736416 0.594751
0.805692 0.751766 0.583139
0.907057 0.762417 0.601724
0.970001 0.782757 0.583795
0.318608 0.803189 0.594461
0.401266 0.801984 0.597467
0.550988 0.810422 0.642618
0.649073 0.81799 0.66772
0.707515 0.830137 0.676387
0.775799 0.843351 0.683711
0.846342 0.858289 0.684215
0.916213 0.871305 0.708431
0.982651 0.889998 0.615152
0.361181 0.894286 0.646571
0.431479 0.894835 0.647089
0.566888 0.903029 0.683024
0.634302 0.912367 0.691981
0.705409 0.923201 0.699001
0.7785 0.935317 0.703395
0.853422 0.948272 0.704875
0.927398 0.961257 0.707164
0.997024 0.97377 0.67834
0.030808 0.0315557 0.228244
0.0936751 0.0430457 0.296208
0.196139 0.06009 0.383551
0.314473 0.0791638 0.42974
0.41912 0.0976577 0.438849
0.513115 0.11931 0.436805
0.604913 0.143175 0.437293
0.695659 0.165728 0.443656
0.762402 0.179294 0.451545
0.0649729 0.115496 0.343008
0.125917 0.136934 0.338262
0.187732 0.142794 0.387366
0.295109 0.154864 0.422293
0.403296 0.174289 0.432029
0.505714 0.196765 0.432242
0.608057 0.215808 0.442771
0.709712 0.235462 0.457847
0.781399 0.249653 0.468574
0.102678 0.215366 0.39382
0.162295 0.220676 0.375448
0.217838 0.242679 0.353735
0.278599 0.252995 0.427298
0.416541 0.263523 0.4607
0.526864 0.285695 0.457221
0.626886 0.314 0.464897
0.734401 0.336721 0.479011
0.815869 0.3514 0.495796
0.143008 0.326482 0.442359
0.204532 0.325444 0.432746
0.273213 0.339117 0.431159
0.343389 0.360906 0.435767
0.450401 0.370169 0.499657
0.565805 0.388647 0.49955
0.666178 0.414374 0.501534
0.772045 0.438605 0.510079
0.85536 0.451652 0.533349
0.184436 0.444694 0.492103
0.257343 0.440055 0.498222
0.338659 0.448234 0.522896
0.418189 0.466728 0.521752
0.501259 0.486427 0.531228
0.602914 0.504448 0.547417
0.717449 0.524483 0.537041
0.822995 0.545327 0.543557
0.900526 0.559304 0.578393
0.227985 0.566522 0.544564
0.311009 0.561898 0.550561
0.408667 0.569284 0.591394
0.493095 0.583062 0.606073
0.562692 0.605463 0.5897
0.653254 0.624201 0.585428
0.768093 0.638086 0.594812
0.862715 0.658122 0.601846
0.942977 0.672847 0.616968
0.275364 0.690501 0.602197
0.356344 0.687022 0.607797
0.453895 0.695109 0.650507
0.546258 0.705821 0.683513
0.627146 0.722454 0.679072
0.702052 0.74284 0.656062
0.796109 0.759075 0.649302
0.897551 0.770703 0.664515
0.971267 0.785702 0.660014
0.324971 0.806973 0.662272
0.396155 0.80557 0.663172
0.532647 0.813245 0.706569
0.637934 0.820157 0.742184
0.715938 0.832197 0.736782
0.775219 0.847349 0.736629
0.845045 0.862058 0.740703
0.916747 0.875441 0.751568
0.986252 0.891356 0.69752
0.367636 0.89752 0.712139
0.431083 0.897505 0.710857
0.563836 0.905699 0.739773
0.639887 0.914641 0.750301
0.712047 0.925246 0.758022
0.784634 0.937377 0.765042
0.858045 0.950591 0.768368
0.930739 0.963943 0.770459
0.999008 0.97615 0.750988
0.0370489 0.0380407 0.314733
0.102907 0.0492866 0.390616
0.204227 0.0664836 0.479347
0.317266 0.0839399 0.523812
0.423636 0.100145 0.537926
0.527245 0.118471 0.542153
0.622522 0.141649 0.539483
0.707164 0.166995 0.539086
0.769894 0.182254 0.543862
0.0697185 0.122011 0.432609
0.132906 0.130816 0.446006
0.203357 0.142184 0.478309
0.303502 0.155367 0.51284
0.413153 0.171267 0.532921
0.523995 0.190295 0.541482
0.624613 0.21529 0.542733
0.7178 0.240162 0.550484
0.786816 0.253666 0.559823
0.106508 0.219593 0.474128
0.166232 0.222065 0.46772
0.22623 0.254551 0.421927
0.275761 0.265538 0.487388
0.39646 0.274342 0.556207
0.526757 0.293858 0.56321
0.637186 0.318242 0.560418
0.732433 0.349081 0.569192
0.815274 0.362173 0.585351
0.147311 0.331182 0.521752
0.208881 0.331243 0.509926
0.27538 0.350378 0.490593
0.340734 0.373587 0.491691
0.414618 0.386496 0.568948
0.56347 0.394934 0.603143
0.67332 0.417319 0.600549
0.765225 0.447471 0.606943
0.847898 0.462272 0.61973
0.189136 0.449439 0.570718
0.252628 0.447059 0.567727
0.33048 0.458595 0.5738
0.410224 0.476738 0.57821
0.487343 0.49987 0.583658
0.599954 0.509575 0.643915
0.712261 0.529259 0.645136
0.803235 0.556573 0.644968
0.885573 0.570809 0.664073
0.233112 0.571328 0.620798
0.304875 0.567514 0.623987
0.398444 0.575051 0.658351
0.486305 0.589166 0.673961
0.563058 0.610712 0.665644
0.651301 0.62916 0.679408
0.742535 0.649699 0.693416
0.850065 0.668238 0.682597
0.925902 0.681651 0.709651
0.280507 0.695079 0.674632
0.359106 0.691905 0.677943
0.467338 0.699687 0.715267
0.560098 0.70898 0.747509
0.638804 0.725841 0.74435
0.70399 0.747356 0.727581
0.793072 0.764233 0.727413
0.890517 0.777935 0.734142
0.967071 0.790631 0.74464
0.330709 0.810803 0.73138
0.401541 0.809201 0.732784
0.512276 0.816739 0.769375
0.600793 0.824475 0.807202
0.718288 0.833051 0.817121
0.773175 0.849531 0.812543
0.839979 0.86746 0.796185
0.915557 0.881071 0.795804
0.989563 0.892699 0.78352
0.373907 0.901213 0.778759
0.438315 0.900999 0.778256
0.553674 0.908736 0.799588
0.631891 0.918212 0.809201
0.710719 0.928405 0.818204
0.790021 0.939818 0.826856
0.863737 0.95314 0.833631
0.934462 0.966674 0.836469
0.999008 0.978653 0.824201
0.0425727 0.0438239 0.4103
0.11133 0.0551766 0.48925
0.210803 0.0723125 0.571283
0.318975 0.0890822 0.611734
0.425345 0.103868 0.630411
0.532479 0.12079 0.639689
0.635981 0.140795 0.643336
0.725139 0.165545 0.643153
0.784863 0.182239 0.643397
0.0736858 0.127489 0.521996
0.137713 0.132311 0.537026
0.214481 0.143664 0.566018
0.308095 0.158373 0.599756
0.418799 0.171756 0.626444
0.52961 0.191165 0.642191
0.640787 0.210315 0.650156
0.735637 0.237354 0.654353
0.799954 0.255283 0.657588
0.109865 0.223651 0.555749
0.169314 0.223636 0.558251
0.236362 0.264927 0.502693
0.283116 0.273884 0.566079
0.391272 0.281117 0.639124
0.515343 0.301946 0.667384
0.643107 0.325505 0.668757
0.746578 0.35227 0.668986
0.822843 0.376654 0.677867
0.151019 0.335546 0.600702
0.212268 0.333944 0.597696
0.281926 0.360555 0.561456
0.344198 0.386481 0.554879
0.402838 0.404288 0.613092
0.535302 0.40827 0.696773
0.673823 0.42475 0.703914
0.776974 0.449851 0.703624
0.853056 0.470329 0.7131
0.193637 0.454124 0.647807
0.256382 0.452445 0.644099
0.331212 0.469841 0.629206
0.406363 0.488396 0.635386
0.479652 0.512871 0.639384
0.561303 0.525948 0.714473
0.711315 0.535393 0.743496
0.811292 0.558389 0.743603
0.884688 0.579034 0.751873
0.237934 0.576135 0.695506
0.301091 0.574014 0.694713
0.388281 0.583795 0.708705
0.473442 0.599313 0.723095
0.555688 0.620432 0.723186
0.628794 0.642924 0.736095
0.744808 0.654002 0.779141
0.845106 0.672526 0.783871
0.915953 0.690776 0.791882
0.286107 0.699718 0.74548
0.3523 0.697688 0.746349
0.457694 0.704387 0.776532
0.567727 0.715114 0.795636
0.651453 0.731212 0.793957
0.711818 0.751293 0.796078
0.783871 0.770733 0.80975
0.876265 0.785779 0.822324
0.950759 0.7991 0.830793
0.33608 0.815015 0.796719
0.408499 0.813306 0.798154
0.523674 0.820813 0.82623
0.679362 0.826093 0.843641
0.755871 0.835843 0.847333
0.803113 0.85153 0.853208
0.848737 0.869902 0.857847
0.913542 0.88603 0.853117
0.989853 0.89543 0.859419
0.379126 0.905013 0.840482
0.441138 0.904753 0.839734
0.544244 0.912016 0.854673
0.625132 0.921782 0.864759
0.70547 0.932158 0.874052
0.785672 0.943313 0.883848
0.865766 0.956054 0.893416
0.93698 0.96968 0.898543
0.999008 0.981277 0.891722
0.0463569 0.0475471 0.482292
0.11725 0.0593881 0.561273
0.215335 0.076585 0.634684
0.320134 0.0927596 0.67187
0.425956 0.107118 0.69369
0.534829 0.123262 0.707454
0.641154 0.14229 0.714992
0.735912 0.165011 0.719921
0.798642 0.181506 0.721614
0.0764477 0.130694 0.585351
0.140948 0.135363 0.600839
0.218616 0.146242 0.629038
0.312383 0.160678 0.663508
0.420233 0.174685 0.692683
0.533593 0.191272 0.71252
0.646571 0.211704 0.725872
0.747494 0.235248 0.734249
0.814481 0.253956 0.738079
0.112139 0.22649 0.617166
0.171435 0.225498 0.623529
0.245319 0.268437 0.60235
0.2934 0.269657 0.654856
0.398993 0.283238 0.70248
0.526864 0.300008 0.737026
0.641215 0.327489 0.755535
0.759854 0.351003 0.761486
0.838865 0.374884 0.765469
0.154437 0.338933 0.661112
0.214511 0.336492 0.662211
0.289311 0.366796 0.645548
0.346105 0.391836 0.647364
0.409308 0.404791 0.697108
0.531334 0.416358 0.755245
0.658228 0.435492 0.783398
0.784298 0.453529 0.793683
0.867628 0.470283 0.797711
0.197314 0.457649 0.707286
0.259205 0.455665 0.707042
0.335912 0.476448 0.697826
0.39176 0.4934 0.712642
0.467201 0.510857 0.741894
0.571405 0.529732 0.777737
0.694041 0.546304 0.812833
0.813794 0.564294 0.826947
0.896605 0.579919 0.83093
0.241993 0.580056 0.753857
0.304524 0.578195 0.754116
0.38613 0.591882 0.757809
0.434272 0.607706 0.77174
0.529793 0.626459 0.788479
0.629572 0.64564 0.808103
0.737331 0.661021 0.842145
0.847868 0.676677 0.859419
0.924025 0.691951 0.863386
0.290471 0.703777 0.802136
0.353185 0.702113 0.802686
0.469932 0.712108 0.814786
0.543893 0.726284 0.825727
0.617334 0.741741 0.837064
0.696529 0.758816 0.849439
0.780468 0.775906 0.867521
0.879927 0.78819 0.891173
0.950591 0.802533 0.895552
0.340032 0.818875 0.851133
0.40264 0.817548 0.851057
0.54699 0.825818 0.863447
0.619471 0.836423 0.872663
0.691279 0.84828 0.882872
0.765393 0.861433 0.893767
0.83801 0.875929 0.905333
0.909697 0.889876 0.921569
0.978988 0.901274 0.928908
0.38352 0.908415 0.891508
0.446983 0.90811 0.891676
0.551995 0.91519 0.900221
0.627039 0.924865 0.909102
0.706798 0.935409 0.919097
0.787686 0.94667 0.929397
0.867262 0.959457 0.940978
0.940429 0.972351 0.952453
0.999008 0.98291 0.953384
